
(Header)
(Generated by gcodetools from Inkscape.)
(Using default header. To add your own header create file "header" in the output dir.)
M3
(Header end.)
G21 (All units in mm)

(Start cutting path id: path4556 at depth: -1.0)
(path id: path4556 at depth step: -1.0)
(path len: 16.13248)
(Change tool to Default tool)
 
G00 Z5.000000
G00 X29.278154 Y9.042701
(Subpath start)
G01 Z-1.000000 F100.0(Penetrate)
G01 X29.761607 Y9.120711 Z-1.000000 F400.000000
G03 X29.845937 Y8.846407 Z-1.000000 I0.879032 J0.120130
G03 X29.988397 Y8.663779 Z-1.000000 I0.517675 J0.256938
G03 X30.191880 Y8.552215 Z-1.000000 I0.369775 J0.433086
G03 X30.508517 Y8.504954 Z-1.000000 I0.316638 J1.037073
G03 X30.828843 Y8.549182 Z-1.000000 I0.000000 J1.182107
G03 X31.008268 Y8.645662 Z-1.000000 I-0.127075 J0.451403
G03 X31.131281 Y8.804644 Z-1.000000 I-0.330534 J0.382835
G03 X31.171231 Y8.975842 Z-1.000000 I-0.346878 J0.171206
G03 X31.133453 Y9.125749 Z-1.000000 I-0.316340 J-0.000006
G03 X31.027280 Y9.243325 Z-1.000000 I-0.292517 J-0.157423
G03 X30.920424 Y9.295915 Z-1.000000 I-0.255296 J-0.383873
G03 X30.527529 Y9.413277 Z-1.000000 I-1.758407 J-5.170294
G02 X29.995474 Y9.568042 Z-1.000000 I2.347221 J9.061281
G02 X29.781977 Y9.654297 Z-1.000000 I0.497234 J1.538103
G02 X29.595841 Y9.779484 Z-1.000000 I0.361090 J0.737864
G02 X29.466918 Y9.935712 Z-1.000000 I0.446048 J0.499398
G02 X29.387461 Y10.123094 Z-1.000000 I0.639131 J0.381551
G02 X29.359634 Y10.332751 Z-1.000000 I0.775906 J0.209658
G02 X29.382462 Y10.524955 Z-1.000000 I0.820573 J0.000000
G02 X29.447906 Y10.699143 Z-1.000000 I0.737440 J-0.177674
G02 X29.552616 Y10.853556 Z-1.000000 I0.729898 J-0.382245
G02 X29.688275 Y10.979156 Z-1.000000 I0.613723 J-0.526817
G02 X29.809127 Y11.052243 Z-1.000000 I0.409854 J-0.541251
G02 X29.999260 Y11.125451 Z-1.000000 I0.601391 J-1.278393
G02 X30.198513 Y11.169601 Z-1.000000 I0.385167 J-1.266602
G02 X30.421604 Y11.185343 Z-1.000000 I0.223091 J-1.572868
G02 X30.755843 Y11.157423 Z-1.000000 I-0.000000 J-2.014587
G02 X31.017775 Y11.085031 Z-1.000000 I-0.219326 J-1.303642
G02 X31.253079 Y10.957315 Z-1.000000 I-0.391467 J-1.001858
G02 X31.396660 Y10.813388 Z-1.000000 I-0.361598 J-0.504311
G02 X31.492797 Y10.631314 Z-1.000000 I-0.628661 J-0.448355
G02 X31.565054 Y10.355030 Z-1.000000 I-1.394289 J-0.512243
G01 X31.087032 Y10.288171 Z-1.000000
G03 X31.019223 Y10.496815 Z-1.000000 I-0.632290 J-0.090153
G03 X30.898268 Y10.644814 Z-1.000000 I-0.428660 J-0.226903
G03 X30.728285 Y10.734364 Z-1.000000 I-0.303348 J-0.369713
G03 X30.456912 Y10.772968 Z-1.000000 I-0.271373 J-0.934512
G03 X30.133338 Y10.735060 Z-1.000000 I-0.000000 J-1.399912
G03 X29.976175 Y10.658747 Z-1.000000 I0.093028 J-0.391580
G03 X29.866652 Y10.527884 Z-1.000000 I0.262889 J-0.331284
G03 X29.832224 Y10.391265 Z-1.000000 I0.253860 J-0.136619
G03 X29.847509 Y10.298908 Z-1.000000 I0.286666 J0.000000
G03 X29.891976 Y10.215725 Z-1.000000 I0.275301 J0.093691
G03 X29.961481 Y10.147382 Z-1.000000 I0.250410 J0.185152
G03 X30.079384 Y10.081984 Z-1.000000 I0.346075 J0.484942
G03 X30.153622 Y10.056920 Z-1.000000 I0.375763 J0.990533
G03 X30.511233 Y9.953806 Z-1.000000 I6.722932 J22.644191
G02 X31.026056 Y9.800640 Z-1.000000 I-3.249816 J-11.865113
G02 X31.235058 Y9.721156 Z-1.000000 I-0.653106 J-2.031840
G02 X31.420573 Y9.607225 Z-1.000000 I-0.326951 J-0.740385
G02 X31.556907 Y9.457858 Z-1.000000 I-0.442070 J-0.540401
G02 X31.640777 Y9.275029 Z-1.000000 I-0.509305 J-0.344287
G02 X31.673695 Y9.028768 Z-1.000000 I-0.904773 J-0.246273
G02 X31.638205 Y8.788446 Z-1.000000 I-0.831479 J0.000012
G02 X31.531105 Y8.556501 Z-1.000000 I-0.880382 J0.265814
G02 X31.362200 Y8.365522 Z-1.000000 I-0.707108 J0.455197
G02 X31.119625 Y8.213791 Z-1.000000 I-0.677654 J0.813602
G02 X30.843682 Y8.125371 Z-1.000000 I-0.525981 J1.166709
G02 X30.511233 Y8.092579 Z-1.000000 I-0.332449 J1.668810
G02 X29.975142 Y8.166119 Z-1.000000 I-0.000000 J1.990780
G02 X29.654323 Y8.332196 Z-1.000000 I0.238910 J0.854422
G02 X29.425760 Y8.610543 Z-1.000000 I0.570246 J0.701271
G02 X29.278154 Y9.042701 Z-1.000000 I1.284212 J0.679916
(Subpath end)
G00 Z5.000000

(End cutting path id: path4556 at depth: -1.0)

(Start cutting path id: path4554 at depth: -1.0)
(path id: path4554 at depth step: -1.0)
(path len: 9.38936)
G00 Z5.000000
G00 X27.610506 Y8.159462
(Subpath start)
G01 Z-1.000000 F100.0(Penetrate)
G01 X27.610506 Y11.118484 Z-1.000000 F400.000000
G01 X28.050505 Y11.118484 Z-1.000000
G01 X28.050505 Y10.669898 Z-1.000000
G02 X28.239427 Y10.966574 Z-1.000000 I2.044946 J-1.093724
G02 X28.361492 Y11.085031 Z-1.000000 I0.434087 J-0.325187
G02 X28.512134 Y11.159910 Z-1.000000 I0.320005 J-0.454821
G02 X28.675192 Y11.185343 Z-1.000000 I0.163058 J-0.509983
G02 X28.911601 Y11.148258 Z-1.000000 I-0.000000 J-0.772074
G02 X29.177659 Y11.023736 Z-1.000000 I-0.356350 J-1.107884
G01 X29.009266 Y10.558435 Z-1.000000
G03 X28.822875 Y10.641585 Z-1.000000 I-0.423089 J-0.697925
G03 X28.650750 Y10.667093 Z-1.000000 I-0.172125 J-0.567990
G03 X28.499163 Y10.641785 Z-1.000000 I0.000000 J-0.466639
G03 X28.362850 Y10.568184 Z-1.000000 I0.153895 J-0.448052
G03 X28.256966 Y10.454198 Z-1.000000 I0.293412 J-0.378731
G03 X28.180875 Y10.293735 Z-1.000000 I0.520419 J-0.345053
G03 X28.121178 Y10.023008 Z-1.000000 I1.687312 J-0.514003
G03 X28.099394 Y9.708626 Z-1.000000 I2.257632 J-0.314382
G01 X28.099394 Y8.159462 Z-1.000000
G01 X27.610506 Y8.159462 Z-1.000000
(Subpath end)
G00 Z5.000000

(End cutting path id: path4554 at depth: -1.0)

(Start cutting path id: path4552 at depth: -1.0)
(path id: path4552 at depth step: -1.0)
(path len: 15.48271)
G00 Z5.000000
G00 X26.410021 Y8.159462
(Subpath start)
G01 Z-1.000000 F100.0(Penetrate)
G01 X26.410021 Y8.594115 Z-1.000000 F400.000000
G02 X26.003760 Y8.222900 Z-1.000000 I-0.964562 J0.647709
G02 X25.494716 Y8.092579 Z-1.000000 I-0.509043 J0.929026
G02 X25.245022 Y8.118565 Z-1.000000 I0.000000 J1.212629
G02 X25.018052 Y8.192891 Z-1.000000 I0.225889 J1.073511
G02 X24.814586 Y8.314833 Z-1.000000 I0.428321 J0.945396
G02 X24.689412 Y8.445038 Z-1.000000 I0.366278 J0.477397
G02 X24.601829 Y8.605343 Z-1.000000 I0.649942 J0.459173
G02 X24.538672 Y8.817017 Z-1.000000 I1.078598 J0.437082
G02 X24.518982 Y8.965694 Z-1.000000 I1.083325 J0.219110
G02 X24.508795 Y9.285100 Z-1.000000 I5.002014 J0.319406
G01 X24.508795 Y11.118484 Z-1.000000
G01 X24.997682 Y11.118484 Z-1.000000
G01 X24.997682 Y9.477354 Z-1.000000
G03 X25.008728 Y9.085696 Z-1.000000 I6.946732 J-0.000061
G03 X25.027557 Y8.947977 Z-1.000000 I0.874027 J0.049349
G03 X25.102380 Y8.768772 Z-1.000000 I0.571435 J0.133368
G03 X25.223112 Y8.637293 Z-1.000000 I0.419500 J0.264037
G03 X25.382980 Y8.555739 Z-1.000000 I0.310249 J0.410705
G03 X25.592492 Y8.524451 Z-1.000000 I0.209512 J0.685824
G03 X25.804430 Y8.553569 Z-1.000000 I-0.000000 J0.785846
G03 X26.005330 Y8.640074 Z-1.000000 I-0.221563 J0.791097
G03 X26.170850 Y8.779039 Z-1.000000 I-0.352930 J0.588431
G03 X26.278293 Y8.954943 Z-1.000000 I-0.471483 J0.408749
G03 X26.332625 Y9.159151 Z-1.000000 I-0.803315 J0.323066
G03 X26.358415 Y9.533086 Z-1.000000 I-2.698384 J0.373960
G01 X26.358415 Y11.118484 Z-1.000000
G01 X26.847303 Y11.118484 Z-1.000000
G01 X26.847303 Y8.159462 Z-1.000000
G01 X26.410021 Y8.159462 Z-1.000000
(Subpath end)
G00 Z5.000000

(End cutting path id: path4552 at depth: -1.0)

(Start cutting path id: path4550 at depth: -1.0)
(path id: path4550 at depth step: -1.0)
(path len: 13.98636)
G00 Z5.000000
G00 X23.397937 Y9.112365
(Subpath start)
G01 Z-1.000000 F100.0(Penetrate)
G01 X23.903119 Y9.048265 Z-1.000000 F400.000000
G02 X23.723477 Y8.633862 Z-1.000000 I-1.444929 J0.380232
G02 X23.460405 Y8.343347 Z-1.000000 I-0.952641 J0.598284
G02 X23.112880 Y8.163591 Z-1.000000 I-0.660828 J0.851774
G02 X22.634731 Y8.092579 Z-1.000000 I-0.478149 J1.574277
G02 X22.050791 Y8.204623 Z-1.000000 I-0.000000 J1.577687
G02 X21.631155 Y8.492400 Z-1.000000 I0.427718 J1.073540
G02 X21.369701 Y8.935108 Z-1.000000 I0.886837 J0.822307
G02 X21.260416 Y9.613877 Z-1.000000 I2.053279 J0.678768
G02 X21.371387 Y10.317719 Z-1.000000 I2.287566 J0.000001
G02 X21.635229 Y10.772968 Z-1.000000 I1.186943 J-0.383819
G02 X22.059351 Y11.073899 Z-1.000000 I0.897805 J-0.816000
G02 X22.607570 Y11.185343 Z-1.000000 I0.548219 J-1.292682
G02 X23.137984 Y11.076736 Z-1.000000 I0.000000 J-1.349523
G02 X23.552750 Y10.781337 Z-1.000000 I-0.469177 J-1.097649
G02 X23.810761 Y10.335369 Z-1.000000 I-0.904547 J-0.820937
G02 X23.919415 Y9.644549 Z-1.000000 I-2.141867 J-0.690831
G02 X23.918955 Y9.599939 Z-1.000000 I-2.183808 J0.000170
G02 X23.916703 Y9.510807 Z-1.000000 I-9.363808 J0.192048
G01 X21.765604 Y9.510807 Z-1.000000
G03 X21.859021 Y9.051464 Z-1.000000 I1.619601 J0.090209
G03 X22.034491 Y8.764067 Z-1.000000 I0.787584 J0.283595
G03 X22.305873 Y8.573186 Z-1.000000 I0.589941 J0.550378
G03 X22.637451 Y8.504954 Z-1.000000 I0.331579 J0.771554
G03 X22.893038 Y8.544333 Z-1.000000 I-0.000000 J0.849125
G03 X23.096461 Y8.649847 Z-1.000000 I-0.200645 J0.635682
G03 X23.253435 Y8.818797 Z-1.000000 I-0.410694 J0.538978
G03 X23.397941 Y9.112365 Z-1.000000 I-1.142575 J0.744773
(Subpath end)
G00 Z5.000000

(End cutting path id: path4550 at depth: -1.0)

(Start cutting path id: path4550 at depth: -1.0)
(path id: path4550 at depth step: -1.0)
(path len: 4.21394)
G00 Z5.000000
G00 X21.792759 Y9.923158
(Subpath start)
G01 Z-1.000000 F100.0(Penetrate)
G01 X23.403368 Y9.923158 Z-1.000000 F400.000000
G03 X23.329991 Y10.279972 Z-1.000000 I-1.571271 J-0.137175
G03 X23.218678 Y10.483207 Z-1.000000 I-0.606203 J-0.199919
G03 X22.948664 Y10.696812 Z-1.000000 I-0.605821 J-0.488344
G03 X22.613002 Y10.772968 Z-1.000000 I-0.335662 J-0.701647
G03 X22.301664 Y10.711850 Z-1.000000 I-0.000000 J-0.823543
G03 X22.046709 Y10.541721 Z-1.000000 I0.290552 J-0.711522
G03 X21.875865 Y10.284096 Z-1.000000 I0.563421 J-0.559092
G03 X21.792759 Y9.923158 Z-1.000000 I1.053884 J-0.432693
(Subpath end)
G00 Z5.000000

(End cutting path id: path4550 at depth: -1.0)

(Start cutting path id: path4548 at depth: -1.0)
(path id: path4548 at depth step: -1.0)
(path len: 15.48271)
G00 Z5.000000
G00 X20.217459 Y8.159462
(Subpath start)
G01 Z-1.000000 F100.0(Penetrate)
G01 X20.217459 Y8.594115 Z-1.000000 F400.000000
G02 X19.811199 Y8.222900 Z-1.000000 I-0.964562 J0.647708
G02 X19.302155 Y8.092579 Z-1.000000 I-0.509044 J0.929025
G02 X19.052461 Y8.118565 Z-1.000000 I0.000000 J1.212624
G02 X18.825491 Y8.192891 Z-1.000000 I0.225893 J1.073528
G02 X18.622025 Y8.314833 Z-1.000000 I0.428314 J0.945383
G02 X18.496850 Y8.445038 Z-1.000000 I0.366283 J0.477401
G02 X18.409268 Y8.605343 Z-1.000000 I0.649974 J0.459190
G02 X18.346111 Y8.817017 Z-1.000000 I1.078554 J0.437070
G02 X18.326416 Y8.965695 Z-1.000000 I1.082344 J0.219014
G02 X18.316234 Y9.285100 Z-1.000000 I5.004407 J0.319399
G01 X18.316234 Y11.118484 Z-1.000000
G01 X18.805120 Y11.118484 Z-1.000000
G01 X18.805120 Y9.477354 Z-1.000000
G03 X18.816163 Y9.085697 Z-1.000000 I6.950257 J-0.000018
G03 X18.834997 Y8.947977 Z-1.000000 I0.873422 J0.049295
G03 X18.909820 Y8.768772 Z-1.000000 I0.571429 J0.133364
G03 X19.030552 Y8.637293 Z-1.000000 I0.419498 J0.264036
G03 X19.190421 Y8.555739 Z-1.000000 I0.310251 J0.410709
G03 X19.399932 Y8.524451 Z-1.000000 I0.209512 J0.685822
G03 X19.611868 Y8.553569 Z-1.000000 I0.000000 J0.785840
G03 X19.812770 Y8.640074 Z-1.000000 I-0.221568 J0.791114
G03 X19.978289 Y8.779039 Z-1.000000 I-0.352929 J0.588427
G03 X20.085731 Y8.954943 Z-1.000000 I-0.471483 J0.408746
G03 X20.140064 Y9.159151 Z-1.000000 I-0.803330 J0.323071
G03 X20.165854 Y9.533086 Z-1.000000 I-2.698327 J0.373960
G01 X20.165854 Y11.118484 Z-1.000000
G01 X20.654741 Y11.118484 Z-1.000000
G01 X20.654741 Y8.159462 Z-1.000000
G01 X20.217459 Y8.159462 Z-1.000000
(Subpath end)
G00 Z5.000000

(End cutting path id: path4548 at depth: -1.0)

(Start cutting path id: path4546 at depth: -1.0)
(path id: path4546 at depth step: -1.0)
(path len: 13.17698)
G00 Z5.000000
G00 X17.069574 Y7.025431
(Subpath start)
G01 Z-1.000000 F100.0(Penetrate)
G01 X17.069574 Y8.474307 Z-1.000000 F400.000000
G02 X16.938411 Y8.329155 Z-1.000000 I-0.628446 J0.436043
G02 X16.750440 Y8.201237 Z-1.000000 I-0.671937 J0.785320
G02 X16.538544 Y8.120085 Z-1.000000 I-0.438485 J0.827710
G02 X16.314516 Y8.092579 Z-1.000000 I-0.224028 J0.898589
G02 X15.848689 Y8.197774 Z-1.000000 I0.000000 J1.083997
G02 X15.430446 Y8.513300 Z-1.000000 I0.560754 J1.178264
G02 X15.168152 Y8.974994 Z-1.000000 I0.975374 J0.859476
G02 X15.059708 Y9.666827 Z-1.000000 I2.152585 J0.691832
G02 X15.100579 Y10.104288 Z-1.000000 I2.361565 J0.000002
G02 X15.210448 Y10.466493 Z-1.000000 I1.722256 J-0.324652
G02 X15.402845 Y10.785031 Z-1.000000 I1.221066 J-0.520153
G02 X15.647729 Y11.002837 Z-1.000000 I0.797943 J-0.650577
G02 X15.947885 Y11.138613 Z-1.000000 I0.623955 J-0.979693
G02 X16.276492 Y11.185343 Z-1.000000 I0.328607 J-1.132029
G02 X16.746797 Y11.064674 Z-1.000000 I0.000000 J-0.976834
G02 X17.118463 Y10.722824 Z-1.000000 I-0.508667 J-0.926000
G01 X17.118463 Y11.118484 Z-1.000000
G01 X17.558460 Y11.118484 Z-1.000000
G01 X17.558460 Y7.025431 Z-1.000000
G01 X17.069574 Y7.025431 Z-1.000000
(Subpath end)
G00 Z5.000000

(End cutting path id: path4546 at depth: -1.0)

(Start cutting path id: path4546 at depth: -1.0)
(path id: path4546 at depth step: -1.0)
(path len: 6.17595)
G00 Z5.000000
G00 X15.562174 Y9.647330
(Subpath start)
G01 Z-1.000000 F100.0(Penetrate)
G03 X15.635153 Y9.102169 Z-1.000000 I2.072665 J-0.000004 F400.000000
G03 X15.795753 Y8.790554 Z-1.000000 I0.812302 J0.221451
G03 X16.062679 Y8.575310 Z-1.000000 I0.646834 J0.529013
G03 X16.355257 Y8.504954 Z-1.000000 I0.292577 J0.573172
G03 X16.636162 Y8.571875 Z-1.000000 I0.000000 J0.623027
G03 X16.893032 Y8.776621 Z-1.000000 I-0.363392 J0.719404
G03 X17.047594 Y9.073850 Z-1.000000 I-0.609397 J0.505696
G03 X17.118463 Y9.602750 Z-1.000000 I-1.938284 J0.528912
G03 X17.044267 Y10.167472 Z-1.000000 I-2.186312 J-0.000013
G03 X16.880809 Y10.491577 Z-1.000000 I-0.857842 J-0.229368
G03 X16.608668 Y10.718097 Z-1.000000 I-0.684632 J-0.545780
G03 X16.322664 Y10.789707 Z-1.000000 I-0.286071 J-0.535607
G03 X16.038042 Y10.720800 Z-1.000000 I0.000070 J-0.622566
G03 X15.783531 Y10.512452 Z-1.000000 I0.358994 J-0.698160
G03 X15.633066 Y10.210397 Z-1.000000 I0.627596 J-0.501133
G03 X15.562174 Y9.647330 Z-1.000000 I2.200630 J-0.563063
(Subpath end)
G00 Z5.000000

(End cutting path id: path4546 at depth: -1.0)

(Start cutting path id: path4544 at depth: -1.0)
(path id: path4544 at depth step: -1.0)
(path len: 2.13125)
G00 Z5.000000
G00 X13.995022 Y11.667382
(Subpath start)
G01 Z-1.000000 F100.0(Penetrate)
G01 X13.995022 Y12.244122 Z-1.000000 F400.000000
G01 X14.483908 Y12.244122 Z-1.000000
G01 X14.483908 Y11.667382 Z-1.000000
G01 X13.995022 Y11.667382 Z-1.000000
(Subpath end)
G00 Z5.000000

(End cutting path id: path4544 at depth: -1.0)

(Start cutting path id: path4544 at depth: -1.0)
(path id: path4544 at depth step: -1.0)
(path len: 6.89582)
G00 Z5.000000
G00 X13.995022 Y8.159462
(Subpath start)
G01 Z-1.000000 F100.0(Penetrate)
G01 X13.995022 Y11.118484 Z-1.000000 F400.000000
G01 X14.483908 Y11.118484 Z-1.000000
G01 X14.483908 Y8.159462 Z-1.000000
G01 X13.995022 Y8.159462 Z-1.000000
(Subpath end)
G00 Z5.000000

(End cutting path id: path4544 at depth: -1.0)

(Start cutting path id: path4542 at depth: -1.0)
(path id: path4542 at depth step: -1.0)
(path len: 9.38936)
G00 Z5.000000
G00 X12.129105 Y8.159462
(Subpath start)
G01 Z-1.000000 F100.0(Penetrate)
G01 X12.129105 Y11.118484 Z-1.000000 F400.000000
G01 X12.569103 Y11.118484 Z-1.000000
G01 X12.569103 Y10.669898 Z-1.000000
G02 X12.758025 Y10.966574 Z-1.000000 I2.044997 J-1.093754
G02 X12.880089 Y11.085031 Z-1.000000 I0.434082 J-0.325181
G02 X13.030732 Y11.159910 Z-1.000000 I0.320005 J-0.454822
G02 X13.193791 Y11.185343 Z-1.000000 I0.163060 J-0.509988
G02 X13.430199 Y11.148258 Z-1.000000 I-0.000000 J-0.772070
G02 X13.696258 Y11.023736 Z-1.000000 I-0.356355 J-1.107896
G01 X13.527864 Y10.558435 Z-1.000000
G03 X13.341473 Y10.641585 Z-1.000000 I-0.423091 J-0.697931
G03 X13.169347 Y10.667093 Z-1.000000 I-0.172126 J-0.567994
G03 X13.017762 Y10.641785 Z-1.000000 I0.000000 J-0.466634
G03 X12.881447 Y10.568184 Z-1.000000 I0.153897 J-0.448058
G03 X12.775563 Y10.454198 Z-1.000000 I0.293408 J-0.378727
G03 X12.699473 Y10.293735 Z-1.000000 I0.520408 J-0.345045
G03 X12.639776 Y10.023008 Z-1.000000 I1.687373 J-0.514020
G03 X12.617992 Y9.708626 Z-1.000000 I2.257487 J-0.314372
G01 X12.617992 Y8.159462 Z-1.000000
G01 X12.129105 Y8.159462 Z-1.000000
(Subpath end)
G00 Z5.000000

(End cutting path id: path4542 at depth: -1.0)

(Start cutting path id: path4540 at depth: -1.0)
(path id: path4540 at depth step: -1.0)
(path len: 13.15680)
G00 Z5.000000
G00 X9.489119 Y8.159462
(Subpath start)
G01 Z-1.000000 F100.0(Penetrate)
G01 X9.035541 Y8.159462 Z-1.000000 F400.000000
G01 X9.035541 Y12.244122 Z-1.000000
G01 X9.524428 Y12.244122 Z-1.000000
G01 X9.524428 Y10.786901 Z-1.000000
G02 X9.884166 Y11.082937 Z-1.000000 I0.836790 J-0.650263
G02 X10.314794 Y11.185343 Z-1.000000 I0.430628 J-0.854211
G02 X10.574779 Y11.157277 Z-1.000000 I-0.000000 J-1.218206
G02 X10.818618 Y11.075283 Z-1.000000 I-0.251623 J-1.151860
G02 X11.036928 Y10.941015 Z-1.000000 I-0.458632 J-0.990311
G02 X11.209727 Y10.766002 Z-1.000000 I-0.623378 J-0.788308
G02 X11.341639 Y10.555622 Z-1.000000 I-1.023035 J-0.788004
G02 X11.450097 Y10.285389 Z-1.000000 I-1.588166 J-0.794290
G02 X11.514239 Y10.000521 Z-1.000000 I-1.789039 J-0.552482
G02 X11.537010 Y9.683542 Z-1.000000 I-2.195229 J-0.317008
G02 X11.427470 Y8.964344 Z-1.000000 I-2.415855 J0.000013
G02 X11.170345 Y8.507736 Z-1.000000 I-1.196693 J0.373182
G02 X10.756568 Y8.197031 Z-1.000000 I-0.960577 J0.848362
G02 X10.290349 Y8.092579 Z-1.000000 I-0.466218 J0.988255
G02 X9.841200 Y8.207207 Z-1.000000 I0.000000 J0.937270
G02 X9.489119 Y8.530038 Z-1.000000 I0.476963 J0.873584
G01 X9.489119 Y8.159462 Z-1.000000
(Subpath end)
G00 Z5.000000

(End cutting path id: path4540 at depth: -1.0)

(Start cutting path id: path4540 at depth: -1.0)
(path id: path4540 at depth step: -1.0)
(path len: 6.15028)
G00 Z5.000000
G00 X9.483686 Y9.661263
(Subpath start)
G01 Z-1.000000 F100.0(Penetrate)
G03 X9.530963 Y9.142092 Z-1.000000 I2.874217 J-0.000006 F400.000000
G03 X9.624920 Y8.892245 Z-1.000000 I0.741080 J0.136099
G03 X9.910630 Y8.601510 Z-1.000000 I0.739136 J0.440607
G03 X10.249609 Y8.504954 Z-1.000000 I0.338978 J0.546747
G03 X10.537049 Y8.574677 Z-1.000000 I-0.000000 J0.627365
G03 X10.803680 Y8.790554 Z-1.000000 I-0.386705 J0.750217
G03 X10.964556 Y9.102073 Z-1.000000 I-0.654353 J0.535224
G03 X11.037259 Y9.641743 Z-1.000000 I-1.966718 J0.539682
G03 X10.965873 Y10.195944 Z-1.000000 I-2.187067 J-0.000013
G03 X10.813186 Y10.497140 Z-1.000000 I-0.772710 J-0.202415
G03 X10.556543 Y10.704553 Z-1.000000 I-0.617647 J-0.501760
G03 X10.271337 Y10.772968 Z-1.000000 I-0.285207 J-0.560273
G03 X9.983886 Y10.703246 Z-1.000000 I-0.000000 J-0.627409
G03 X9.717266 Y10.487392 Z-1.000000 I0.386696 J-0.750234
G03 X9.555098 Y10.176308 Z-1.000000 I0.667019 J-0.545527
G03 X9.483686 Y9.661263 Z-1.000000 I1.821613 J-0.515041
(Subpath end)
G00 Z5.000000

(End cutting path id: path4540 at depth: -1.0)

(Start cutting path id: path4538 at depth: -1.0)
(path id: path4538 at depth step: -1.0)
(path len: 14.31962)
G00 Z5.000000
G00 X7.824189 Y8.524451
(Subpath start)
G01 Z-1.000000 F100.0(Penetrate)
G02 X7.538720 Y8.310563 Z-1.000000 I-1.584373 J1.817171 F400.000000
G02 X7.301353 Y8.190109 Z-1.000000 I-0.722731 J1.130114
G02 X7.045358 Y8.117980 Z-1.000000 I-0.503716 J1.297405
G02 X6.762219 Y8.092579 Z-1.000000 I-0.283138 J1.565338
G02 X6.314927 Y8.163664 Z-1.000000 I0.000000 J1.442815
G02 X6.031606 Y8.330817 Z-1.000000 I0.235965 J0.723643
G02 X5.844863 Y8.598822 Z-1.000000 I0.530802 J0.568920
G02 X5.776299 Y8.939607 Z-1.000000 I0.812616 J0.340785
G02 X5.801551 Y9.150593 Z-1.000000 I0.894031 J0.000001
G02 X5.872718 Y9.336647 Z-1.000000 I0.763565 J-0.185433
G02 X5.986506 Y9.500888 Z-1.000000 I0.777626 J-0.417209
G02 X6.125309 Y9.625028 Z-1.000000 I0.576608 J-0.505046
G02 X6.288452 Y9.718998 Z-1.000000 I0.630770 J-0.906494
G02 X6.477036 Y9.789417 Z-1.000000 I0.534247 J-1.142994
G02 X6.622327 Y9.821612 Z-1.000000 I0.417650 J-1.540874
G02 X6.911601 Y9.864645 Z-1.000000 I1.050113 J-6.065180
G03 X7.498593 Y9.958581 Z-1.000000 I-0.978978 J7.998439
G03 X7.783449 Y10.037403 Z-1.000000 I-0.386493 J1.950888
G03 X7.785874 Y10.140485 Z-1.000000 I-18.602723 J0.489254
G03 X7.786165 Y10.168363 Z-1.000000 I-1.351238 J0.028047
G03 X7.741330 Y10.454945 Z-1.000000 I-0.938398 J-0.000011
G03 X7.647647 Y10.600234 Z-1.000000 I-0.317358 J-0.101786
G03 X7.440128 Y10.718065 Z-1.000000 I-0.367051 J-0.404781
G03 X7.090860 Y10.770186 Z-1.000000 I-0.349268 J-1.144173
G03 X6.759252 Y10.730401 Z-1.000000 I-0.000000 J-1.401871
G03 X6.581603 Y10.646193 Z-1.000000 I0.114867 J-0.471819
G03 X6.453246 Y10.498405 Z-1.000000 I0.283677 J-0.376015
G03 X6.338518 Y10.207356 Z-1.000000 I1.052733 J-0.583110
G01 X5.860496 Y10.274238 Z-1.000000
G02 X5.954380 Y10.575900 Z-1.000000 I1.587905 J-0.328753
G02 X6.075063 Y10.782740 Z-1.000000 I0.858379 J-0.362201
G02 X6.246945 Y10.945765 Z-1.000000 I0.608588 J-0.469532
G02 X6.506912 Y11.080870 Z-1.000000 I0.667774 J-0.967251
G02 X6.794585 Y11.156245 Z-1.000000 I0.527305 J-1.425853
G02 X7.161477 Y11.185343 Z-1.000000 I0.366892 J-2.298470
G02 X7.525838 Y11.158429 Z-1.000000 I-0.000000 J-2.479845
G02 X7.761721 Y11.096182 Z-1.000000 I-0.162456 J-1.093674
G02 X7.976704 Y10.985304 Z-1.000000 I-0.405723 J-1.050518
G02 X8.101225 Y10.871901 Z-1.000000 I-0.300800 J-0.455358
G02 X8.189601 Y10.727141 Z-1.000000 I-0.514213 J-0.413284
G02 X8.253323 Y10.530570 Z-1.000000 I-0.894309 J-0.398520
G02 X8.268958 Y10.401563 Z-1.000000 I-0.942041 J-0.179622
G02 X8.277767 Y10.068051 Z-1.000000 I-6.311662 J-0.333585
G01 X8.277767 Y9.399344 Z-1.000000
G03 X8.290089 Y8.701016 Z-1.000000 I19.788495 J-0.000108
G03 X8.309002 Y8.514702 Z-1.000000 I1.421622 J0.050192
G03 X8.355165 Y8.334569 Z-1.000000 I1.094223 J0.184439
G03 X8.432581 Y8.159462 Z-1.000000 I1.110499 J0.386292
G01 X7.921967 Y8.159462 Z-1.000000
G02 X7.861943 Y8.320078 Z-1.000000 I0.804894 J0.392320
G02 X7.824190 Y8.524451 Z-1.000000 I1.270704 J0.340410
(Subpath end)
G00 Z5.000000

(End cutting path id: path4538 at depth: -1.0)

(Start cutting path id: path4538 at depth: -1.0)
(path id: path4538 at depth step: -1.0)
(path len: 4.30991)
G00 Z5.000000
G00 X7.783449 Y9.644549
(Subpath start)
G01 Z-1.000000 F100.0(Penetrate)
G02 X7.510952 Y9.555815 Z-1.000000 I-0.677123 J1.616633 F400.000000
G02 X6.984934 Y9.455076 Z-1.000000 I-1.413901 J5.959115
G03 X6.687051 Y9.398111 Z-1.000000 I0.526497 J-3.560512
G03 X6.558517 Y9.354764 Z-1.000000 I0.165210 J-0.702128
G03 X6.446303 Y9.284306 Z-1.000000 I0.192055 J-0.430457
G03 X6.365678 Y9.191778 Z-1.000000 I0.261035 J-0.308846
G03 X6.315363 Y9.079402 Z-1.000000 I0.364196 J-0.230518
G03 X6.297777 Y8.953540 Z-1.000000 I0.441581 J-0.125857
G03 X6.336557 Y8.770161 Z-1.000000 I0.452958 J-0.000003
G03 X6.445801 Y8.619199 Z-1.000000 I0.409415 J0.181268
G03 X6.609471 Y8.526117 Z-1.000000 I0.292273 J0.323483
G03 X6.879009 Y8.485458 Z-1.000000 I0.269537 J0.873072
G03 X7.152389 Y8.519410 Z-1.000000 I-0.000000 J1.117582
G03 X7.381476 Y8.612233 Z-1.000000 I-0.220019 J0.872113
G03 X7.573388 Y8.764815 Z-1.000000 I-0.412189 J0.715417
G03 X7.704684 Y8.959104 Z-1.000000 I-0.552950 J0.515178
G03 X7.758007 Y9.134683 Z-1.000000 I-0.600533 J0.278268
G03 X7.783449 Y9.460640 Z-1.000000 I-2.075618 J0.325978
G01 X7.783449 Y9.644549 Z-1.000000
(Subpath end)
G00 Z5.000000

(End cutting path id: path4538 at depth: -1.0)

(Start cutting path id: path4536 at depth: -1.0)
(path id: path4536 at depth step: -1.0)
(path len: 17.27890)
G00 Z5.000000
G00 X2.631130 Y8.159462
(Subpath start)
G01 Z-1.000000 F100.0(Penetrate)
G01 X2.631130 Y12.244122 Z-1.000000 F400.000000
G01 X5.317289 Y12.244122 Z-1.000000
G01 X5.317289 Y11.762107 Z-1.000000
G01 X3.158041 Y11.762107 Z-1.000000
G01 X3.158041 Y10.497140 Z-1.000000
G01 X5.026673 Y10.497140 Z-1.000000
G01 X5.026673 Y10.015101 Z-1.000000
G01 X3.158041 Y10.015101 Z-1.000000
G01 X3.158041 Y8.159462 Z-1.000000
G01 X2.631130 Y8.159462 Z-1.000000
(Subpath end)
G00 Z5.000000

(End cutting path id: path4536 at depth: -1.0)

(Start cutting path id: path4534 at depth: -1.0)
(path id: path4534 at depth step: -1.0)
(path len: 16.13250)
G00 Z5.000000
G00 X8.538507 Y16.175568
(Subpath start)
G01 Z-1.000000 F100.0(Penetrate)
G01 X9.021961 Y16.253585 Z-1.000000 F400.000000
G03 X9.106292 Y15.979266 Z-1.000000 I0.879088 J0.120126
G03 X9.248750 Y15.796635 Z-1.000000 I0.517678 J0.256928
G03 X9.452227 Y15.685083 Z-1.000000 I0.369829 J0.433239
G03 X9.768871 Y15.637817 Z-1.000000 I0.316644 J1.036984
G03 X10.089202 Y15.682053 Z-1.000000 I0.000000 J1.181945
G03 X10.268621 Y15.778525 Z-1.000000 I-0.127126 J0.451510
G03 X10.391637 Y15.937515 Z-1.000000 I-0.330594 J0.382877
G03 X10.431583 Y16.108698 Z-1.000000 I-0.346842 J0.171189
G03 X10.393802 Y16.258621 Z-1.000000 I-0.316375 J-0.000006
G03 X10.287633 Y16.376180 Z-1.000000 I-0.292430 J-0.157376
G03 X10.180770 Y16.428790 Z-1.000000 I-0.255181 J-0.383496
G03 X9.787883 Y16.546145 Z-1.000000 I-1.757813 J-5.168579
G02 X9.255824 Y16.700912 Z-1.000000 I2.348215 J9.064649
G02 X9.042331 Y16.787157 Z-1.000000 I0.497349 J1.538508
G02 X8.856186 Y16.912361 Z-1.000000 I0.361224 J0.738019
G02 X8.727271 Y17.068570 Z-1.000000 I0.446158 J0.499503
G02 X8.647814 Y17.255957 Z-1.000000 I0.639154 J0.381559
G02 X8.619988 Y17.465614 Z-1.000000 I0.775916 J0.209656
G02 X8.642814 Y17.657822 Z-1.000000 I0.820635 J0.000001
G02 X8.708259 Y17.832010 Z-1.000000 I0.737339 J-0.177638
G02 X8.812971 Y17.986431 Z-1.000000 I0.729852 J-0.382196
G02 X8.948628 Y18.112030 Z-1.000000 I0.613749 J-0.526840
G02 X9.069481 Y18.185110 Z-1.000000 I0.409826 J-0.541262
G02 X9.259614 Y18.258311 Z-1.000000 I0.601367 J-1.278477
G02 X9.458866 Y18.302470 Z-1.000000 I0.385077 J-1.265912
G02 X9.681958 Y18.318215 Z-1.000000 I0.223117 J-1.572980
G02 X10.016198 Y18.290291 Z-1.000000 I-0.000021 J-2.014589
G02 X10.278127 Y18.217910 Z-1.000000 I-0.219438 J-1.304215
G02 X10.513429 Y18.090185 Z-1.000000 I-0.391706 J-1.002222
G02 X10.657014 Y17.946248 Z-1.000000 I-0.361531 J-0.504233
G02 X10.753151 Y17.764181 Z-1.000000 I-0.628599 J-0.448332
G02 X10.825408 Y17.487904 Z-1.000000 I-1.394238 J-0.512239
G01 X10.347386 Y17.421034 Z-1.000000
G03 X10.279570 Y17.629684 Z-1.000000 I-0.632532 J-0.090242
G03 X10.158622 Y17.777677 Z-1.000000 I-0.428578 J-0.226838
G03 X9.988635 Y17.867240 Z-1.000000 I-0.303335 J-0.369622
G03 X9.717266 Y17.905848 Z-1.000000 I-0.271381 J-0.934501
G03 X9.393692 Y17.867928 Z-1.000000 I0.000015 J-1.399641
G03 X9.236528 Y17.791610 Z-1.000000 I0.093067 J-0.391642
G03 X9.127003 Y17.660741 Z-1.000000 I0.262929 J-0.331311
G03 X9.092578 Y17.524127 Z-1.000000 I0.253847 J-0.136611
G03 X9.107863 Y17.431786 Z-1.000000 I0.286552 J-0.000003
G03 X9.152331 Y17.348592 Z-1.000000 I0.275518 J0.093786
G03 X9.221831 Y17.280256 Z-1.000000 I0.250412 J0.185168
G03 X9.339737 Y17.214851 Z-1.000000 I0.346197 J0.485112
G03 X9.413982 Y17.189771 Z-1.000000 I0.373763 J0.984014
G03 X9.771587 Y17.086680 Z-1.000000 I6.731453 J22.678629
G02 X10.286411 Y16.933510 Z-1.000000 I-3.252957 J-11.875390
G02 X10.495410 Y16.854028 Z-1.000000 I-0.652969 J-2.031500
G02 X10.680929 Y16.740090 Z-1.000000 I-0.326948 J-0.740356
G02 X10.817260 Y16.590725 Z-1.000000 I-0.442162 J-0.540480
G02 X10.901134 Y16.407892 Z-1.000000 I-0.509248 J-0.344269
G02 X10.934050 Y16.161638 Z-1.000000 I-0.904798 J-0.246268
G02 X10.898558 Y15.921306 Z-1.000000 I-0.831529 J0.000013
G02 X10.791458 Y15.689364 Z-1.000000 I-0.880317 J0.265791
G02 X10.622556 Y15.498391 Z-1.000000 I-0.707063 J0.455171
G02 X10.379979 Y15.346651 Z-1.000000 I-0.677834 J0.813842
G02 X10.104039 Y15.258242 Z-1.000000 I-0.526050 J1.167061
G02 X9.771587 Y15.225449 Z-1.000000 I-0.332452 J1.668799
G02 X9.235493 Y15.298993 Z-1.000000 I0.000000 J1.990677
G02 X8.914677 Y15.465068 Z-1.000000 I0.238940 J0.854477
G02 X8.686114 Y15.743409 Z-1.000000 I0.570203 J0.701245
G02 X8.538507 Y16.175568 Z-1.000000 I1.284211 J0.679920
(Subpath end)
G00 Z5.000000

(End cutting path id: path4534 at depth: -1.0)

(Start cutting path id: path4532 at depth: -1.0)
(path id: path4532 at depth step: -1.0)
(path len: 13.98637)
G00 Z5.000000
G00 X7.612339 Y16.245226
(Subpath start)
G01 Z-1.000000 F100.0(Penetrate)
G01 X8.117521 Y16.181142 Z-1.000000 F400.000000
G02 X7.937878 Y15.766731 Z-1.000000 I-1.444924 J0.380221
G02 X7.674807 Y15.476215 Z-1.000000 I-0.952679 J0.598309
G02 X7.327280 Y15.296457 Z-1.000000 I-0.660784 J0.851680
G02 X6.849133 Y15.225449 Z-1.000000 I-0.478147 J1.574363
G02 X6.265199 Y15.337489 Z-1.000000 I-0.000000 J1.577709
G02 X5.845558 Y15.625280 Z-1.000000 I0.427672 J1.073453
G02 X5.584105 Y16.067980 Z-1.000000 I0.886818 J0.822297
G02 X5.474819 Y16.746757 Z-1.000000 I2.053282 J0.678775
G02 X5.585787 Y17.450580 Z-1.000000 I2.287505 J0.000001
G02 X5.849632 Y17.905848 Z-1.000000 I1.187053 J-0.383855
G02 X6.273748 Y18.206767 Z-1.000000 I0.897835 J-0.816077
G02 X6.821972 Y18.318215 Z-1.000000 I0.548232 J-1.292695
G02 X7.352387 Y18.209605 Z-1.000000 I-0.000008 J-1.349528
G02 X7.767152 Y17.914205 Z-1.000000 I-0.469189 J-1.097661
G02 X8.025160 Y17.468239 Z-1.000000 I-0.904578 J-0.820948
G02 X8.133817 Y16.777404 Z-1.000000 I-2.141894 J-0.690848
G02 X8.133364 Y16.732831 Z-1.000000 I-2.211685 J0.000224
G02 X8.131101 Y16.643663 Z-1.000000 I-8.721116 J0.176683
G01 X5.980001 Y16.643663 Z-1.000000
G03 X6.073419 Y16.184325 Z-1.000000 I1.619537 J0.090206
G03 X6.248888 Y15.896942 Z-1.000000 I0.787517 J0.283579
G03 X6.520274 Y15.706047 Z-1.000000 I0.589919 J0.550305
G03 X6.851848 Y15.637817 Z-1.000000 I0.331574 J0.771544
G03 X7.107438 Y15.677198 Z-1.000000 I-0.000000 J0.849093
G03 X7.310858 Y15.782704 Z-1.000000 I-0.200693 J0.635798
G03 X7.467837 Y15.951672 Z-1.000000 I-0.410812 J0.539066
G03 X7.612338 Y16.245226 Z-1.000000 I-1.142699 J0.744836
(Subpath end)
G00 Z5.000000

(End cutting path id: path4532 at depth: -1.0)

(Start cutting path id: path4532 at depth: -1.0)
(path id: path4532 at depth step: -1.0)
(path len: 4.21394)
G00 Z5.000000
G00 X6.007162 Y17.056033
(Subpath start)
G01 Z-1.000000 F100.0(Penetrate)
G01 X7.617771 Y17.056033 Z-1.000000 F400.000000
G03 X7.544394 Y17.412847 Z-1.000000 I-1.571353 J-0.137187
G03 X7.433080 Y17.616075 Z-1.000000 I-0.606098 J-0.199878
G03 X7.163067 Y17.829684 Z-1.000000 I-0.605870 J-0.488390
G03 X6.827404 Y17.905848 Z-1.000000 I-0.335670 J-0.701609
G03 X6.516067 Y17.844724 Z-1.000000 I0.000009 J-0.823518
G03 X6.261111 Y17.674586 Z-1.000000 I0.290573 J-0.711529
G03 X6.090264 Y17.416963 Z-1.000000 I0.563327 J-0.559041
G03 X6.007162 Y17.056033 Z-1.000000 I1.053921 J-0.432693
(Subpath end)
G00 Z5.000000

(End cutting path id: path4532 at depth: -1.0)

(Start cutting path id: path4530 at depth: -1.0)
(path id: path4530 at depth step: -1.0)
(path len: 13.14514)
G00 Z5.000000
G00 X2.582241 Y15.292320
(Subpath start)
G01 Z-1.000000 F100.0(Penetrate)
G01 X2.582241 Y19.377001 Z-1.000000 F400.000000
G01 X3.109152 Y19.377001 Z-1.000000
G01 X3.109152 Y15.774345 Z-1.000000
G01 X5.070129 Y15.774345 Z-1.000000
G01 X5.070129 Y15.292320 Z-1.000000
G01 X2.582241 Y15.292320 Z-1.000000
(Subpath end)
G00 Z5.000000

(End cutting path id: path4530 at depth: -1.0)

(Footer)
M5
G00 X0.0000 Y0.0000
M2
(Using default footer. To add your own footer create file "footer" in the output dir.)
(end)
