
(Header)
(Generated by gcodetools from Inkscape.)
(Using default header. To add your own header create file "header" in the output dir.)
M3
(Header end.)
G21 (All units in mm)
(drilling dxfpoint)
G00 Z10.000000
G83 X41.290655 Y14.781547 Z-1.000000 R10.000000 Q1.000000 F100.000000
(drilling dxfpoint)
G00 Z10.000000
G83 X41.247579 Y12.273238 Z-1.000000 R10.000000 Q1.000000 F100.000000
(drilling dxfpoint)
G00 Z10.000000
G83 X41.202847 Y14.605945 Z-1.000000 R10.000000 Q1.000000 F100.000000
(drilling dxfpoint)
G00 Z10.000000
G83 X41.169711 Y15.102953 Z-1.000000 R10.000000 Q1.000000 F100.000000
(drilling dxfpoint)
G00 Z10.000000
G83 X41.065337 Y14.533047 Z-1.000000 R10.000000 Q1.000000 F100.000000
(drilling dxfpoint)
G00 Z10.000000
G83 X41.023918 Y12.752028 Z-1.000000 R10.000000 Q1.000000 F100.000000
(drilling dxfpoint)
G00 Z10.000000
G83 X40.922857 Y14.582747 Z-1.000000 R10.000000 Q1.000000 F100.000000
(drilling dxfpoint)
G00 Z10.000000
G83 X40.783693 Y14.629116 Z-1.000000 R10.000000 Q1.000000 F100.000000
(drilling dxfpoint)
G00 Z10.000000
G83 X40.780380 Y15.195731 Z-1.000000 R10.000000 Q1.000000 F100.000000
(drilling dxfpoint)
G00 Z10.000000
G83 X40.717422 Y12.163905 Z-1.000000 R10.000000 Q1.000000 F100.000000
(drilling dxfpoint)
G00 Z10.000000
G83 X40.548436 Y11.479657 Z-1.000000 R10.000000 Q1.000000 F100.000000
(drilling dxfpoint)
G00 Z10.000000
G83 X40.425836 Y13.134749 Z-1.000000 R10.000000 Q1.000000 F100.000000
(drilling dxfpoint)
G00 Z10.000000
G83 X40.197207 Y11.859048 Z-1.000000 R10.000000 Q1.000000 F100.000000
(drilling dxfpoint)
G00 Z10.000000
G83 X40.187268 Y12.654294 Z-1.000000 R10.000000 Q1.000000 F100.000000
(drilling dxfpoint)
G00 Z10.000000
G83 X40.111056 Y14.387251 Z-1.000000 R10.000000 Q1.000000 F100.000000
(drilling dxfpoint)
G00 Z10.000000
G83 X39.783024 Y13.504206 Z-1.000000 R10.000000 Q1.000000 F100.000000
(drilling dxfpoint)
G00 Z10.000000
G83 X39.701843 Y14.761676 Z-1.000000 R10.000000 Q1.000000 F100.000000
(drilling dxfpoint)
G00 Z10.000000
G83 X39.604095 Y13.840531 Z-1.000000 R10.000000 Q1.000000 F100.000000
(drilling dxfpoint)
G00 Z10.000000
G83 X39.408600 Y11.736451 Z-1.000000 R10.000000 Q1.000000 F100.000000
(drilling dxfpoint)
G00 Z10.000000
G83 X39.277716 Y13.205982 Z-1.000000 R10.000000 Q1.000000 F100.000000
(drilling dxfpoint)
G00 Z10.000000
G83 X39.229671 Y11.769584 Z-1.000000 R10.000000 Q1.000000 F100.000000
(drilling dxfpoint)
G00 Z10.000000
G83 X39.213104 Y11.193060 Z-1.000000 R10.000000 Q1.000000 F100.000000
(drilling dxfpoint)
G00 Z10.000000
G83 X39.040805 Y11.802717 Z-1.000000 R10.000000 Q1.000000 F100.000000
(drilling dxfpoint)
G00 Z10.000000
G83 X39.040805 Y13.668206 Z-1.000000 R10.000000 Q1.000000 F100.000000
(drilling dxfpoint)
G00 Z10.000000
G83 X38.871819 Y14.334222 Z-1.000000 R10.000000 Q1.000000 F100.000000
(drilling dxfpoint)
G00 Z10.000000
G83 X38.807207 Y14.148661 Z-1.000000 R10.000000 Q1.000000 F100.000000
(drilling dxfpoint)
G00 Z10.000000
G83 X38.797264 Y11.743083 Z-1.000000 R10.000000 Q1.000000 F100.000000
(drilling dxfpoint)
G00 Z10.000000
G83 X38.689576 Y14.740114 Z-1.000000 R10.000000 Q1.000000 F100.000000
(drilling dxfpoint)
G00 Z10.000000
G83 X38.676320 Y11.557522 Z-1.000000 R10.000000 Q1.000000 F100.000000
(drilling dxfpoint)
G00 Z10.000000
G83 X38.610055 Y14.065829 Z-1.000000 R10.000000 Q1.000000 F100.000000
(drilling dxfpoint)
G00 Z10.000000
G83 X38.354917 Y14.188426 Z-1.000000 R10.000000 Q1.000000 F100.000000
(drilling dxfpoint)
G00 Z10.000000
G83 X38.219064 Y14.914084 Z-1.000000 R10.000000 Q1.000000 F100.000000
(drilling dxfpoint)
G00 Z10.000000
G83 X38.106406 Y14.311023 Z-1.000000 R10.000000 Q1.000000 F100.000000
(drilling dxfpoint)
G00 Z10.000000
G83 X37.924164 Y14.859412 Z-1.000000 R10.000000 Q1.000000 F100.000000
(drilling dxfpoint)
G00 Z10.000000
G83 X37.584532 Y14.665579 Z-1.000000 R10.000000 Q1.000000 F100.000000
(drilling dxfpoint)
G00 Z10.000000
G83 X37.170349 Y14.258022 Z-1.000000 R10.000000 Q1.000000 F100.000000
(drilling dxfpoint)
G00 Z10.000000
G83 X37.152123 Y13.476041 Z-1.000000 R10.000000 Q1.000000 F100.000000
(drilling dxfpoint)
G00 Z10.000000
G83 X36.754506 Y13.696371 Z-1.000000 R10.000000 Q1.000000 F100.000000
(drilling dxfpoint)
G00 Z10.000000
G83 X36.522561 Y14.642380 Z-1.000000 R10.000000 Q1.000000 F100.000000
(drilling dxfpoint)
G00 Z10.000000
G83 X36.461263 Y14.809710 Z-1.000000 R10.000000 Q1.000000 F100.000000
(drilling dxfpoint)
G00 Z10.000000
G83 X36.456290 Y14.277890 Z-1.000000 R10.000000 Q1.000000 F100.000000
(drilling dxfpoint)
G00 Z10.000000
G83 X36.409904 Y11.637052 Z-1.000000 R10.000000 Q1.000000 F100.000000
(drilling dxfpoint)
G00 Z10.000000
G83 X36.366828 Y13.916731 Z-1.000000 R10.000000 Q1.000000 F100.000000
(drilling dxfpoint)
G00 Z10.000000
G83 X36.340322 Y12.886224 Z-1.000000 R10.000000 Q1.000000 F100.000000
(drilling dxfpoint)
G00 Z10.000000
G83 X36.330379 Y13.681470 Z-1.000000 R10.000000 Q1.000000 F100.000000
(drilling dxfpoint)
G00 Z10.000000
G83 X36.283993 Y11.295761 Z-1.000000 R10.000000 Q1.000000 F100.000000
(drilling dxfpoint)
G00 Z10.000000
G83 X36.277364 Y14.887578 Z-1.000000 R10.000000 Q1.000000 F100.000000
(drilling dxfpoint)
G00 Z10.000000
G83 X36.264111 Y12.932622 Z-1.000000 R10.000000 Q1.000000 F100.000000
(drilling dxfpoint)
G00 Z10.000000
G83 X36.260797 Y12.720560 Z-1.000000 R10.000000 Q1.000000 F100.000000
(drilling dxfpoint)
G00 Z10.000000
G83 X36.260780 Y12.810024 Z-1.000000 R10.000000 Q1.000000 F100.000000
(drilling dxfpoint)
G00 Z10.000000
G83 X36.043763 Y14.801427 Z-1.000000 R10.000000 Q1.000000 F100.000000
(drilling dxfpoint)
G00 Z10.000000
G83 X36.022229 Y11.212929 Z-1.000000 R10.000000 Q1.000000 F100.000000
(drilling dxfpoint)
G00 Z10.000000
G83 X35.901283 Y14.615880 Z-1.000000 R10.000000 Q1.000000 F100.000000
(drilling dxfpoint)
G00 Z10.000000
G83 X35.843297 Y14.261324 Z-1.000000 R10.000000 Q1.000000 F100.000000
(drilling dxfpoint)
G00 Z10.000000
G83 X35.810162 Y13.966430 Z-1.000000 R10.000000 Q1.000000 F100.000000
(drilling dxfpoint)
G00 Z10.000000
G83 X35.786972 Y11.454821 Z-1.000000 R10.000000 Q1.000000 F100.000000
(drilling dxfpoint)
G00 Z10.000000
G83 X35.730640 Y12.955820 Z-1.000000 R10.000000 Q1.000000 F100.000000
(drilling dxfpoint)
G00 Z10.000000
G83 X35.714074 Y12.269936 Z-1.000000 R10.000000 Q1.000000 F100.000000
(drilling dxfpoint)
G00 Z10.000000
G83 X34.686898 Y11.511153 Z-1.000000 R10.000000 Q1.000000 F100.000000
(drilling dxfpoint)
G00 Z10.000000
G83 X34.560984 Y14.327590 Z-1.000000 R10.000000 Q1.000000 F100.000000
(drilling dxfpoint)
G00 Z10.000000
G83 X34.554358 Y11.709950 Z-1.000000 R10.000000 Q1.000000 F100.000000
(drilling dxfpoint)
G00 Z10.000000
G83 X34.552701 Y11.342158 Z-1.000000 R10.000000 Q1.000000 F100.000000
(drilling dxfpoint)
G00 Z10.000000
G83 X34.498029 Y14.085725 Z-1.000000 R10.000000 Q1.000000 F100.000000
(drilling dxfpoint)
G00 Z10.000000
G83 X34.335669 Y14.625814 Z-1.000000 R10.000000 Q1.000000 F100.000000
(drilling dxfpoint)
G00 Z10.000000
G83 X34.309160 Y11.265958 Z-1.000000 R10.000000 Q1.000000 F100.000000
(drilling dxfpoint)
G00 Z10.000000
G83 X34.299220 Y12.713928 Z-1.000000 R10.000000 Q1.000000 F100.000000
(drilling dxfpoint)
G00 Z10.000000
G83 X34.098755 Y14.508184 Z-1.000000 R10.000000 Q1.000000 F100.000000
(drilling dxfpoint)
G00 Z10.000000
G83 X33.934739 Y11.610552 Z-1.000000 R10.000000 Q1.000000 F100.000000
(drilling dxfpoint)
G00 Z10.000000
G83 X33.871781 Y13.999563 Z-1.000000 R10.000000 Q1.000000 F100.000000
(drilling dxfpoint)
G00 Z10.000000
G83 X33.795572 Y12.846487 Z-1.000000 R10.000000 Q1.000000 F100.000000
(drilling dxfpoint)
G00 Z10.000000
G83 X33.795561 Y12.846487 Z-1.000000 R10.000000 Q1.000000 F100.000000
(drilling dxfpoint)
G00 Z10.000000
G83 X33.792259 Y12.627793 Z-1.000000 R10.000000 Q1.000000 F100.000000
(drilling dxfpoint)
G00 Z10.000000
G83 X33.792259 Y12.737126 Z-1.000000 R10.000000 Q1.000000 F100.000000
(drilling dxfpoint)
G00 Z10.000000
G83 X33.020217 Y12.475365 Z-1.000000 R10.000000 Q1.000000 F100.000000
(drilling dxfpoint)
G00 Z10.000000
G83 X32.927440 Y11.743083 Z-1.000000 R10.000000 Q1.000000 F100.000000
(drilling dxfpoint)
G00 Z10.000000
G83 X32.420478 Y14.559548 Z-1.000000 R10.000000 Q1.000000 F100.000000
(drilling dxfpoint)
G00 Z10.000000
G83 X32.337643 Y14.763313 Z-1.000000 R10.000000 Q1.000000 F100.000000
(drilling dxfpoint)
G00 Z10.000000
G83 X32.258119 Y13.900164 Z-1.000000 R10.000000 Q1.000000 F100.000000
(drilling dxfpoint)
G00 Z10.000000
G83 X32.201790 Y11.928644 Z-1.000000 R10.000000 Q1.000000 F100.000000
(drilling dxfpoint)
G00 Z10.000000
G83 X32.115639 Y14.861069 Z-1.000000 R10.000000 Q1.000000 F100.000000
(drilling dxfpoint)
G00 Z10.000000
G83 X32.102385 Y11.352093 Z-1.000000 R10.000000 Q1.000000 F100.000000
(drilling dxfpoint)
G00 Z10.000000
G83 X31.949966 Y12.472063 Z-1.000000 R10.000000 Q1.000000 F100.000000
(drilling dxfpoint)
G00 Z10.000000
G83 X31.814112 Y14.662249 Z-1.000000 R10.000000 Q1.000000 F100.000000
(drilling dxfpoint)
G00 Z10.000000
G83 X31.656723 Y11.607221 Z-1.000000 R10.000000 Q1.000000 F100.000000
(drilling dxfpoint)
G00 Z10.000000
G83 X31.638500 Y13.671536 Z-1.000000 R10.000000 Q1.000000 F100.000000
(drilling dxfpoint)
G00 Z10.000000
G83 X31.429748 Y12.392533 Z-1.000000 R10.000000 Q1.000000 F100.000000
(drilling dxfpoint)
G00 Z10.000000
G83 X30.767054 Y12.528395 Z-1.000000 R10.000000 Q1.000000 F100.000000
(drilling dxfpoint)
G00 Z10.000000
G83 X30.661020 Y12.697361 Z-1.000000 R10.000000 Q1.000000 F100.000000
(drilling dxfpoint)
G00 Z10.000000
G83 X30.495347 Y12.588028 Z-1.000000 R10.000000 Q1.000000 F100.000000
(drilling dxfpoint)
G00 Z10.000000
G83 X30.422452 Y14.533047 Z-1.000000 R10.000000 Q1.000000 F100.000000
(drilling dxfpoint)
G00 Z10.000000
G83 X30.265060 Y14.924027 Z-1.000000 R10.000000 Q1.000000 F100.000000
(drilling dxfpoint)
G00 Z10.000000
G83 X30.168971 Y11.713281 Z-1.000000 R10.000000 Q1.000000 F100.000000
(drilling dxfpoint)
G00 Z10.000000
G83 X29.922117 Y13.555571 Z-1.000000 R10.000000 Q1.000000 F100.000000
(drilling dxfpoint)
G00 Z10.000000
G83 X29.869102 Y14.387251 Z-1.000000 R10.000000 Q1.000000 F100.000000
(drilling dxfpoint)
G00 Z10.000000
G83 X29.859159 Y15.086386 Z-1.000000 R10.000000 Q1.000000 F100.000000
(drilling dxfpoint)
G00 Z10.000000
G83 X29.690173 Y14.586049 Z-1.000000 R10.000000 Q1.000000 F100.000000
(drilling dxfpoint)
G00 Z10.000000
G83 X29.040732 Y11.799415 Z-1.000000 R10.000000 Q1.000000 F100.000000
(drilling dxfpoint)
G00 Z10.000000
G83 X29.002626 Y14.138727 Z-1.000000 R10.000000 Q1.000000 F100.000000
(drilling dxfpoint)
G00 Z10.000000
G83 X28.934701 Y11.236127 Z-1.000000 R10.000000 Q1.000000 F100.000000
(drilling dxfpoint)
G00 Z10.000000
G83 X28.583472 Y12.637728 Z-1.000000 R10.000000 Q1.000000 F100.000000
(drilling dxfpoint)
G00 Z10.000000
G83 X28.570216 Y11.965079 Z-1.000000 R10.000000 Q1.000000 F100.000000
(drilling dxfpoint)
G00 Z10.000000
G83 X28.464185 Y13.045285 Z-1.000000 R10.000000 Q1.000000 F100.000000
(drilling dxfpoint)
G00 Z10.000000
G83 X28.460872 Y14.231521 Z-1.000000 R10.000000 Q1.000000 F100.000000
(drilling dxfpoint)
G00 Z10.000000
G83 X28.411170 Y12.405797 Z-1.000000 R10.000000 Q1.000000 F100.000000
(drilling dxfpoint)
G00 Z10.000000
G83 X28.111301 Y11.550918 Z-1.000000 R10.000000 Q1.000000 F100.000000
(drilling dxfpoint)
G00 Z10.000000
G83 X27.821372 Y12.428968 Z-1.000000 R10.000000 Q1.000000 F100.000000
(drilling dxfpoint)
G00 Z10.000000
G83 X27.026137 Y11.511153 Z-1.000000 R10.000000 Q1.000000 F100.000000
(drilling dxfpoint)
G00 Z10.000000
G83 X26.900225 Y14.327590 Z-1.000000 R10.000000 Q1.000000 F100.000000
(drilling dxfpoint)
G00 Z10.000000
G83 X26.893598 Y11.709950 Z-1.000000 R10.000000 Q1.000000 F100.000000
(drilling dxfpoint)
G00 Z10.000000
G83 X26.891942 Y11.342158 Z-1.000000 R10.000000 Q1.000000 F100.000000
(drilling dxfpoint)
G00 Z10.000000
G83 X26.837269 Y14.085725 Z-1.000000 R10.000000 Q1.000000 F100.000000
(drilling dxfpoint)
G00 Z10.000000
G83 X26.674909 Y14.625814 Z-1.000000 R10.000000 Q1.000000 F100.000000
(drilling dxfpoint)
G00 Z10.000000
G83 X26.648401 Y11.265958 Z-1.000000 R10.000000 Q1.000000 F100.000000
(drilling dxfpoint)
G00 Z10.000000
G83 X26.638461 Y12.713928 Z-1.000000 R10.000000 Q1.000000 F100.000000
(drilling dxfpoint)
G00 Z10.000000
G83 X26.437995 Y14.508184 Z-1.000000 R10.000000 Q1.000000 F100.000000
(drilling dxfpoint)
G00 Z10.000000
G83 X26.273978 Y11.610552 Z-1.000000 R10.000000 Q1.000000 F100.000000
(drilling dxfpoint)
G00 Z10.000000
G83 X26.211022 Y13.999563 Z-1.000000 R10.000000 Q1.000000 F100.000000
(drilling dxfpoint)
G00 Z10.000000
G83 X26.134812 Y12.846487 Z-1.000000 R10.000000 Q1.000000 F100.000000
(drilling dxfpoint)
G00 Z10.000000
G83 X26.134812 Y12.846487 Z-1.000000 R10.000000 Q1.000000 F100.000000
(drilling dxfpoint)
G00 Z10.000000
G83 X26.131499 Y12.627793 Z-1.000000 R10.000000 Q1.000000 F100.000000
(drilling dxfpoint)
G00 Z10.000000
G83 X26.131499 Y12.737126 Z-1.000000 R10.000000 Q1.000000 F100.000000
(drilling dxfpoint)
G00 Z10.000000
G83 X25.359458 Y12.475365 Z-1.000000 R10.000000 Q1.000000 F100.000000
(drilling dxfpoint)
G00 Z10.000000
G83 X25.266681 Y11.743083 Z-1.000000 R10.000000 Q1.000000 F100.000000
(drilling dxfpoint)
G00 Z10.000000
G83 X24.759719 Y14.559548 Z-1.000000 R10.000000 Q1.000000 F100.000000
(drilling dxfpoint)
G00 Z10.000000
G83 X24.676882 Y14.763313 Z-1.000000 R10.000000 Q1.000000 F100.000000
(drilling dxfpoint)
G00 Z10.000000
G83 X24.597359 Y13.900164 Z-1.000000 R10.000000 Q1.000000 F100.000000
(drilling dxfpoint)
G00 Z10.000000
G83 X24.541030 Y11.928644 Z-1.000000 R10.000000 Q1.000000 F100.000000
(drilling dxfpoint)
G00 Z10.000000
G83 X24.454879 Y14.861069 Z-1.000000 R10.000000 Q1.000000 F100.000000
(drilling dxfpoint)
G00 Z10.000000
G83 X24.441625 Y11.352093 Z-1.000000 R10.000000 Q1.000000 F100.000000
(drilling dxfpoint)
G00 Z10.000000
G83 X24.289206 Y12.472063 Z-1.000000 R10.000000 Q1.000000 F100.000000
(drilling dxfpoint)
G00 Z10.000000
G83 X24.153353 Y14.662249 Z-1.000000 R10.000000 Q1.000000 F100.000000
(drilling dxfpoint)
G00 Z10.000000
G83 X23.995963 Y11.607221 Z-1.000000 R10.000000 Q1.000000 F100.000000
(drilling dxfpoint)
G00 Z10.000000
G83 X23.977739 Y13.671536 Z-1.000000 R10.000000 Q1.000000 F100.000000
(drilling dxfpoint)
G00 Z10.000000
G83 X23.768990 Y12.392533 Z-1.000000 R10.000000 Q1.000000 F100.000000
(drilling dxfpoint)
G00 Z10.000000
G83 X23.073160 Y14.344156 Z-1.000000 R10.000000 Q1.000000 F100.000000
(drilling dxfpoint)
G00 Z10.000000
G83 X22.917426 Y13.532372 Z-1.000000 R10.000000 Q1.000000 F100.000000
(drilling dxfpoint)
G00 Z10.000000
G83 X22.765006 Y14.682145 Z-1.000000 R10.000000 Q1.000000 F100.000000
(drilling dxfpoint)
G00 Z10.000000
G83 X22.635781 Y14.804740 Z-1.000000 R10.000000 Q1.000000 F100.000000
(drilling dxfpoint)
G00 Z10.000000
G83 X22.582765 Y11.902144 Z-1.000000 R10.000000 Q1.000000 F100.000000
(drilling dxfpoint)
G00 Z10.000000
G83 X22.433659 Y14.072461 Z-1.000000 R10.000000 Q1.000000 F100.000000
(drilling dxfpoint)
G00 Z10.000000
G83 X22.340881 Y10.126119 Z-1.000000 R10.000000 Q1.000000 F100.000000
(drilling dxfpoint)
G00 Z10.000000
G83 X22.317688 Y9.605899 Z-1.000000 R10.000000 Q1.000000 F100.000000
(drilling dxfpoint)
G00 Z10.000000
G83 X22.238163 Y15.162595 Z-1.000000 R10.000000 Q1.000000 F100.000000
(drilling dxfpoint)
G00 Z10.000000
G83 X22.203373 Y9.390507 Z-1.000000 R10.000000 Q1.000000 F100.000000
(drilling dxfpoint)
G00 Z10.000000
G83 X22.178522 Y12.485299 Z-1.000000 R10.000000 Q1.000000 F100.000000
(drilling dxfpoint)
G00 Z10.000000
G83 X22.178521 Y12.485299 Z-1.000000 R10.000000 Q1.000000 F100.000000
(drilling dxfpoint)
G00 Z10.000000
G83 X22.092371 Y12.412401 Z-1.000000 R10.000000 Q1.000000 F100.000000
(drilling dxfpoint)
G00 Z10.000000
G83 X22.039355 Y14.589351 Z-1.000000 R10.000000 Q1.000000 F100.000000
(drilling dxfpoint)
G00 Z10.000000
G83 X21.989654 Y11.534352 Z-1.000000 R10.000000 Q1.000000 F100.000000
(drilling dxfpoint)
G00 Z10.000000
G83 X21.953206 Y9.311005 Z-1.000000 R10.000000 Q1.000000 F100.000000
(drilling dxfpoint)
G00 Z10.000000
G83 X21.761024 Y10.392847 Z-1.000000 R10.000000 Q1.000000 F100.000000
(drilling dxfpoint)
G00 Z10.000000
G83 X21.742799 Y12.675828 Z-1.000000 R10.000000 Q1.000000 F100.000000
(drilling dxfpoint)
G00 Z10.000000
G83 X21.734516 Y9.418673 Z-1.000000 R10.000000 Q1.000000 F100.000000
(drilling dxfpoint)
G00 Z10.000000
G83 X21.654993 Y9.688731 Z-1.000000 R10.000000 Q1.000000 F100.000000
(drilling dxfpoint)
G00 Z10.000000
G83 X21.207672 Y11.638717 Z-1.000000 R10.000000 Q1.000000 F100.000000
(drilling dxfpoint)
G00 Z10.000000
G83 X20.919400 Y13.795798 Z-1.000000 R10.000000 Q1.000000 F100.000000
(drilling dxfpoint)
G00 Z10.000000
G83 X20.564858 Y14.176827 Z-1.000000 R10.000000 Q1.000000 F100.000000
(drilling dxfpoint)
G00 Z10.000000
G83 X20.551604 Y11.931946 Z-1.000000 R10.000000 Q1.000000 F100.000000
(drilling dxfpoint)
G00 Z10.000000
G83 X20.405811 Y11.378593 Z-1.000000 R10.000000 Q1.000000 F100.000000
(drilling dxfpoint)
G00 Z10.000000
G83 X20.283212 Y12.339503 Z-1.000000 R10.000000 Q1.000000 F100.000000
(drilling dxfpoint)
G00 Z10.000000
G83 X19.918730 Y11.635387 Z-1.000000 R10.000000 Q1.000000 F100.000000
(drilling dxfpoint)
G00 Z10.000000
G83 X19.736489 Y12.289804 Z-1.000000 R10.000000 Q1.000000 F100.000000
(drilling dxfpoint)
G00 Z10.000000
G83 X19.613890 Y16.656973 Z-1.000000 R10.000000 Q1.000000 F100.000000
(drilling dxfpoint)
G00 Z10.000000
G83 X19.532710 Y16.285865 Z-1.000000 R10.000000 Q1.000000 F100.000000
(drilling dxfpoint)
G00 Z10.000000
G83 X19.494605 Y16.801109 Z-1.000000 R10.000000 Q1.000000 F100.000000
(drilling dxfpoint)
G00 Z10.000000
G83 X19.279229 Y16.875664 Z-1.000000 R10.000000 Q1.000000 F100.000000
(drilling dxfpoint)
G00 Z10.000000
G83 X19.274259 Y15.932980 Z-1.000000 R10.000000 Q1.000000 F100.000000
(drilling dxfpoint)
G00 Z10.000000
G83 X19.004210 Y15.841859 Z-1.000000 R10.000000 Q1.000000 F100.000000
(drilling dxfpoint)
G00 Z10.000000
G83 X18.984329 Y14.552916 Z-1.000000 R10.000000 Q1.000000 F100.000000
(drilling dxfpoint)
G00 Z10.000000
G83 X18.937940 Y14.291155 Z-1.000000 R10.000000 Q1.000000 F100.000000
(drilling dxfpoint)
G00 Z10.000000
G83 X18.929657 Y16.738154 Z-1.000000 R10.000000 Q1.000000 F100.000000
(drilling dxfpoint)
G00 Z10.000000
G83 X18.898179 Y15.990965 Z-1.000000 R10.000000 Q1.000000 F100.000000
(drilling dxfpoint)
G00 Z10.000000
G83 X18.886581 Y14.733510 Z-1.000000 R10.000000 Q1.000000 F100.000000
(drilling dxfpoint)
G00 Z10.000000
G83 X18.861731 Y16.093683 Z-1.000000 R10.000000 Q1.000000 F100.000000
(drilling dxfpoint)
G00 Z10.000000
G83 X18.772267 Y16.468107 Z-1.000000 R10.000000 Q1.000000 F100.000000
(drilling dxfpoint)
G00 Z10.000000
G83 X18.652981 Y11.474690 Z-1.000000 R10.000000 Q1.000000 F100.000000
(drilling dxfpoint)
G00 Z10.000000
G83 X18.639728 Y11.574089 Z-1.000000 R10.000000 Q1.000000 F100.000000
(drilling dxfpoint)
G00 Z10.000000
G83 X18.629787 Y13.038653 Z-1.000000 R10.000000 Q1.000000 F100.000000
(drilling dxfpoint)
G00 Z10.000000
G83 X18.619846 Y14.814680 Z-1.000000 R10.000000 Q1.000000 F100.000000
(drilling dxfpoint)
G00 Z10.000000
G83 X18.570145 Y12.140706 Z-1.000000 R10.000000 Q1.000000 F100.000000
(drilling dxfpoint)
G00 Z10.000000
G83 X18.570144 Y12.140706 Z-1.000000 R10.000000 Q1.000000 F100.000000
(drilling dxfpoint)
G00 Z10.000000
G83 X18.543636 Y11.320625 Z-1.000000 R10.000000 Q1.000000 F100.000000
(drilling dxfpoint)
G00 Z10.000000
G83 X18.404470 Y14.667244 Z-1.000000 R10.000000 Q1.000000 F100.000000
(drilling dxfpoint)
G00 Z10.000000
G83 X18.328260 Y14.311023 Z-1.000000 R10.000000 Q1.000000 F100.000000
(drilling dxfpoint)
G00 Z10.000000
G83 X18.311693 Y11.226193 Z-1.000000 R10.000000 Q1.000000 F100.000000
(drilling dxfpoint)
G00 Z10.000000
G83 X18.242110 Y13.744434 Z-1.000000 R10.000000 Q1.000000 F100.000000
(drilling dxfpoint)
G00 Z10.000000
G83 X17.990286 Y11.815981 Z-1.000000 R10.000000 Q1.000000 F100.000000
(drilling dxfpoint)
G00 Z10.000000
G83 X17.758343 Y14.334222 Z-1.000000 R10.000000 Q1.000000 F100.000000
(drilling dxfpoint)
G00 Z10.000000
G83 X17.693730 Y14.148661 Z-1.000000 R10.000000 Q1.000000 F100.000000
(drilling dxfpoint)
G00 Z10.000000
G83 X17.576102 Y14.740114 Z-1.000000 R10.000000 Q1.000000 F100.000000
(drilling dxfpoint)
G00 Z10.000000
G83 X17.496578 Y14.065829 Z-1.000000 R10.000000 Q1.000000 F100.000000
(drilling dxfpoint)
G00 Z10.000000
G83 X17.241440 Y14.188426 Z-1.000000 R10.000000 Q1.000000 F100.000000
(drilling dxfpoint)
G00 Z10.000000
G83 X17.105588 Y14.914084 Z-1.000000 R10.000000 Q1.000000 F100.000000
(drilling dxfpoint)
G00 Z10.000000
G83 X16.992930 Y14.311023 Z-1.000000 R10.000000 Q1.000000 F100.000000
(drilling dxfpoint)
G00 Z10.000000
G83 X16.810689 Y14.859412 Z-1.000000 R10.000000 Q1.000000 F100.000000
(drilling dxfpoint)
G00 Z10.000000
G83 X16.471057 Y14.665579 Z-1.000000 R10.000000 Q1.000000 F100.000000
(drilling dxfpoint)
G00 Z10.000000
G83 X16.056872 Y14.258022 Z-1.000000 R10.000000 Q1.000000 F100.000000
(drilling dxfpoint)
G00 Z10.000000
G83 X16.038649 Y13.476041 Z-1.000000 R10.000000 Q1.000000 F100.000000
(drilling dxfpoint)
G00 Z10.000000
G83 X15.641031 Y13.696371 Z-1.000000 R10.000000 Q1.000000 F100.000000
(drilling dxfpoint)
G00 Z10.000000
G83 X15.409087 Y14.642380 Z-1.000000 R10.000000 Q1.000000 F100.000000
(drilling dxfpoint)
G00 Z10.000000
G83 X15.347788 Y14.809710 Z-1.000000 R10.000000 Q1.000000 F100.000000
(drilling dxfpoint)
G00 Z10.000000
G83 X15.342818 Y14.277890 Z-1.000000 R10.000000 Q1.000000 F100.000000
(drilling dxfpoint)
G00 Z10.000000
G83 X15.296429 Y11.637052 Z-1.000000 R10.000000 Q1.000000 F100.000000
(drilling dxfpoint)
G00 Z10.000000
G83 X15.253354 Y13.916731 Z-1.000000 R10.000000 Q1.000000 F100.000000
(drilling dxfpoint)
G00 Z10.000000
G83 X15.226846 Y12.886224 Z-1.000000 R10.000000 Q1.000000 F100.000000
(drilling dxfpoint)
G00 Z10.000000
G83 X15.216905 Y13.681470 Z-1.000000 R10.000000 Q1.000000 F100.000000
(drilling dxfpoint)
G00 Z10.000000
G83 X15.170517 Y11.295761 Z-1.000000 R10.000000 Q1.000000 F100.000000
(drilling dxfpoint)
G00 Z10.000000
G83 X15.163890 Y14.887578 Z-1.000000 R10.000000 Q1.000000 F100.000000
(drilling dxfpoint)
G00 Z10.000000
G83 X15.150636 Y12.932622 Z-1.000000 R10.000000 Q1.000000 F100.000000
(drilling dxfpoint)
G00 Z10.000000
G83 X15.147323 Y12.720560 Z-1.000000 R10.000000 Q1.000000 F100.000000
(drilling dxfpoint)
G00 Z10.000000
G83 X15.147322 Y12.810024 Z-1.000000 R10.000000 Q1.000000 F100.000000
(drilling dxfpoint)
G00 Z10.000000
G83 X14.930290 Y14.801427 Z-1.000000 R10.000000 Q1.000000 F100.000000
(drilling dxfpoint)
G00 Z10.000000
G83 X14.908753 Y11.212929 Z-1.000000 R10.000000 Q1.000000 F100.000000
(drilling dxfpoint)
G00 Z10.000000
G83 X14.787810 Y14.615880 Z-1.000000 R10.000000 Q1.000000 F100.000000
(drilling dxfpoint)
G00 Z10.000000
G83 X14.729824 Y14.261324 Z-1.000000 R10.000000 Q1.000000 F100.000000
(drilling dxfpoint)
G00 Z10.000000
G83 X14.696689 Y13.966430 Z-1.000000 R10.000000 Q1.000000 F100.000000
(drilling dxfpoint)
G00 Z10.000000
G83 X14.673496 Y11.454821 Z-1.000000 R10.000000 Q1.000000 F100.000000
(drilling dxfpoint)
G00 Z10.000000
G83 X14.617166 Y12.955820 Z-1.000000 R10.000000 Q1.000000 F100.000000
(drilling dxfpoint)
G00 Z10.000000
G83 X14.600600 Y12.269936 Z-1.000000 R10.000000 Q1.000000 F100.000000
(drilling dxfpoint)
G00 Z10.000000
G83 X13.838500 Y14.188426 Z-1.000000 R10.000000 Q1.000000 F100.000000
(drilling dxfpoint)
G00 Z10.000000
G83 X13.656259 Y14.778234 Z-1.000000 R10.000000 Q1.000000 F100.000000
(drilling dxfpoint)
G00 Z10.000000
G83 X13.305030 Y14.019459 Z-1.000000 R10.000000 Q1.000000 F100.000000
(drilling dxfpoint)
G00 Z10.000000
G83 X13.242074 Y14.320986 Z-1.000000 R10.000000 Q1.000000 F100.000000
(drilling dxfpoint)
G00 Z10.000000
G83 X13.212253 Y15.020118 Z-1.000000 R10.000000 Q1.000000 F100.000000
(drilling dxfpoint)
G00 Z10.000000
G83 X13.083027 Y14.446885 Z-1.000000 R10.000000 Q1.000000 F100.000000
(drilling dxfpoint)
G00 Z10.000000
G83 X13.061490 Y12.255034 Z-1.000000 R10.000000 Q1.000000 F100.000000
(drilling dxfpoint)
G00 Z10.000000
G83 X12.998534 Y13.060186 Z-1.000000 R10.000000 Q1.000000 F100.000000
(drilling dxfpoint)
G00 Z10.000000
G83 X12.542931 Y23.264046 Z-1.000000 R10.000000 Q1.000000 F100.000000
(drilling dxfpoint)
G00 Z10.000000
G83 X12.499856 Y20.755745 Z-1.000000 R10.000000 Q1.000000 F100.000000
(drilling dxfpoint)
G00 Z10.000000
G83 X12.455124 Y23.088433 Z-1.000000 R10.000000 Q1.000000 F100.000000
(drilling dxfpoint)
G00 Z10.000000
G83 X12.421989 Y23.585455 Z-1.000000 R10.000000 Q1.000000 F100.000000
(drilling dxfpoint)
G00 Z10.000000
G83 X12.317614 Y23.015535 Z-1.000000 R10.000000 Q1.000000 F100.000000
(drilling dxfpoint)
G00 Z10.000000
G83 X12.276196 Y21.234541 Z-1.000000 R10.000000 Q1.000000 F100.000000
(drilling dxfpoint)
G00 Z10.000000
G83 X12.271225 Y12.178806 Z-1.000000 R10.000000 Q1.000000 F100.000000
(drilling dxfpoint)
G00 Z10.000000
G83 X12.175135 Y23.065238 Z-1.000000 R10.000000 Q1.000000 F100.000000
(drilling dxfpoint)
G00 Z10.000000
G83 X12.148627 Y14.541317 Z-1.000000 R10.000000 Q1.000000 F100.000000
(drilling dxfpoint)
G00 Z10.000000
G83 X12.035969 Y23.111627 Z-1.000000 R10.000000 Q1.000000 F100.000000
(drilling dxfpoint)
G00 Z10.000000
G83 X12.032655 Y23.678233 Z-1.000000 R10.000000 Q1.000000 F100.000000
(drilling dxfpoint)
G00 Z10.000000
G83 X11.969699 Y20.646401 Z-1.000000 R10.000000 Q1.000000 F100.000000
(drilling dxfpoint)
G00 Z10.000000
G83 X11.958102 Y13.693069 Z-1.000000 R10.000000 Q1.000000 F100.000000
(drilling dxfpoint)
G00 Z10.000000
G83 X11.956445 Y16.832588 Z-1.000000 R10.000000 Q1.000000 F100.000000
(drilling dxfpoint)
G00 Z10.000000
G83 X11.800712 Y19.962168 Z-1.000000 R10.000000 Q1.000000 F100.000000
(drilling dxfpoint)
G00 Z10.000000
G83 X11.724502 Y17.233519 Z-1.000000 R10.000000 Q1.000000 F100.000000
(drilling dxfpoint)
G00 Z10.000000
G83 X11.701308 Y15.765650 Z-1.000000 R10.000000 Q1.000000 F100.000000
(drilling dxfpoint)
G00 Z10.000000
G83 X11.678113 Y21.617249 Z-1.000000 R10.000000 Q1.000000 F100.000000
(drilling dxfpoint)
G00 Z10.000000
G83 X11.479305 Y17.153994 Z-1.000000 R10.000000 Q1.000000 F100.000000
(drilling dxfpoint)
G00 Z10.000000
G83 X11.472678 Y11.865681 Z-1.000000 R10.000000 Q1.000000 F100.000000
(drilling dxfpoint)
G00 Z10.000000
G83 X11.449483 Y20.341562 Z-1.000000 R10.000000 Q1.000000 F100.000000
(drilling dxfpoint)
G00 Z10.000000
G83 X11.439543 Y21.136793 Z-1.000000 R10.000000 Q1.000000 F100.000000
(drilling dxfpoint)
G00 Z10.000000
G83 X11.419662 Y11.352093 Z-1.000000 R10.000000 Q1.000000 F100.000000
(drilling dxfpoint)
G00 Z10.000000
G83 X11.363333 Y22.869742 Z-1.000000 R10.000000 Q1.000000 F100.000000
(drilling dxfpoint)
G00 Z10.000000
G83 X11.298720 Y16.839215 Z-1.000000 R10.000000 Q1.000000 F100.000000
(drilling dxfpoint)
G00 Z10.000000
G83 X11.134703 Y13.290479 Z-1.000000 R10.000000 Q1.000000 F100.000000
(drilling dxfpoint)
G00 Z10.000000
G83 X11.055180 Y12.187103 Z-1.000000 R10.000000 Q1.000000 F100.000000
(drilling dxfpoint)
G00 Z10.000000
G83 X11.041926 Y15.606601 Z-1.000000 R10.000000 Q1.000000 F100.000000
(drilling dxfpoint)
G00 Z10.000000
G83 X11.035299 Y21.986703 Z-1.000000 R10.000000 Q1.000000 F100.000000
(drilling dxfpoint)
G00 Z10.000000
G83 X10.987253 Y11.479657 Z-1.000000 R10.000000 Q1.000000 F100.000000
(drilling dxfpoint)
G00 Z10.000000
G83 X10.954119 Y23.244167 Z-1.000000 R10.000000 Q1.000000 F100.000000
(drilling dxfpoint)
G00 Z10.000000
G83 X10.856371 Y22.323019 Z-1.000000 R10.000000 Q1.000000 F100.000000
(drilling dxfpoint)
G00 Z10.000000
G83 X10.766907 Y11.799415 Z-1.000000 R10.000000 Q1.000000 F100.000000
(drilling dxfpoint)
G00 Z10.000000
G83 X10.700638 Y13.625139 Z-1.000000 R10.000000 Q1.000000 F100.000000
(drilling dxfpoint)
G00 Z10.000000
G83 X10.677443 Y12.031373 Z-1.000000 R10.000000 Q1.000000 F100.000000
(drilling dxfpoint)
G00 Z10.000000
G83 X10.660876 Y20.218962 Z-1.000000 R10.000000 Q1.000000 F100.000000
(drilling dxfpoint)
G00 Z10.000000
G83 X10.534964 Y12.336201 Z-1.000000 R10.000000 Q1.000000 F100.000000
(drilling dxfpoint)
G00 Z10.000000
G83 X10.529994 Y21.688490 Z-1.000000 R10.000000 Q1.000000 F100.000000
(drilling dxfpoint)
G00 Z10.000000
G83 X10.481948 Y20.252097 Z-1.000000 R10.000000 Q1.000000 F100.000000
(drilling dxfpoint)
G00 Z10.000000
G83 X10.465381 Y19.675551 Z-1.000000 R10.000000 Q1.000000 F100.000000
(drilling dxfpoint)
G00 Z10.000000
G83 X10.293080 Y20.285230 Z-1.000000 R10.000000 Q1.000000 F100.000000
(drilling dxfpoint)
G00 Z10.000000
G83 X10.293080 Y22.150719 Z-1.000000 R10.000000 Q1.000000 F100.000000
(drilling dxfpoint)
G00 Z10.000000
G83 X10.049539 Y20.225588 Z-1.000000 R10.000000 Q1.000000 F100.000000
(drilling dxfpoint)
G00 Z10.000000
G83 X9.928598 Y20.040033 Z-1.000000 R10.000000 Q1.000000 F100.000000
(drilling dxfpoint)
G00 Z10.000000
G83 X9.776177 Y11.570787 Z-1.000000 R10.000000 Q1.000000 F100.000000
(drilling dxfpoint)
G00 Z10.000000
G83 X9.633698 Y11.363692 Z-1.000000 R10.000000 Q1.000000 F100.000000
(drilling dxfpoint)
G00 Z10.000000
G83 X9.630385 Y11.766282 Z-1.000000 R10.000000 Q1.000000 F100.000000
(drilling dxfpoint)
G00 Z10.000000
G83 X9.613817 Y21.010883 Z-1.000000 R10.000000 Q1.000000 F100.000000
(drilling dxfpoint)
G00 Z10.000000
G83 X9.537607 Y14.387251 Z-1.000000 R10.000000 Q1.000000 F100.000000
(drilling dxfpoint)
G00 Z10.000000
G83 X9.507786 Y21.179869 Z-1.000000 R10.000000 Q1.000000 F100.000000
(drilling dxfpoint)
G00 Z10.000000
G83 X9.504473 Y14.105594 Z-1.000000 R10.000000 Q1.000000 F100.000000
(drilling dxfpoint)
G00 Z10.000000
G83 X9.358679 Y11.259326 Z-1.000000 R10.000000 Q1.000000 F100.000000
(drilling dxfpoint)
G00 Z10.000000
G83 X9.342112 Y21.070525 Z-1.000000 R10.000000 Q1.000000 F100.000000
(drilling dxfpoint)
G00 Z10.000000
G83 X9.325545 Y12.727192 Z-1.000000 R10.000000 Q1.000000 F100.000000
(drilling dxfpoint)
G00 Z10.000000
G83 X9.272529 Y14.592681 Z-1.000000 R10.000000 Q1.000000 F100.000000
(drilling dxfpoint)
G00 Z10.000000
G83 X9.269216 Y23.015535 Z-1.000000 R10.000000 Q1.000000 F100.000000
(drilling dxfpoint)
G00 Z10.000000
G83 X9.136677 Y14.698712 Z-1.000000 R10.000000 Q1.000000 F100.000000
(drilling dxfpoint)
G00 Z10.000000
G83 X9.111826 Y23.406526 Z-1.000000 R10.000000 Q1.000000 F100.000000
(drilling dxfpoint)
G00 Z10.000000
G83 X9.015735 Y20.195769 Z-1.000000 R10.000000 Q1.000000 F100.000000
(drilling dxfpoint)
G00 Z10.000000
G83 X8.937868 Y11.610552 Z-1.000000 R10.000000 Q1.000000 F100.000000
(drilling dxfpoint)
G00 Z10.000000
G83 X8.881539 Y14.002893 Z-1.000000 R10.000000 Q1.000000 F100.000000
(drilling dxfpoint)
G00 Z10.000000
G83 X8.772194 Y12.611227 Z-1.000000 R10.000000 Q1.000000 F100.000000
(drilling dxfpoint)
G00 Z10.000000
G83 X8.768881 Y22.038062 Z-1.000000 R10.000000 Q1.000000 F100.000000
(drilling dxfpoint)
G00 Z10.000000
G83 X8.722492 Y15.016805 Z-1.000000 R10.000000 Q1.000000 F100.000000
(drilling dxfpoint)
G00 Z10.000000
G83 X8.715865 Y22.869742 Z-1.000000 R10.000000 Q1.000000 F100.000000
(drilling dxfpoint)
G00 Z10.000000
G83 X8.705925 Y23.568886 Z-1.000000 R10.000000 Q1.000000 F100.000000
(drilling dxfpoint)
G00 Z10.000000
G83 X8.570072 Y14.476716 Z-1.000000 R10.000000 Q1.000000 F100.000000
(drilling dxfpoint)
G00 Z10.000000
G83 X8.536937 Y23.068551 Z-1.000000 R10.000000 Q1.000000 F100.000000
(drilling dxfpoint)
G00 Z10.000000
G83 X8.235411 Y12.650992 Z-1.000000 R10.000000 Q1.000000 F100.000000
(drilling dxfpoint)
G00 Z10.000000
G83 X7.887496 Y20.281917 Z-1.000000 R10.000000 Q1.000000 F100.000000
(drilling dxfpoint)
G00 Z10.000000
G83 X7.854361 Y11.676817 Z-1.000000 R10.000000 Q1.000000 F100.000000
(drilling dxfpoint)
G00 Z10.000000
G83 X7.849391 Y22.621232 Z-1.000000 R10.000000 Q1.000000 F100.000000
(drilling dxfpoint)
G00 Z10.000000
G83 X7.781465 Y19.718627 Z-1.000000 R10.000000 Q1.000000 F100.000000
(drilling dxfpoint)
G00 Z10.000000
G83 X7.552834 Y13.656635 Z-1.000000 R10.000000 Q1.000000 F100.000000
(drilling dxfpoint)
G00 Z10.000000
G83 X7.430236 Y21.120227 Z-1.000000 R10.000000 Q1.000000 F100.000000
(drilling dxfpoint)
G00 Z10.000000
G83 X7.416982 Y20.447593 Z-1.000000 R10.000000 Q1.000000 F100.000000
(drilling dxfpoint)
G00 Z10.000000
G83 X7.310951 Y21.527784 Z-1.000000 R10.000000 Q1.000000 F100.000000
(drilling dxfpoint)
G00 Z10.000000
G83 X7.307638 Y22.714009 Z-1.000000 R10.000000 Q1.000000 F100.000000
(drilling dxfpoint)
G00 Z10.000000
G83 X7.257935 Y20.888285 Z-1.000000 R10.000000 Q1.000000 F100.000000
(drilling dxfpoint)
G00 Z10.000000
G83 X7.224800 Y11.915380 Z-1.000000 R10.000000 Q1.000000 F100.000000
(drilling dxfpoint)
G00 Z10.000000
G83 X7.175098 Y14.011162 Z-1.000000 R10.000000 Q1.000000 F100.000000
(drilling dxfpoint)
G00 Z10.000000
G83 X7.022678 Y11.365357 Z-1.000000 R10.000000 Q1.000000 F100.000000
(drilling dxfpoint)
G00 Z10.000000
G83 X6.972976 Y12.296436 Z-1.000000 R10.000000 Q1.000000 F100.000000
(drilling dxfpoint)
G00 Z10.000000
G83 X6.958066 Y20.033406 Z-1.000000 R10.000000 Q1.000000 F100.000000
(drilling dxfpoint)
G00 Z10.000000
G83 X6.668136 Y20.911479 Z-1.000000 R10.000000 Q1.000000 F100.000000
(drilling dxfpoint)
G00 Z10.000000
G83 X6.581986 Y11.580721 Z-1.000000 R10.000000 Q1.000000 F100.000000
(drilling dxfpoint)
G00 Z10.000000
G83 X6.396431 Y12.134074 Z-1.000000 R10.000000 Q1.000000 F100.000000
(drilling dxfpoint)
G00 Z10.000000
G83 X6.353355 Y15.967772 Z-1.000000 R10.000000 Q1.000000 F100.000000
(drilling dxfpoint)
G00 Z10.000000
G83 X6.306967 Y20.464168 Z-1.000000 R10.000000 Q1.000000 F100.000000
(drilling dxfpoint)
G00 Z10.000000
G83 X6.245667 Y15.694409 Z-1.000000 R10.000000 Q1.000000 F100.000000
(drilling dxfpoint)
G00 Z10.000000
G83 X6.234071 Y20.662976 Z-1.000000 R10.000000 Q1.000000 F100.000000
(drilling dxfpoint)
G00 Z10.000000
G83 X6.220816 Y16.150011 Z-1.000000 R10.000000 Q1.000000 F100.000000
(drilling dxfpoint)
G00 Z10.000000
G83 X6.161174 Y20.164298 Z-1.000000 R10.000000 Q1.000000 F100.000000
(drilling dxfpoint)
G00 Z10.000000
G83 X6.035262 Y20.745814 Z-1.000000 R10.000000 Q1.000000 F100.000000
(drilling dxfpoint)
G00 Z10.000000
G83 X6.015381 Y15.580095 Z-1.000000 R10.000000 Q1.000000 F100.000000
(drilling dxfpoint)
G00 Z10.000000
G83 X5.962366 Y20.732550 Z-1.000000 R10.000000 Q1.000000 F100.000000
(drilling dxfpoint)
G00 Z10.000000
G83 X5.892783 Y13.701367 Z-1.000000 R10.000000 Q1.000000 F100.000000
(drilling dxfpoint)
G00 Z10.000000
G83 X5.892782 Y15.593359 Z-1.000000 R10.000000 Q1.000000 F100.000000
(drilling dxfpoint)
G00 Z10.000000
G83 X5.836454 Y20.053297 Z-1.000000 R10.000000 Q1.000000 F100.000000
(drilling dxfpoint)
G00 Z10.000000
G83 X5.783437 Y16.242789 Z-1.000000 R10.000000 Q1.000000 F100.000000
(drilling dxfpoint)
G00 Z10.000000
G83 X5.781781 Y13.542306 Z-1.000000 R10.000000 Q1.000000 F100.000000
(drilling dxfpoint)
G00 Z10.000000
G83 X5.561435 Y20.073166 Z-1.000000 R10.000000 Q1.000000 F100.000000
(drilling dxfpoint)
G00 Z10.000000
G83 X5.521673 Y20.656341 Z-1.000000 R10.000000 Q1.000000 F100.000000
(drilling dxfpoint)
G00 Z10.000000
G83 X5.501792 Y14.019459 Z-1.000000 R10.000000 Q1.000000 F100.000000
(drilling dxfpoint)
G00 Z10.000000
G83 X5.486882 Y13.406445 Z-1.000000 R10.000000 Q1.000000 F100.000000
(drilling dxfpoint)
G00 Z10.000000
G83 X5.342745 Y15.653001 Z-1.000000 R10.000000 Q1.000000 F100.000000
(drilling dxfpoint)
G00 Z10.000000
G83 X5.249968 Y20.089732 Z-1.000000 R10.000000 Q1.000000 F100.000000
(drilling dxfpoint)
G00 Z10.000000
G83 X5.090921 Y13.939929 Z-1.000000 R10.000000 Q1.000000 F100.000000
(drilling dxfpoint)
G00 Z10.000000
G83 X4.627035 Y13.837200 Z-1.000000 R10.000000 Q1.000000 F100.000000
(drilling dxfpoint)
G00 Z10.000000
G83 X4.600527 Y13.290479 Z-1.000000 R10.000000 Q1.000000 F100.000000
(drilling dxfpoint)
G00 Z10.000000
G83 X4.501122 Y16.130132 Z-1.000000 R10.000000 Q1.000000 F100.000000
(drilling dxfpoint)
G00 Z10.000000
G83 X4.423255 Y15.588389 Z-1.000000 R10.000000 Q1.000000 F100.000000
(drilling dxfpoint)
G00 Z10.000000
G83 X4.169775 Y20.546997 Z-1.000000 R10.000000 Q1.000000 F100.000000
(drilling dxfpoint)
G00 Z10.000000
G83 X3.931205 Y13.757670 Z-1.000000 R10.000000 Q1.000000 F100.000000
(drilling dxfpoint)
G00 Z10.000000
G83 X3.762217 Y15.444241 Z-1.000000 R10.000000 Q1.000000 F100.000000
(drilling dxfpoint)
G00 Z10.000000
G83 X3.762216 Y15.444253 Z-1.000000 R10.000000 Q1.000000 F100.000000
(drilling dxfpoint)
G00 Z10.000000
G83 X3.748962 Y16.063863 Z-1.000000 R10.000000 Q1.000000 F100.000000
(drilling dxfpoint)
G00 Z10.000000
G83 X3.742336 Y24.430392 Z-1.000000 R10.000000 Q1.000000 F100.000000
(drilling dxfpoint)
G00 Z10.000000
G83 X3.682694 Y23.966503 Z-1.000000 R10.000000 Q1.000000 F100.000000
(drilling dxfpoint)
G00 Z10.000000
G83 X3.656186 Y24.632514 Z-1.000000 R10.000000 Q1.000000 F100.000000
(drilling dxfpoint)
G00 Z10.000000
G83 X3.579976 Y14.720245 Z-1.000000 R10.000000 Q1.000000 F100.000000
(drilling dxfpoint)
G00 Z10.000000
G83 X3.578319 Y13.139716 Z-1.000000 R10.000000 Q1.000000 F100.000000
(drilling dxfpoint)
G00 Z10.000000
G83 X3.460691 Y13.694735 Z-1.000000 R10.000000 Q1.000000 F100.000000
(drilling dxfpoint)
G00 Z10.000000
G83 X3.460691 Y24.725291 Z-1.000000 R10.000000 Q1.000000 F100.000000
(drilling dxfpoint)
G00 Z10.000000
G83 X3.434183 Y20.450906 Z-1.000000 R10.000000 Q1.000000 F100.000000
(drilling dxfpoint)
G00 Z10.000000
G83 X3.432526 Y22.177225 Z-1.000000 R10.000000 Q1.000000 F100.000000
(drilling dxfpoint)
G00 Z10.000000
G83 X3.387794 Y13.036987 Z-1.000000 R10.000000 Q1.000000 F100.000000
(drilling dxfpoint)
G00 Z10.000000
G83 X3.324838 Y12.556561 Z-1.000000 R10.000000 Q1.000000 F100.000000
(drilling dxfpoint)
G00 Z10.000000
G83 X3.311583 Y16.113565 Z-1.000000 R10.000000 Q1.000000 F100.000000
(drilling dxfpoint)
G00 Z10.000000
G83 X3.304957 Y11.448189 Z-1.000000 R10.000000 Q1.000000 F100.000000
(drilling dxfpoint)
G00 Z10.000000
G83 X3.303301 Y20.492325 Z-1.000000 R10.000000 Q1.000000 F100.000000
(drilling dxfpoint)
G00 Z10.000000
G83 X3.291703 Y11.859048 Z-1.000000 R10.000000 Q1.000000 F100.000000
(drilling dxfpoint)
G00 Z10.000000
G83 X3.268509 Y20.649715 Z-1.000000 R10.000000 Q1.000000 F100.000000
(drilling dxfpoint)
G00 Z10.000000
G83 X3.207210 Y24.652393 Z-1.000000 R10.000000 Q1.000000 F100.000000
(drilling dxfpoint)
G00 Z10.000000
G83 X3.165791 Y19.751760 Z-1.000000 R10.000000 Q1.000000 F100.000000
(drilling dxfpoint)
G00 Z10.000000
G83 X3.122715 Y16.009188 Z-1.000000 R10.000000 Q1.000000 F100.000000
(drilling dxfpoint)
G00 Z10.000000
G83 X3.116088 Y15.397853 Z-1.000000 R10.000000 Q1.000000 F100.000000
(drilling dxfpoint)
G00 Z10.000000
G83 X3.101179 Y24.463525 Z-1.000000 R10.000000 Q1.000000 F100.000000
(drilling dxfpoint)
G00 Z10.000000
G83 X3.076327 Y15.590035 Z-1.000000 R10.000000 Q1.000000 F100.000000
(drilling dxfpoint)
G00 Z10.000000
G83 X3.059759 Y11.110228 Z-1.000000 R10.000000 Q1.000000 F100.000000
(drilling dxfpoint)
G00 Z10.000000
G83 X3.026624 Y14.778234 Z-1.000000 R10.000000 Q1.000000 F100.000000
(drilling dxfpoint)
G00 Z10.000000
G83 X3.023311 Y15.815352 Z-1.000000 R10.000000 Q1.000000 F100.000000
(drilling dxfpoint)
G00 Z10.000000
G83 X2.986864 Y23.361794 Z-1.000000 R10.000000 Q1.000000 F100.000000
(drilling dxfpoint)
G00 Z10.000000
G83 X2.860952 Y19.695431 Z-1.000000 R10.000000 Q1.000000 F100.000000
(drilling dxfpoint)
G00 Z10.000000
G83 X2.797995 Y21.632158 Z-1.000000 R10.000000 Q1.000000 F100.000000
(drilling dxfpoint)
G00 Z10.000000
G83 X2.778114 Y11.226193 Z-1.000000 R10.000000 Q1.000000 F100.000000
(drilling dxfpoint)
G00 Z10.000000
G83 X2.698591 Y20.822011 Z-1.000000 R10.000000 Q1.000000 F100.000000
(drilling dxfpoint)
G00 Z10.000000
G83 X2.698591 Y20.822014 Z-1.000000 R10.000000 Q1.000000 F100.000000
(drilling dxfpoint)
G00 Z10.000000
G83 X2.648888 Y11.537654 Z-1.000000 R10.000000 Q1.000000 F100.000000
(drilling dxfpoint)
G00 Z10.000000
G83 X2.630665 Y19.824655 Z-1.000000 R10.000000 Q1.000000 F100.000000
(drilling dxfpoint)
G00 Z10.000000
G83 X2.612441 Y20.394574 Z-1.000000 R10.000000 Q1.000000 F100.000000
(drilling dxfpoint)
G00 Z10.000000
G83 X2.549485 Y20.076479 Z-1.000000 R10.000000 Q1.000000 F100.000000

(Footer)
M5
G00 X0.0000 Y0.0000
M2
(Using default footer. To add your own footer create file "footer" in the output dir.)
(end)
