
(Header)
(Generated by gcodetools from Inkscape.)
(Using default header. To add your own header create file "header" in the output dir.)
M3
(Header end.)
G21 (All units in mm)

(Start cutting path id: path10275 at depth: -1.0)
(path id: path10275 at depth step: -1.0)
(path len: 13.02809)
(Change tool to Default tool)
 
G00 Z10.000000
G00 X36.747241 Y17.372986
(Subpath start)
G01 Z-1.000000 F100.0(Penetrate)
G03 X36.685367 Y17.514504 Z-1.000000 I-0.192777 J0.000000 F400.000000
G03 X36.306270 Y17.780881 Z-1.000000 I-1.177971 J-1.273494
G02 X35.759493 Y18.086245 Z-1.000000 I3.978822 J7.766573
G02 X35.549725 Y18.239762 Z-1.000000 I0.779684 J1.285440
G02 X35.398827 Y18.432973 Z-1.000000 I0.428484 J0.490181
G02 X35.352668 Y18.624230 Z-1.000000 I0.373124 J0.191250
G02 X35.485569 Y19.100968 Z-1.000000 I0.921496 J0.000006
G02 X35.902504 Y19.533754 Z-1.000000 I1.162705 J-0.702895
G02 X36.471344 Y19.831212 Z-1.000000 I1.778866 J-2.709157
G02 X36.799608 Y19.894791 Z-1.000000 I0.328272 J-0.815676
G02 X37.014286 Y19.869564 Z-1.000000 I-0.000015 J-0.926171
G02 X37.123445 Y19.817621 Z-1.000000 I-0.067148 J-0.281781
G02 X37.192294 Y19.724790 Z-1.000000 I-0.128066 J-0.166930
G02 X37.224043 Y19.550282 Z-1.000000 I-0.463771 J-0.174517
G02 X37.205886 Y19.473365 Z-1.000000 I-0.172026 J0.000007
G02 X37.151006 Y19.404221 Z-1.000000 I-0.191827 J0.095901
G02 X37.074559 Y19.353001 Z-1.000000 I-0.286367 J0.344754
G02 X37.036629 Y19.343586 Z-1.000000 I-0.037861 J0.071418
G02 X37.007408 Y19.348534 Z-1.000000 I-0.000102 J0.088149
G02 X36.918117 Y19.384925 Z-1.000000 I0.316468 J0.904249
G03 X36.829017 Y19.419169 Z-1.000000 I-0.422995 J-0.967557
G03 X36.802364 Y19.423493 Z-1.000000 I-0.026654 J-0.079970
G03 X36.669785 Y19.400380 Z-1.000000 I-0.000000 J-0.391798
G03 X36.242879 Y19.222316 Z-1.000000 I1.566967 J-4.357554
G03 X35.900925 Y18.970804 Z-1.000000 I0.486557 J-1.019734
G03 X35.821200 Y18.767566 Z-1.000000 I0.219188 J-0.203238
G03 X35.855704 Y18.629250 Z-1.000000 I0.294482 J0.000000
G03 X35.970029 Y18.487819 Z-1.000000 I0.423153 J0.225130
G03 X36.128233 Y18.377023 Z-1.000000 I0.697557 J0.827688
G03 X36.504706 Y18.180512 Z-1.000000 I2.610658 J4.542591
G02 X36.804211 Y18.013951 Z-1.000000 I-1.198217 J-2.507157
G02 X37.002177 Y17.862173 Z-1.000000 I-0.793159 J-1.239524
G02 X37.141951 Y17.672262 Z-1.000000 I-0.404712 J-0.444258
G02 X37.188214 Y17.463926 Z-1.000000 I-0.446005 J-0.208344
G02 X37.061152 Y17.127494 Z-1.000000 I-0.508943 J0.000004
G02 X36.606682 Y16.803843 Z-1.000000 I-0.919165 J0.809783
G02 X36.014312 Y16.620456 Z-1.000000 I-1.325983 J3.234713
G02 X35.495983 Y16.565459 Z-1.000000 I-0.518329 J2.415035
G02 X35.154475 Y16.670442 Z-1.000000 I-0.000000 J0.607947
G02 X35.049498 Y16.868610 Z-1.000000 I0.134554 J0.198168
G02 X35.075769 Y16.957019 Z-1.000000 I0.161896 J0.000000
G02 X35.150096 Y17.022956 Z-1.000000 I0.157473 J-0.102651
G02 X35.253483 Y17.060593 Z-1.000000 I0.223580 J-0.453332
G02 X35.352668 Y17.072557 Z-1.000000 I0.099185 J-0.405156
G02 X35.393587 Y17.069001 Z-1.000000 I0.000000 J-0.237202
G02 X35.509762 Y17.044998 Z-1.000000 I-0.336981 J-1.924138
G03 X35.623148 Y17.020704 Z-1.000000 I0.500500 J2.059174
G03 X35.658591 Y17.017439 Z-1.000000 I0.035443 J0.190756
G03 X35.961179 Y17.040819 Z-1.000000 I0.000000 J1.969767
G03 X36.314538 Y17.119413 Z-1.000000 I-0.430501 J2.769187
G03 X36.635393 Y17.257645 Z-1.000000 I-0.397275 J1.363618
G03 X36.747241 Y17.372986 Z-1.000000 I-0.151908 J0.259208
(Subpath end)
G00 Z10.000000

(End cutting path id: path10275 at depth: -1.0)

(Start cutting path id: path10273 at depth: -1.0)
(path id: path10273 at depth step: -1.0)
(path len: 12.77540)
G00 Z10.000000
G00 X33.040319 Y17.835999
(Subpath start)
G01 Z-1.000000 F100.0(Penetrate)
G03 X33.066372 Y17.886367 Z-1.000000 I-0.829570 J0.461003 F400.000000
G03 X33.106466 Y17.973795 Z-1.000000 I-2.481336 J1.190855
G02 X33.306617 Y18.396932 Z-1.000000 I6.969807 J-3.037925
G02 X33.450975 Y18.647657 Z-1.000000 I2.587874 J-1.323079
G02 X33.615668 Y18.885952 Z-1.000000 I3.740144 J-2.408875
G02 X33.796864 Y19.114826 Z-1.000000 I3.628077 J-2.686133
G02 X33.994824 Y19.328290 Z-1.000000 I2.429673 J-2.054683
G02 X34.141373 Y19.453823 Z-1.000000 I0.981612 J-0.997638
G02 X34.302629 Y19.559221 Z-1.000000 I0.953698 J-1.283068
G02 X34.423871 Y19.615049 Z-1.000000 I0.380288 J-0.666316
G02 X34.552511 Y19.649800 Z-1.000000 I0.279595 J-0.779505
G02 X34.669162 Y19.660524 Z-1.000000 I0.116670 J-0.629322
G02 X34.892895 Y19.620486 Z-1.000000 I-0.000009 J-0.645182
G02 X35.060524 Y19.515819 Z-1.000000 I-0.169130 J-0.457438
G02 X35.174252 Y19.354936 Z-1.000000 I-0.354038 J-0.370908
G02 X35.212109 Y19.178207 Z-1.000000 I-0.393626 J-0.176736
G02 X35.198456 Y19.097473 Z-1.000000 I-0.245596 J0.000010
G02 X35.158366 Y19.023862 Z-1.000000 I-0.242864 J0.084546
G02 X35.094747 Y18.975198 Z-1.000000 I-0.125105 J0.097634
G02 X34.994379 Y18.954964 Z-1.000000 I-0.100368 J0.238812
G02 X34.888959 Y18.978977 Z-1.000000 I0.000000 J0.243406
G02 X34.782162 Y19.056937 Z-1.000000 I0.157659 J0.328107
G03 X34.673301 Y19.136089 Z-1.000000 I-0.284451 J-0.276780
G03 X34.575456 Y19.158911 Z-1.000000 I-0.097845 J-0.198338
G03 X34.334764 Y19.068476 Z-1.000000 I0.000000 J-0.365517
G03 X33.781704 Y18.464391 Z-1.000000 I2.442156 J-2.791090
G03 X33.373742 Y17.730127 Z-1.000000 I2.752959 J-2.010029
G03 X33.164343 Y16.934761 Z-1.000000 I3.030297 J-1.223045
G02 X33.114503 Y16.731523 Z-1.000000 I-0.920974 J0.118120
G02 X33.059613 Y16.650883 Z-1.000000 I-0.189241 J0.069810
G02 X32.974627 Y16.602493 Z-1.000000 I-0.155429 J0.174150
G02 X32.841884 Y16.581985 Z-1.000000 I-0.132743 J0.419358
G02 X32.739096 Y16.625401 Z-1.000000 I0.000000 J0.143385
G02 X32.646202 Y16.783186 Z-1.000000 I0.276772 J0.269183
G02 X32.606706 Y16.987499 Z-1.000000 I0.980725 J0.295556
G02 X32.585567 Y17.461180 Z-1.000000 I5.296401 J0.473680
G02 X32.587132 Y17.590700 Z-1.000000 I5.359407 J-0.000000
G02 X32.599346 Y18.031683 Z-1.000000 I62.617523 J-1.513714
G02 X32.628032 Y18.551457 Z-1.000000 I11.131934 J-0.353681
G02 X32.665491 Y18.872286 Z-1.000000 I4.268956 J-0.335824
G03 X32.672585 Y18.924798 Z-1.000000 I-1.165878 J0.184251
G03 X32.693052 Y19.117572 Z-1.000000 I-15.870531 J1.782454
G02 X32.719813 Y19.328183 Z-1.000000 I2.961038 J-0.269230
G02 X32.741283 Y19.412484 Z-1.000000 I0.492387 J-0.080520
G02 X32.781629 Y19.487076 Z-1.000000 I0.252656 J-0.088451
G02 X32.859795 Y19.566818 Z-1.000000 I0.368282 J-0.282820
G02 X32.955537 Y19.620879 Z-1.000000 I0.214639 J-0.268317
G02 X33.054099 Y19.638476 Z-1.000000 I0.098571 J-0.267268
G02 X33.146927 Y19.619630 Z-1.000000 I-0.000008 J-0.238073
G02 X33.207062 Y19.573708 Z-1.000000 I-0.059257 J-0.139930
G02 X33.245612 Y19.504633 Z-1.000000 I-0.197587 J-0.155566
G02 X33.258049 Y19.434527 Z-1.000000 I-0.191429 J-0.070116
G02 X33.248472 Y19.328347 Z-1.000000 I-0.593606 J0.000019
G02 X33.202926 Y19.131352 Z-1.000000 I-2.101937 J0.382214
G03 X33.144035 Y18.912679 Z-1.000000 I5.368668 J-1.563105
G03 X33.128514 Y18.830947 Z-1.000000 I0.732525 J-0.181450
G02 X33.117190 Y18.737706 Z-1.000000 I-1.428079 J0.126117
G02 X33.098196 Y18.635263 Z-1.000000 I-1.732522 J0.268249
G03 X33.079071 Y18.515540 Z-1.000000 I0.842372 J-0.195953
G03 X33.043075 Y18.012387 Z-1.000000 I14.922089 J-1.320397
G01 X33.040305 Y17.910413 Z-1.000000
G01 X33.040319 Y17.835999 Z-1.000000
(Subpath end)
G00 Z10.000000

(End cutting path id: path10273 at depth: -1.0)

(Start cutting path id: path10271 at depth: -1.0)
(path id: path10271 at depth step: -1.0)
(path len: 15.72197)
G00 Z10.000000
G00 X30.989800 Y17.940743
(Subpath start)
G01 Z-1.000000 F100.0(Penetrate)
G02 X30.602505 Y17.376822 Z-1.000000 I-4.537022 J2.701023 F400.000000
G02 X30.267707 Y17.022956 Z-1.000000 I-2.104507 J1.655794
G02 X29.873581 Y16.763456 Z-1.000000 I-1.119632 J1.271442
G02 X29.581445 Y16.697738 Z-1.000000 I-0.292136 J0.616456
G02 X29.418939 Y16.740966 Z-1.000000 I-0.000000 J0.327069
G02 X29.210753 Y16.909949 Z-1.000000 I0.413355 J0.721985
G02 X29.081219 Y17.144710 Z-1.000000 I0.453239 J0.403200
G02 X29.021960 Y17.563153 Z-1.000000 I1.447754 J0.418444
G02 X29.050943 Y17.920662 Z-1.000000 I2.219443 J0.000000
G02 X29.195595 Y18.627000 Z-1.000000 I8.850053 J-1.444431
G03 X29.321044 Y19.216562 Z-1.000000 I-8.547311 J2.126855
G03 X29.341666 Y19.451053 Z-1.000000 I-1.322899 J0.234491
G02 X29.448659 Y19.573282 Z-1.000000 I0.275317 J-0.133057
G02 X29.592469 Y19.616427 Z-1.000000 I0.143815 J-0.218115
G02 X29.697939 Y19.594232 Z-1.000000 I-0.000008 J-0.261742
G02 X29.777127 Y19.535115 Z-1.000000 I-0.088664 J-0.201361
G02 X29.829943 Y19.447906 Z-1.000000 I-0.246483 J-0.208875
G02 X29.846027 Y19.365629 Z-1.000000 I-0.202403 J-0.082278
G02 X29.823134 Y19.176904 Z-1.000000 I-0.789340 J0.000000
G02 X29.710980 Y18.817168 Z-1.000000 I-3.011450 J0.741520
G03 X29.506583 Y18.116071 Z-1.000000 I4.815782 J-1.784335
G03 X29.454666 Y17.629305 Z-1.000000 I2.255802 J-0.486750
G03 X29.536309 Y17.258944 Z-1.000000 I0.880827 J-0.000007
G03 X29.664127 Y17.177301 Z-1.000000 I0.127818 J0.059233
G03 X29.899838 Y17.248787 Z-1.000000 I0.000000 J0.424349
G03 X30.344877 Y17.632051 Z-1.000000 I-1.340000 J2.005998
G03 X30.698149 Y18.123092 Z-1.000000 I-1.964838 J1.786169
G03 X31.053188 Y18.899845 Z-1.000000 I-4.620416 J2.581427
G02 X31.180847 Y19.218679 Z-1.000000 I4.159680 J-1.480524
G02 X31.241981 Y19.322905 Z-1.000000 I0.499270 J-0.222808
G02 X31.328070 Y19.394717 Z-1.000000 I0.193402 J-0.144345
G02 X31.439041 Y19.420747 Z-1.000000 I0.110971 J-0.223526
G02 X31.564161 Y19.358463 Z-1.000000 I0.000000 J-0.156818
G02 X31.626453 Y19.172691 Z-1.000000 I-0.245884 J-0.185777
G02 X31.622646 Y19.142971 Z-1.000000 I-0.118038 J0.000014
G02 X31.574088 Y18.971513 Z-1.000000 I-4.040224 J1.051627
G03 X31.447091 Y18.362755 Z-1.000000 I4.860059 J-1.331512
G03 X31.408723 Y17.830482 Z-1.000000 I3.672553 J-0.532249
G03 X31.485115 Y17.219698 Z-1.000000 I2.479817 J-0.000014
G03 X31.620941 Y16.995396 Z-1.000000 I0.436155 J0.110838
G02 X31.714235 Y16.886013 Z-1.000000 I-0.414134 J-0.447697
G02 X31.731185 Y16.830041 Z-1.000000 I-0.083960 J-0.055978
G02 X31.708807 Y16.765882 Z-1.000000 I-0.103179 J0.000005
G02 X31.619563 Y16.689475 Z-1.000000 I-0.241550 J0.191812
G02 X31.504409 Y16.639450 Z-1.000000 I-0.291350 J0.513117
G02 X31.416991 Y16.626094 Z-1.000000 I-0.087418 J0.279397
G02 X31.263977 Y16.685789 Z-1.000000 I0.000000 J0.225955
G02 X31.105556 Y16.912719 Z-1.000000 I0.434446 J0.472052
G02 X31.025501 Y17.206986 Z-1.000000 I1.117225 J0.461960
G02 X30.987044 Y17.758838 Z-1.000000 I3.939886 J0.551827
G01 X30.987044 Y17.849779 Z-1.000000
G02 X30.987717 Y17.893851 Z-1.000000 I1.436466 J0.000115
G02 X30.989791 Y17.940743 Z-1.000000 I1.726108 J-0.052845
(Subpath end)
G00 Z10.000000

(End cutting path id: path10271 at depth: -1.0)

(Start cutting path id: path10269 at depth: -1.0)
(path id: path10269 at depth step: -1.0)
(path len: 12.42546)
G00 Z10.000000
G00 X28.470746 Y17.676160
(Subpath start)
G01 Z-1.000000 F100.0(Penetrate)
G02 X28.391209 Y17.433324 Z-1.000000 I-0.410504 J0.000010 F400.000000
G02 X27.973274 Y16.998166 Z-1.000000 I-1.845286 J1.353977
G02 X27.443358 Y16.693948 Z-1.000000 I-1.256133 J1.574411
G02 X26.946635 Y16.601281 Z-1.000000 I-0.496722 J1.284958
G02 X26.536140 Y16.677073 Z-1.000000 I-0.000000 J1.149528
G02 X26.261750 Y16.863117 Z-1.000000 I0.258904 J0.677216
G02 X26.091494 Y17.152601 Z-1.000000 I0.584985 J0.538859
G02 X26.020593 Y17.593459 Z-1.000000 I1.335156 J0.440857
G02 X26.148928 Y18.339024 Z-1.000000 I2.229848 J0.000001
G02 X26.552515 Y19.092783 Z-1.000000 I2.684227 J-0.952296
G02 X27.162406 Y19.648139 Z-1.000000 I1.749612 J-1.308851
G02 X27.715579 Y19.803841 Z-1.000000 I0.553180 J-0.904819
G02 X27.906703 Y19.767032 Z-1.000000 I-0.000009 J-0.514634
G02 X28.053198 Y19.668794 Z-1.000000 I-0.156976 J-0.392435
G02 X28.149956 Y19.519900 Z-1.000000 I-0.331418 J-0.321257
G02 X28.184114 Y19.343586 Z-1.000000 I-0.438014 J-0.176322
G02 X28.091494 Y18.959375 Z-1.000000 I-0.843242 J0.000007
G02 X27.767946 Y18.530542 Z-1.000000 I-1.386831 J0.709870
G02 X27.326845 Y18.176674 Z-1.000000 I-2.572486 J2.754776
G02 X26.654491 Y17.767101 Z-1.000000 I-4.132704 J6.027587
G03 X26.543811 Y17.672854 Z-1.000000 I0.149108 J-0.287222
G03 X26.511174 Y17.574187 Z-1.000000 I0.132829 J-0.098668
G03 X26.548560 Y17.360460 Z-1.000000 I0.629604 J0.000000
G03 X26.643465 Y17.207607 Z-1.000000 I0.407268 J0.146979
G03 X26.793344 Y17.111085 Z-1.000000 I0.277777 J0.266703
G03 X27.034829 Y17.069811 Z-1.000000 I0.241485 J0.685808
G03 X27.568857 Y17.205257 Z-1.000000 I0.000000 J1.120489
G03 X28.244746 Y17.725762 Z-1.000000 I-1.280304 J2.361588
G02 X28.340876 Y17.804193 Z-1.000000 I0.434685 J-0.434652
G02 X28.382549 Y17.816703 Z-1.000000 I0.041673 J-0.063156
G02 X28.439338 Y17.785294 Z-1.000000 I0.000000 J-0.067043
G02 X28.470746 Y17.676160 Z-1.000000 I-0.173937 J-0.109144
(Subpath end)
G00 Z10.000000

(End cutting path id: path10269 at depth: -1.0)

(Start cutting path id: path10269 at depth: -1.0)
(path id: path10269 at depth step: -1.0)
(path len: 3.63859)
G00 Z10.000000
G00 X26.555271 Y18.106098
(Subpath start)
G01 Z-1.000000 F100.0(Penetrate)
G03 X27.578787 Y18.883151 Z-1.000000 I-2.908145 J4.893142 F400.000000
G03 X27.723849 Y19.222316 Z-1.000000 I-0.323972 J0.339169
G03 X27.677990 Y19.341814 Z-1.000000 I-0.178631 J-0.000004
G03 X27.575020 Y19.387671 Z-1.000000 I-0.102970 J-0.092678
G03 X27.351938 Y19.321490 Z-1.000000 I-0.000000 J-0.409074
G03 X27.003134 Y19.015599 Z-1.000000 I0.886660 J-1.362858
G03 X26.739544 Y18.615593 Z-1.000000 I1.458794 J-1.248148
G03 X26.555271 Y18.106098 Z-1.000000 I2.203271 J-1.084942
(Subpath end)
G00 Z10.000000

(End cutting path id: path10269 at depth: -1.0)

(Start cutting path id: path10267 at depth: -1.0)
(path id: path10267 at depth step: -1.0)
(path len: 15.72197)
G00 Z10.000000
G00 X24.617750 Y17.940743
(Subpath start)
G01 Z-1.000000 F100.0(Penetrate)
G02 X24.230456 Y17.376822 Z-1.000000 I-4.537015 J2.701016 F400.000000
G02 X23.895658 Y17.022956 Z-1.000000 I-2.104528 J1.655811
G02 X23.501531 Y16.763456 Z-1.000000 I-1.119647 J1.271468
G02 X23.209395 Y16.697738 Z-1.000000 I-0.292136 J0.616456
G02 X23.046889 Y16.740966 Z-1.000000 I0.000000 J0.327067
G02 X22.838703 Y16.909949 Z-1.000000 I0.413365 J0.721998
G02 X22.709170 Y17.144710 Z-1.000000 I0.453238 J0.403198
G02 X22.649912 Y17.563153 Z-1.000000 I1.447759 J0.418442
G02 X22.678894 Y17.920662 Z-1.000000 I2.219472 J0.000002
G02 X22.823545 Y18.627000 Z-1.000000 I8.849713 J-1.444348
G03 X22.948994 Y19.216562 Z-1.000000 I-8.547010 J2.126801
G03 X22.969617 Y19.451053 Z-1.000000 I-1.322934 J0.234497
G02 X23.076610 Y19.573281 Z-1.000000 I0.275320 J-0.133060
G02 X23.220420 Y19.616427 Z-1.000000 I0.143815 J-0.218114
G02 X23.325890 Y19.594233 Z-1.000000 I-0.000008 J-0.261743
G02 X23.405077 Y19.535115 Z-1.000000 I-0.088659 J-0.201351
G02 X23.457894 Y19.447906 Z-1.000000 I-0.246480 J-0.208875
G02 X23.473979 Y19.365629 Z-1.000000 I-0.202413 J-0.082282
G02 X23.451085 Y19.176904 Z-1.000000 I-0.789380 J0.000007
G02 X23.338931 Y18.817168 Z-1.000000 I-3.011310 J0.741475
G03 X23.134534 Y18.116071 Z-1.000000 I4.815625 J-1.784289
G03 X23.082616 Y17.629305 Z-1.000000 I2.255872 J-0.486759
G03 X23.164261 Y17.258943 Z-1.000000 I0.880838 J-0.000003
G03 X23.292078 Y17.177301 Z-1.000000 I0.127817 J0.059232
G03 X23.527790 Y17.248788 Z-1.000000 I0.000000 J0.424351
G03 X23.972828 Y17.632051 Z-1.000000 I-1.340008 J2.006009
G03 X24.326100 Y18.123092 Z-1.000000 I-1.964852 J1.786179
G03 X24.681140 Y18.899845 Z-1.000000 I-4.620395 J2.581420
G02 X24.808797 Y19.218679 Z-1.000000 I4.159713 J-1.480526
G02 X24.869931 Y19.322905 Z-1.000000 I0.499269 J-0.222806
G02 X24.956020 Y19.394716 Z-1.000000 I0.193400 J-0.144342
G02 X25.066991 Y19.420747 Z-1.000000 I0.110971 J-0.223525
G02 X25.192112 Y19.358463 Z-1.000000 I-0.000000 J-0.156819
G02 X25.254404 Y19.172691 Z-1.000000 I-0.245883 J-0.185778
G02 X25.250598 Y19.142971 Z-1.000000 I-0.118071 J0.000016
G02 X25.202039 Y18.971513 Z-1.000000 I-4.029776 J1.048688
G03 X25.075042 Y18.362755 Z-1.000000 I4.860117 J-1.331525
G03 X25.036674 Y17.830482 Z-1.000000 I3.672497 J-0.532244
G03 X25.113066 Y17.219698 Z-1.000000 I2.479791 J-0.000016
G03 X25.248892 Y16.995396 Z-1.000000 I0.436157 J0.110839
G02 X25.342185 Y16.886013 Z-1.000000 I-0.414104 J-0.447667
G02 X25.359135 Y16.830041 Z-1.000000 I-0.083964 J-0.055979
G02 X25.336757 Y16.765882 Z-1.000000 I-0.103183 J0.000006
G02 X25.247514 Y16.689475 Z-1.000000 I-0.241551 J0.191812
G02 X25.132361 Y16.639450 Z-1.000000 I-0.291353 J0.513124
G02 X25.044942 Y16.626094 Z-1.000000 I-0.087419 J0.279396
G02 X24.891928 Y16.685789 Z-1.000000 I0.000000 J0.225955
G02 X24.733505 Y16.912719 Z-1.000000 I0.434451 J0.472059
G02 X24.653452 Y17.206986 Z-1.000000 I1.117253 J0.461965
G02 X24.614994 Y17.758838 Z-1.000000 I3.939861 J0.551827
G01 X24.614994 Y17.849779 Z-1.000000
G02 X24.615660 Y17.893850 Z-1.000000 I1.452297 J0.000116
G02 X24.617750 Y17.940743 Z-1.000000 I1.642587 J-0.049737
(Subpath end)
G00 Z10.000000

(End cutting path id: path10267 at depth: -1.0)

(Start cutting path id: path10265 at depth: -1.0)
(path id: path10265 at depth step: -1.0)
(path len: 14.54241)
G00 Z10.000000
G00 X21.326995 Y17.640315
(Subpath start)
G01 Z-1.000000 F100.0(Penetrate)
G01 X21.314996 Y17.638415 Z-1.000000 F400.000000
G03 X21.255337 Y17.579680 Z-1.000000 I0.357993 J-0.423288
G02 X20.847742 Y17.178571 Z-1.000000 I-3.609488 J3.260213
G02 X20.519465 Y16.936146 Z-1.000000 I-1.630535 J1.864496
G02 X20.155816 Y16.767754 Z-1.000000 I-0.880423 J1.424450
G02 X19.852495 Y16.719781 Z-1.000000 I-0.303321 J0.934922
G02 X19.627673 Y16.775416 Z-1.000000 I0.000000 J0.482071
G02 X19.447351 Y16.933376 Z-1.000000 I0.240864 J0.456866
G02 X19.339069 Y17.160786 Z-1.000000 I0.597298 J0.423891
G02 X19.295767 Y17.477706 Z-1.000000 I1.138083 J0.316918
G02 X19.441894 Y18.174126 Z-1.000000 I1.732579 J0.000001
G02 X19.984786 Y19.047289 Z-1.000000 I3.312034 J-1.453913
G02 X20.753014 Y19.697201 Z-1.000000 I2.279606 J-1.915609
G02 X21.376605 Y19.867229 Z-1.000000 I0.623597 J-1.058538
G02 X21.575534 Y19.790892 Z-1.000000 I-0.000004 J-0.297375
G02 X21.707334 Y19.569574 Z-1.000000 I-0.290742 J-0.323048
G03 X21.749121 Y19.500320 Z-1.000000 I0.146589 J0.041216
G03 X21.814821 Y19.467602 Z-1.000000 I0.086293 J0.090960
G02 X22.005745 Y19.355244 Z-1.000000 I-0.086394 J-0.365197
G02 X22.071136 Y19.186470 Z-1.000000 I-0.185120 J-0.168779
G02 X22.056375 Y19.031207 Z-1.000000 I-0.824222 J0.000024
G02 X21.941600 Y18.511246 Z-1.000000 I-9.435189 J1.810054
G03 X21.858701 Y18.148418 Z-1.000000 I8.147640 J-2.052460
G03 X21.663237 Y17.155259 Z-1.000000 I60.846860 J-12.491134
G03 X21.501434 Y16.157542 Z-1.000000 I19.544695 J-3.681604
G03 X21.462043 Y15.678001 Z-1.000000 I4.465978 J-0.608235
G02 X21.449406 Y15.358372 Z-1.000000 I-31.739336 J1.094797
G02 X21.442752 Y15.245293 Z-1.000000 I-3.976868 J0.177295
G02 X21.413475 Y15.143673 Z-1.000000 I-0.256065 J0.018744
G02 X21.347667 Y15.066135 Z-1.000000 I-0.209741 J0.111316
G02 X21.254817 Y15.017877 Z-1.000000 I-0.185643 J0.243731
G02 X21.139583 Y15.000007 Z-1.000000 I-0.115234 J0.362603
G02 X21.035993 Y15.024128 Z-1.000000 I0.000000 J0.234504
G02 X20.957682 Y15.089563 Z-1.000000 I0.095400 J0.193749
G02 X20.910122 Y15.185266 Z-1.000000 I0.247100 J0.182467
G02 X20.891537 Y15.314191 Z-1.000000 I0.437813 J0.128916
G02 X20.897892 Y15.399093 Z-1.000000 I0.570019 J0.000019
G02 X20.979731 Y15.899859 Z-1.000000 I20.026263 J-3.015775
G02 X21.073689 Y16.398912 Z-1.000000 I21.591085 J-3.806618
G02 X21.169900 Y16.849337 Z-1.000000 I17.691005 J-3.543340
G03 X21.283261 Y17.393239 Z-1.000000 I-28.800381 J6.286380
G03 X21.326997 Y17.640315 Z-1.000000 I-5.900136 J1.171810
(Subpath end)
G00 Z10.000000

(End cutting path id: path10265 at depth: -1.0)

(Start cutting path id: path10265 at depth: -1.0)
(path id: path10265 at depth step: -1.0)
(path len: 6.09071)
G00 Z10.000000
G00 X21.539213 Y18.960480
(Subpath start)
G01 Z-1.000000 F100.0(Penetrate)
G03 X21.430632 Y19.281839 Z-1.000000 I-0.529855 J-0.000005 F400.000000
G03 X21.211240 Y19.390418 Z-1.000000 I-0.219392 J-0.167361
G03 X20.862189 Y19.279289 Z-1.000000 I0.000000 J-0.603743
G03 X20.279686 Y18.730358 Z-1.000000 I1.666579 J-2.352034
G03 X19.857797 Y18.032590 Z-1.000000 I2.417884 J-1.938343
G03 X19.750520 Y17.519045 Z-1.000000 I1.175541 J-0.513543
G03 X19.828686 Y17.258219 Z-1.000000 I0.474242 J-0.000001
G03 X19.973762 Y17.180048 Z-1.000000 I0.145076 J0.095535
G03 X20.343700 Y17.286070 Z-1.000000 I0.000000 J0.698412
G03 X20.964571 Y17.798792 Z-1.000000 I-1.619607 J2.593514
G03 X21.422945 Y18.463205 Z-1.000000 I-2.053049 J1.906703
G03 X21.539213 Y18.960480 Z-1.000000 I-1.005312 J0.497283
(Subpath end)
G00 Z10.000000

(End cutting path id: path10265 at depth: -1.0)

(Start cutting path id: path10263 at depth: -1.0)
(path id: path10263 at depth step: -1.0)
(path len: 2.44437)
G00 Z10.000000
G00 X18.686674 Y20.432226
(Subpath start)
G01 Z-1.000000 F100.0(Penetrate)
G02 X18.645481 Y20.453478 Z-1.000000 I-0.000003 J0.050544 F400.000000
G02 X18.598480 Y20.556249 Z-1.000000 I0.244818 J0.174097
G03 X18.586268 Y20.594415 Z-1.000000 I-0.615353 J-0.175855
G03 X18.568163 Y20.641688 Z-1.000000 I-0.962672 J-0.341598
G02 X18.508977 Y20.823865 Z-1.000000 I1.112514 J0.462141
G02 X18.493749 Y20.953125 Z-1.000000 I0.540955 J0.129255
G02 X18.520273 Y21.051313 Z-1.000000 I0.194990 J0.000002
G02 X18.624663 Y21.177745 Z-1.000000 I0.437778 J-0.255145
G02 X18.766194 Y21.263822 Z-1.000000 I0.319037 J-0.365174
G02 X18.915429 Y21.292122 Z-1.000000 I0.149253 J-0.379428
G02 X18.991677 Y21.279294 Z-1.000000 I-0.000021 J-0.233127
G02 X19.094574 Y21.230109 Z-1.000000 I-0.166032 J-0.479577
G02 X19.176417 Y21.158464 Z-1.000000 I-0.180503 J-0.288764
G02 X19.193792 Y21.110220 Z-1.000000 I-0.058298 J-0.048248
G02 X19.184117 Y21.020729 Z-1.000000 I-0.418826 J0.000011
G02 X19.126269 Y20.801540 Z-1.000000 I-2.595166 J0.567695
G02 X19.029150 Y20.608648 Z-1.000000 I-0.625247 J0.193907
G02 X18.911295 Y20.508018 Z-1.000000 I-0.271953 J0.199178
G02 X18.760894 Y20.444408 Z-1.000000 I-0.500186 J0.973036
G02 X18.686674 Y20.432226 Z-1.000000 I-0.074209 J0.219931
(Subpath end)
G00 Z10.000000

(End cutting path id: path10263 at depth: -1.0)

(Start cutting path id: path10263 at depth: -1.0)
(path id: path10263 at depth step: -1.0)
(path len: 6.63380)
G00 Z10.000000
G00 X18.325629 Y17.353689
(Subpath start)
G01 Z-1.000000 F100.0(Penetrate)
G03 X18.338357 Y17.145609 Z-1.000000 I1.707008 J-0.000011 F400.000000
G03 X18.383506 Y16.882390 Z-1.000000 I2.780804 J0.341501
G02 X18.392351 Y16.832551 Z-1.000000 I-0.573261 J-0.127436
G02 X18.394530 Y16.799712 Z-1.000000 I-0.246342 J-0.032839
G02 X18.380726 Y16.756422 Z-1.000000 I-0.074791 J0.000002
G02 X18.303579 Y16.671564 Z-1.000000 I-0.388879 J0.276046
G02 X18.205703 Y16.611623 Z-1.000000 I-0.231278 J0.267766
G02 X18.110654 Y16.593018 Z-1.000000 I-0.095049 J0.233493
G02 X17.942926 Y16.692630 Z-1.000000 I-0.000000 J0.191016
G02 X17.843315 Y17.083591 Z-1.000000 I0.717416 J0.390959
G02 X17.876084 Y17.587612 Z-1.000000 I3.892490 J0.000005
G02 X18.052777 Y18.687635 Z-1.000000 I18.779794 J-2.452332
G03 X18.117815 Y19.071348 Z-1.000000 I-11.239222 J2.102403
G03 X18.124434 Y19.158911 Z-1.000000 I-0.575973 J0.087570
G02 X18.142339 Y19.328182 Z-1.000000 I0.809053 J0.000005
G02 X18.187824 Y19.455208 Z-1.000000 I0.497173 J-0.106370
G02 X18.269560 Y19.547689 Z-1.000000 I0.224532 J-0.116084
G02 X18.366969 Y19.577841 Z-1.000000 I0.097414 J-0.142282
G02 X18.500363 Y19.557991 Z-1.000000 I-0.000011 J-0.458195
G02 X18.588833 Y19.510326 Z-1.000000 I-0.074097 J-0.243467
G02 X18.651422 Y19.434006 Z-1.000000 I-0.166315 J-0.200215
G02 X18.670138 Y19.360112 Z-1.000000 I-0.136530 J-0.073898
G02 X18.662956 Y19.278436 Z-1.000000 I-0.468163 J0.000010
G02 X18.631553 Y19.142385 Z-1.000000 I-1.336211 J0.236777
G03 X18.437990 Y18.411880 Z-1.000000 I20.447680 J-5.808926
G03 X18.375237 Y18.100581 Z-1.000000 I3.644107 J-0.896569
G03 X18.339944 Y17.785257 Z-1.000000 I3.472641 J-0.548322
G03 X18.325628 Y17.353689 Z-1.000000 I6.497230 J-0.431546
(Subpath end)
G00 Z10.000000

(End cutting path id: path10263 at depth: -1.0)

(Start cutting path id: path10261 at depth: -1.0)
(path id: path10261 at depth step: -1.0)
(path len: 12.77540)
G00 Z10.000000
G00 X15.478602 Y17.835999
(Subpath start)
G01 Z-1.000000 F100.0(Penetrate)
G03 X15.504649 Y17.886366 Z-1.000000 I-0.832486 J0.462446 F400.000000
G03 X15.544747 Y17.973795 Z-1.000000 I-2.478883 J1.189815
G02 X15.744898 Y18.396932 Z-1.000000 I6.969483 J-3.037778
G02 X15.889257 Y18.647657 Z-1.000000 I2.587905 J-1.323102
G02 X16.053950 Y18.885953 Z-1.000000 I3.740127 J-2.408859
G02 X16.235144 Y19.114826 Z-1.000000 I3.628388 J-2.686360
G02 X16.433105 Y19.328290 Z-1.000000 I2.429609 J-2.054629
G02 X16.579654 Y19.453823 Z-1.000000 I0.981636 J-0.997667
G02 X16.740911 Y19.559222 Z-1.000000 I0.953729 J-1.283118
G02 X16.862152 Y19.615049 Z-1.000000 I0.380289 J-0.666318
G02 X16.990792 Y19.649801 Z-1.000000 I0.279590 J-0.779486
G02 X17.107443 Y19.660524 Z-1.000000 I0.116669 J-0.629326
G02 X17.331175 Y19.620486 Z-1.000000 I-0.000009 J-0.645183
G02 X17.498806 Y19.515819 Z-1.000000 I-0.169132 J-0.457445
G02 X17.612533 Y19.354936 Z-1.000000 I-0.354035 J-0.370904
G02 X17.650390 Y19.178207 Z-1.000000 I-0.393637 J-0.176739
G02 X17.636734 Y19.097471 Z-1.000000 I-0.245572 J0.000013
G02 X17.596646 Y19.023862 Z-1.000000 I-0.242955 J0.084593
G02 X17.533029 Y18.975198 Z-1.000000 I-0.125098 J0.097623
G02 X17.432660 Y18.954964 Z-1.000000 I-0.100369 J0.238819
G02 X17.327240 Y18.978977 Z-1.000000 I0.000000 J0.243402
G02 X17.220442 Y19.056937 Z-1.000000 I0.157669 J0.328125
G03 X17.111583 Y19.136089 Z-1.000000 I-0.284447 J-0.276773
G03 X17.013736 Y19.158911 Z-1.000000 I-0.097847 J-0.198340
G03 X16.773045 Y19.068476 Z-1.000000 I-0.000000 J-0.365515
G03 X16.219986 Y18.464391 Z-1.000000 I2.442179 J-2.791105
G03 X15.812023 Y17.730127 Z-1.000000 I2.752934 J-2.010017
G03 X15.602625 Y16.934761 Z-1.000000 I3.030306 J-1.223046
G02 X15.552786 Y16.731523 Z-1.000000 I-0.920752 J0.118061
G02 X15.497894 Y16.650883 Z-1.000000 I-0.189247 J0.069817
G02 X15.412907 Y16.602493 Z-1.000000 I-0.155431 J0.174155
G02 X15.280164 Y16.581985 Z-1.000000 I-0.132743 J0.419357
G02 X15.177376 Y16.625401 Z-1.000000 I0.000000 J0.143384
G02 X15.084483 Y16.783186 Z-1.000000 I0.276781 J0.269188
G02 X15.044988 Y16.987499 Z-1.000000 I0.980731 J0.295555
G02 X15.023849 Y17.461180 Z-1.000000 I5.296437 J0.473673
G02 X15.025413 Y17.590700 Z-1.000000 I5.362030 J0.000029
G02 X15.037629 Y18.031683 Z-1.000000 I62.253376 J-1.503835
G02 X15.066313 Y18.551457 Z-1.000000 I11.120769 J-0.353026
G02 X15.103775 Y18.872286 Z-1.000000 I4.270084 J-0.335999
G03 X15.110867 Y18.924798 Z-1.000000 I-1.170378 J0.184805
G03 X15.131335 Y19.117572 Z-1.000000 I-15.786503 J1.773674
G02 X15.158095 Y19.328182 Z-1.000000 I2.960146 J-0.269100
G02 X15.179567 Y19.412484 Z-1.000000 I0.492330 J-0.080513
G02 X15.219909 Y19.487075 Z-1.000000 I0.252581 J-0.088403
G02 X15.298078 Y19.566818 Z-1.000000 I0.368303 J-0.282849
G02 X15.393820 Y19.620879 Z-1.000000 I0.214637 J-0.268313
G02 X15.492381 Y19.638476 Z-1.000000 I0.098570 J-0.267267
G02 X15.585210 Y19.619630 Z-1.000000 I-0.000008 J-0.238074
G02 X15.645344 Y19.573708 Z-1.000000 I-0.059255 J-0.139926
G02 X15.683895 Y19.504633 Z-1.000000 I-0.197572 J-0.155562
G02 X15.696331 Y19.434527 Z-1.000000 I-0.191414 J-0.070111
G02 X15.686756 Y19.328347 Z-1.000000 I-0.593613 J0.000010
G02 X15.641209 Y19.131352 Z-1.000000 I-2.101037 J0.382008
G03 X15.582317 Y18.912679 Z-1.000000 I5.366885 J-1.562655
G03 X15.566795 Y18.830947 Z-1.000000 I0.732646 J-0.181479
G02 X15.555470 Y18.737706 Z-1.000000 I-1.425406 J0.125828
G02 X15.536478 Y18.635263 Z-1.000000 I-1.739063 J0.269416
G03 X15.517358 Y18.515541 Z-1.000000 I0.842975 J-0.196018
G03 X15.481357 Y18.012387 Z-1.000000 I14.917574 J-1.320224
G01 X15.478601 Y17.910413 Z-1.000000
G01 X15.478602 Y17.835999 Z-1.000000
(Subpath end)
G00 Z10.000000

(End cutting path id: path10261 at depth: -1.0)

(Start cutting path id: path10259 at depth: -1.0)
(path id: path10259 at depth step: -1.0)
(path len: 15.66257)
G00 Z10.000000
G00 X12.140993 Y18.310045
(Subpath start)
G01 Z-1.000000 F100.0(Penetrate)
G02 X12.544263 Y18.910057 Z-1.000000 I3.548221 J-1.949245 F400.000000
G02 X12.984353 Y19.350464 Z-1.000000 I2.332309 J-1.890539
G02 X13.502829 Y19.670087 Z-1.000000 I1.486841 J-1.831542
G02 X13.869053 Y19.748720 Z-1.000000 I0.366240 J-0.813581
G02 X14.062244 Y19.699508 Z-1.000000 I-0.000013 J-0.403859
G02 X14.238368 Y19.547526 Z-1.000000 I-0.263077 J-0.482908
G02 X14.348358 Y19.332426 Z-1.000000 I-0.560468 J-0.422264
G02 X14.389952 Y19.056937 Z-1.000000 I-0.891630 J-0.275503
G02 X14.235260 Y18.257195 Z-1.000000 I-2.144703 J0.000011
G02 X13.743652 Y17.448785 Z-1.000000 I-2.684737 J1.078953
G02 X13.021528 Y16.863021 Z-1.000000 I-1.982586 J1.706113
G02 X12.378016 Y16.697738 Z-1.000000 I-0.643513 J1.170088
G02 X12.190336 Y16.724847 Z-1.000000 I0.000000 J0.663224
G02 X12.018348 Y16.803843 Z-1.000000 I0.187034 J0.633925
G02 X11.887683 Y16.930770 Z-1.000000 I0.253470 J0.391656
G02 X11.835069 Y17.069811 Z-1.000000 I0.255752 J0.176253
G03 X11.807036 Y17.191438 Z-1.000000 I-0.440541 J-0.037492
G03 X11.760655 Y17.262749 Z-1.000000 I-0.191703 J-0.073947
G02 X11.669616 Y17.392631 Z-1.000000 I0.323611 J0.323677
G02 X11.642144 Y17.516298 Z-1.000000 I0.264601 J0.123666
G02 X11.658111 Y17.765777 Z-1.000000 I1.956844 J0.000003
G02 X11.779948 Y18.588407 Z-1.000000 I21.481254 J-2.761155
G01 X12.063823 Y20.236544 Z-1.000000
G02 X12.222601 Y21.062829 Z-1.000000 I26.643263 J-4.691315
G02 X12.277419 Y21.261805 Z-1.000000 I1.593519 J-0.331983
G02 X12.361152 Y21.446049 Z-1.000000 I1.016011 J-0.350595
G02 X12.427625 Y21.523631 Z-1.000000 I0.237601 J-0.136309
G02 X12.516677 Y21.571608 Z-1.000000 I0.175953 J-0.219960
G02 X12.631575 Y21.589778 Z-1.000000 I0.114920 J-0.354324
G02 X12.753930 Y21.519205 Z-1.000000 I-0.000005 J-0.141360
G02 X12.824500 Y21.256293 Z-1.000000 I-0.454469 J-0.262916
G02 X12.787905 Y20.945922 Z-1.000000 I-1.334551 J0.000010
G02 X12.612283 Y20.368837 Z-1.000000 I-4.835594 J1.156339
G03 X12.445294 Y19.810323 Z-1.000000 I4.174700 J-1.552401
G03 X12.140993 Y18.310045 Z-1.000000 I29.937555 J-6.853219
(Subpath end)
G00 Z10.000000

(End cutting path id: path10259 at depth: -1.0)

(Start cutting path id: path10259 at depth: -1.0)
(path id: path10259 at depth step: -1.0)
(path len: 6.05057)
G00 Z10.000000
G00 X12.074848 Y17.392282
(Subpath start)
G01 Z-1.000000 F100.0(Penetrate)
G03 X12.252681 Y17.182594 Z-1.000000 I0.577626 J0.309624 F400.000000
G03 X12.422113 Y17.124929 Z-1.000000 I0.169432 J0.220084
G03 X12.717791 Y17.180832 Z-1.000000 I-0.000000 J0.809891
G03 X13.086328 Y17.385380 Z-1.000000 I-0.580331 J1.479861
G03 X13.396457 Y17.680327 Z-1.000000 I-1.062127 J1.427322
G03 X13.691286 Y18.118493 Z-1.000000 I-2.089495 J1.724235
G03 X13.897443 Y18.603471 Z-1.000000 I-2.506058 J1.351593
G03 X13.946223 Y18.916395 Z-1.000000 I-0.979386 J0.312936
G03 X13.931495 Y19.058972 Z-1.000000 I-0.697649 J-0.000019
G03 X13.893858 Y19.167198 Z-1.000000 I-0.436498 J-0.091142
G03 X13.827346 Y19.249033 Z-1.000000 I-0.217321 J-0.108679
G03 X13.761566 Y19.271918 Z-1.000000 I-0.065780 J-0.083099
G03 X13.424727 Y19.169496 Z-1.000000 I-0.000000 J-0.605099
G03 X12.825878 Y18.644911 Z-1.000000 I1.722240 J-2.570156
G03 X12.339948 Y17.980184 Z-1.000000 I3.393436 J-2.990653
G03 X12.074848 Y17.392282 Z-1.000000 I2.379773 J-1.426824
(Subpath end)
G00 Z10.000000

(End cutting path id: path10259 at depth: -1.0)

(Start cutting path id: path10257 at depth: -1.0)
(path id: path10257 at depth step: -1.0)
(path len: 11.26126)
G00 Z10.000000
G00 X10.175911 Y17.745058
(Subpath start)
G01 Z-1.000000 F100.0(Penetrate)
G02 X9.759404 Y17.258786 Z-1.000000 I-3.768668 J2.806468 F400.000000
G02 X9.412478 Y16.967837 Z-1.000000 I-1.676702 J1.646981
G02 X9.018190 Y16.762650 Z-1.000000 I-1.037436 J1.512114
G02 X8.720703 Y16.708771 Z-1.000000 I-0.297487 J0.794335
G02 X8.528824 Y16.753151 Z-1.000000 I0.000000 J0.436993
G02 X8.354145 Y16.887906 Z-1.000000 I0.240830 J0.492775
G02 X8.243063 Y17.083117 Z-1.000000 I0.441832 J0.380627
G02 X8.199804 Y17.348173 Z-1.000000 I0.790396 J0.265054
G02 X8.334976 Y18.026805 Z-1.000000 I1.771132 J0.000001
G02 X8.847483 Y18.909493 Z-1.000000 I3.559298 J-1.476472
G02 X9.576307 Y19.580491 Z-1.000000 I2.344913 J-1.815681
G02 X10.134570 Y19.745964 Z-1.000000 I0.558274 J-0.859018
G02 X10.323666 Y19.681727 Z-1.000000 I-0.000009 J-0.310468
G02 X10.479080 Y19.481382 Z-1.000000 I-0.304836 J-0.396923
G03 X10.529419 Y19.414744 Z-1.000000 I0.149836 J0.060856
G03 X10.592079 Y19.393188 Z-1.000000 I0.062659 J0.080291
G02 X10.756364 Y19.336976 Z-1.000000 I0.000000 J-0.268177
G02 X10.812565 Y19.222316 Z-1.000000 I-0.088871 J-0.114664
G02 X10.807580 Y19.137322 Z-1.000000 I-0.727675 J0.000036
G02 X10.785004 Y18.988039 Z-1.000000 I-2.274307 J0.267588
G03 X10.657603 Y18.173059 Z-1.000000 I15.616424 J-2.858678
G03 X10.636176 Y17.841515 Z-1.000000 I2.553827 J-0.331511
G03 X10.730576 Y17.231766 Z-1.000000 I2.016377 J-0.000013
G03 X10.889735 Y17.042252 Z-1.000000 I0.309214 J0.098096
G02 X10.984254 Y16.960245 Z-1.000000 I-0.140161 J-0.257022
G02 X11.011002 Y16.879643 Z-1.000000 I-0.108089 J-0.080609
G02 X10.988066 Y16.805846 Z-1.000000 I-0.130211 J0.000007
G02 X10.892491 Y16.707386 Z-1.000000 I-0.338216 J0.232690
G02 X10.767740 Y16.639650 Z-1.000000 I-0.312304 J0.426429
G02 X10.663737 Y16.620577 Z-1.000000 I-0.104003 J0.274028
G02 X10.491174 Y16.683127 Z-1.000000 I0.000000 J0.269308
G02 X10.313715 Y16.912719 Z-1.000000 I0.431241 J0.516697
G02 X10.219521 Y17.214642 Z-1.000000 I1.037192 J0.489238
G02 X10.175911 Y17.745058 Z-1.000000 I3.203614 J0.530397
(Subpath end)
G00 Z10.000000

(End cutting path id: path10257 at depth: -1.0)

(Start cutting path id: path10257 at depth: -1.0)
(path id: path10257 at depth step: -1.0)
(path len: 5.64557)
G00 Z10.000000
G00 X10.007791 Y19.296731
(Subpath start)
G01 Z-1.000000 F100.0(Penetrate)
G03 X9.700179 Y19.188176 Z-1.000000 I-0.000000 J-0.490118 F400.000000
G03 X9.161675 Y18.614605 Z-1.000000 I1.789353 J-2.219532
G03 X8.765528 Y17.905067 Z-1.000000 I3.129035 J-2.212352
G03 X8.679362 Y17.483222 Z-1.000000 I0.989524 J-0.421842
G03 X8.752610 Y17.239522 Z-1.000000 I0.442020 J-0.000001
G03 X8.888823 Y17.166268 Z-1.000000 I0.136213 J0.090015
G03 X9.153069 Y17.252254 Z-1.000000 I-0.000000 J0.449022
G03 X9.729427 Y17.778134 Z-1.000000 I-2.082905 J2.861619
G03 X10.159793 Y18.430315 Z-1.000000 I-2.142338 J1.881791
G03 X10.266862 Y18.902615 Z-1.000000 I-0.988205 J0.472307
G03 X10.176092 Y19.205954 Z-1.000000 I-0.552254 J-0.000004
G03 X10.007791 Y19.296731 Z-1.000000 I-0.168301 J-0.110628
(Subpath end)
G00 Z10.000000

(End cutting path id: path10257 at depth: -1.0)

(Start cutting path id: path10255 at depth: -1.0)
(path id: path10255 at depth step: -1.0)
(path len: 17.12173)
G00 Z10.000000
G00 X6.008724 Y20.101497
(Subpath start)
G01 Z-1.000000 F100.0(Penetrate)
G03 X5.969578 Y20.002943 Z-1.000000 I0.352986 J-0.197259 F400.000000
G03 X5.857140 Y19.499293 Z-1.000000 I9.286938 J-2.337658
G03 X5.777776 Y18.988864 Z-1.000000 I6.593742 J-1.286608
G03 X5.757921 Y18.646296 Z-1.000000 I2.945059 J-0.342553
G02 X5.948409 Y18.674204 Z-1.000000 I1.216635 J-7.640255
G02 X6.149284 Y18.698644 Z-1.000000 I1.122768 J-8.390190
G01 X6.728060 Y18.764796 Z-1.000000
G03 X6.864774 Y18.789487 Z-1.000000 I-0.247606 J1.761808
G03 X7.113910 Y18.850243 Z-1.000000 I-1.290409 J5.832616
G02 X7.365826 Y18.907764 Z-1.000000 I0.988867 J-3.750408
G02 X7.455664 Y18.916395 Z-1.000000 I0.090022 J-0.465154
G02 X7.695612 Y18.831103 Z-1.000000 I-0.000041 J-0.380279
G02 X7.780881 Y18.651812 Z-1.000000 I-0.145867 J-0.179295
G02 X7.766474 Y18.606006 Z-1.000000 I-0.080046 J0.000008
G02 X7.688552 Y18.519509 Z-1.000000 I-0.386148 J0.269520
G02 X7.588509 Y18.455011 Z-1.000000 I-0.277411 J0.320453
G02 X7.443261 Y18.406503 Z-1.000000 I-0.293368 J0.636716
G02 X7.289257 Y18.379816 Z-1.000000 I-0.398211 J1.840310
G02 X6.706011 Y18.310045 Z-1.000000 I-3.461595 J26.464392
G03 X5.991832 Y18.216198 Z-1.000000 I2.614799 J-22.662943
G03 X5.855762 Y18.184644 Z-1.000000 I0.125309 J-0.849542
G03 X5.730543 Y18.131427 Z-1.000000 I0.223957 J-0.700896
G03 X5.697287 Y18.099196 Z-1.000000 I0.040424 J-0.074981
G03 X5.681759 Y18.053599 Z-1.000000 I0.105909 J-0.061511
G03 X5.644922 Y17.699588 Z-1.000000 I6.629601 J-0.868773
G03 X5.622655 Y17.342448 Z-1.000000 I12.059059 J-0.931106
G03 X5.617361 Y17.119413 Z-1.000000 I4.694006 J-0.223005
G01 X5.628385 Y16.777669 Z-1.000000
G02 X5.559500 Y16.565434 Z-1.000000 I-0.361398 J0.000002
G02 X5.424435 Y16.496561 Z-1.000000 I-0.135065 J0.097998
G02 X5.306585 Y16.519868 Z-1.000000 I-0.000000 J0.309596
G02 X5.190169 Y16.593018 Z-1.000000 I0.154233 J0.374672
G02 X5.112431 Y16.702745 Z-1.000000 I0.202942 J0.226177
G02 X5.082682 Y16.852084 Z-1.000000 I0.359948 J0.149337
G02 X5.119659 Y17.488683 Z-1.000000 I5.498243 J0.000006
G02 X5.396874 Y19.547526 Z-1.000000 I57.965848 J-6.756802
G03 X5.468728 Y20.027277 Z-1.000000 I-45.437626 J7.050622
G03 X5.471288 Y20.062912 Z-1.000000 I-0.246870 J0.035644
G03 X5.466009 Y20.114478 Z-1.000000 I-0.254546 J-0.000007
G03 X5.438215 Y20.222764 Z-1.000000 I-1.159627 J-0.239929
G02 X5.400086 Y20.358755 Z-1.000000 I1.588448 J0.518715
G02 X5.394118 Y20.410179 Z-1.000000 I0.218533 J0.051420
G02 X5.410502 Y20.478032 Z-1.000000 I0.148691 J0.000002
G02 X5.476800 Y20.571407 Z-1.000000 I0.356116 J-0.182626
G02 X5.566888 Y20.640938 Z-1.000000 I0.271327 J-0.258418
G02 X5.633897 Y20.658226 Z-1.000000 I0.067022 J-0.121274
G01 X5.997699 Y20.616884 Z-1.000000
G03 X6.165375 Y20.624255 Z-1.000000 I0.000080 J1.909007
G03 X6.623328 Y20.672005 Z-1.000000 I-1.264314 J14.345579
G02 X7.401298 Y20.753053 Z-1.000000 I2.894170 J-24.006435
G02 X7.689930 Y20.765711 Z-1.000000 I0.288712 J-3.286247
G02 X7.935370 Y20.739962 Z-1.000000 I-0.000033 J-1.182973
G02 X8.053732 Y20.688541 Z-1.000000 I-0.067123 J-0.316436
G02 X8.143279 Y20.600592 Z-1.000000 I-0.218315 J-0.311847
G02 X8.163975 Y20.536958 Z-1.000000 I-0.087509 J-0.063643
G02 X8.140613 Y20.413929 Z-1.000000 I-0.335705 J0.000014
G02 X8.074402 Y20.309580 Z-1.000000 I-0.304185 J0.119830
G02 X7.975447 Y20.236210 Z-1.000000 I-0.254291 J0.239551
G02 X7.882855 Y20.214497 Z-1.000000 I-0.092577 J0.186495
G02 X7.836247 Y20.217003 Z-1.000000 I-0.000065 J0.433324
G02 X7.780880 Y20.225530 Z-1.000000 I0.066614 J0.616599
G03 X7.479770 Y20.266682 Z-1.000000 I-0.890222 J-5.391557
G03 X7.323372 Y20.275139 Z-1.000000 I-0.156431 J-1.442587
G03 X7.029056 Y20.264810 Z-1.000000 I0.000050 J-4.200067
G03 X6.558560 Y20.221396 Z-1.000000 I0.757142 J-10.776497
G03 X6.098255 Y20.145087 Z-1.000000 I0.526213 J-4.600671
G03 X6.008723 Y20.101506 Z-1.000000 I0.044931 J-0.206062
(Subpath end)
G00 Z10.000000

(End cutting path id: path10255 at depth: -1.0)

(Start cutting path id: path10253 at depth: -1.0)
(path id: path10253 at depth step: -1.0)
(path len: 13.02810)
G00 Z10.000000
G00 X12.835525 Y24.428538
(Subpath start)
G01 Z-1.000000 F100.0(Penetrate)
G03 X12.773643 Y24.570071 Z-1.000000 I-0.192802 J-0.000003 F400.000000
G03 X12.394553 Y24.836435 Z-1.000000 I-1.177795 J-1.273301
G02 X11.847775 Y25.141806 Z-1.000000 I3.979101 J7.766916
G02 X11.638010 Y25.295324 Z-1.000000 I0.779704 J1.285451
G02 X11.487110 Y25.488534 Z-1.000000 I0.428435 J0.490145
G02 X11.440950 Y25.679796 Z-1.000000 I0.373159 J0.191261
G02 X11.573853 Y26.156527 Z-1.000000 I0.921481 J0.000001
G02 X11.990787 Y26.589301 Z-1.000000 I1.162655 J-0.702876
G02 X12.559630 Y26.886767 Z-1.000000 I1.778789 J-2.708940
G02 X12.887890 Y26.950348 Z-1.000000 I0.328278 J-0.815686
G02 X13.102570 Y26.925119 Z-1.000000 I-0.000029 J-0.926235
G02 X13.211729 Y26.873178 Z-1.000000 I-0.067154 J-0.281805
G02 X13.280578 Y26.780346 Z-1.000000 I-0.128064 J-0.166927
G02 X13.312326 Y26.605837 Z-1.000000 I-0.463791 J-0.174518
G02 X13.294167 Y26.528920 Z-1.000000 I-0.172006 J0.000006
G02 X13.239290 Y26.459766 Z-1.000000 I-0.191963 J0.095981
G02 X13.162845 Y26.408562 Z-1.000000 I-0.286592 J0.345202
G02 X13.124913 Y26.399131 Z-1.000000 I-0.037926 J0.071540
G02 X13.095695 Y26.404080 Z-1.000000 I-0.000010 J0.088672
G02 X13.006401 Y26.440472 Z-1.000000 I0.309402 J0.886893
G03 X12.917300 Y26.474730 Z-1.000000 I-0.422355 J-0.965496
G03 X12.890646 Y26.479057 Z-1.000000 I-0.026664 J-0.079992
G03 X12.758071 Y26.455943 Z-1.000000 I0.000010 J-0.391810
G03 X12.331163 Y26.277864 Z-1.000000 I1.566415 J-4.355912
G03 X11.989217 Y26.026366 Z-1.000000 I0.486552 J-1.019744
G03 X11.909483 Y25.823111 Z-1.000000 I0.219194 J-0.203254
G03 X11.943982 Y25.684814 Z-1.000000 I0.294443 J-0.000002
G03 X12.058311 Y25.543371 Z-1.000000 I0.423208 J0.225155
G03 X12.216514 Y25.432583 Z-1.000000 I0.697952 J0.828316
G03 X12.592990 Y25.236067 Z-1.000000 I2.609316 J4.539920
G02 X12.892495 Y25.069512 Z-1.000000 I-1.197911 J-2.506682
G02 X13.090462 Y24.917740 Z-1.000000 I-0.793316 J-1.239777
G02 X13.230238 Y24.727808 Z-1.000000 I-0.404857 J-0.444345
G02 X13.276497 Y24.519488 Z-1.000000 I-0.445975 J-0.208327
G02 X13.149431 Y24.183044 Z-1.000000 I-0.508960 J0.000004
G02 X12.694965 Y23.859408 Z-1.000000 I-0.919085 J0.809714
G02 X12.102595 Y23.676007 Z-1.000000 I-1.325976 J3.234447
G02 X11.584266 Y23.621006 Z-1.000000 I-0.518329 J2.414877
G02 X11.242766 Y23.725990 Z-1.000000 I0.000000 J0.607922
G02 X11.137782 Y23.924174 Z-1.000000 I0.134569 J0.198184
G02 X11.164047 Y24.012572 Z-1.000000 I0.161891 J0.000000
G02 X11.238379 Y24.078515 Z-1.000000 I0.157466 J-0.102634
G02 X11.341766 Y24.116156 Z-1.000000 I0.223678 J-0.453562
G02 X11.440950 Y24.128124 Z-1.000000 I0.099184 J-0.405016
G02 X11.481872 Y24.124563 Z-1.000000 I0.000000 J-0.236929
G02 X11.598046 Y24.100565 Z-1.000000 I-0.340198 J-1.940065
G03 X11.711436 Y24.076256 Z-1.000000 I0.488637 J2.002656
G03 X11.746875 Y24.073003 Z-1.000000 I0.035439 J0.191428
G03 X12.049461 Y24.096383 Z-1.000000 I0.000000 J1.969745
G03 X12.402821 Y24.174979 Z-1.000000 I-0.430478 J2.769014
G03 X12.723677 Y24.313202 Z-1.000000 I-0.397342 J1.363856
G03 X12.835525 Y24.428538 Z-1.000000 I-0.151879 J0.259188
(Subpath end)
G00 Z10.000000

(End cutting path id: path10253 at depth: -1.0)

(Start cutting path id: path10251 at depth: -1.0)
(path id: path10251 at depth step: -1.0)
(path len: 12.42547)
G00 Z10.000000
G00 X10.875955 Y24.731706
(Subpath start)
G01 Z-1.000000 F100.0(Penetrate)
G02 X10.796421 Y24.488875 Z-1.000000 I-0.410490 J0.000006 F400.000000
G02 X10.378483 Y24.053712 Z-1.000000 I-1.845275 J1.353955
G02 X9.848572 Y23.749506 Z-1.000000 I-1.256238 J1.574661
G02 X9.351844 Y23.656836 Z-1.000000 I-0.496727 J1.284936
G02 X8.941348 Y23.732626 Z-1.000000 I-0.000000 J1.149562
G02 X8.666959 Y23.918662 Z-1.000000 I0.258899 J0.677223
G02 X8.496703 Y24.208167 Z-1.000000 I0.585116 J0.538920
G02 X8.425803 Y24.649023 Z-1.000000 I1.335162 J0.440856
G02 X8.554136 Y25.394570 Z-1.000000 I2.229767 J0.000001
G02 X8.957726 Y26.148328 Z-1.000000 I2.684254 J-0.952318
G02 X9.567617 Y26.703693 Z-1.000000 I1.749607 J-1.308819
G02 X10.120790 Y26.859396 Z-1.000000 I0.553179 J-0.904811
G02 X10.311911 Y26.822588 Z-1.000000 I-0.000009 J-0.514638
G02 X10.458409 Y26.724348 Z-1.000000 I-0.156971 J-0.392432
G02 X10.555163 Y26.575459 Z-1.000000 I-0.331404 J-0.321241
G02 X10.589323 Y26.399131 Z-1.000000 I-0.438061 J-0.176337
G02 X10.496705 Y26.014927 Z-1.000000 I-0.843232 J0.000008
G02 X10.173155 Y25.586090 Z-1.000000 I-1.386850 J0.709879
G02 X9.732060 Y25.232232 Z-1.000000 I-2.573004 J2.755485
G02 X9.059700 Y24.822656 Z-1.000000 I-4.132094 J6.026569
G03 X8.949025 Y24.728410 Z-1.000000 I0.149151 J-0.287260
G03 X8.916384 Y24.629732 Z-1.000000 I0.132833 J-0.098677
G03 X8.953769 Y24.416015 Z-1.000000 I0.629545 J-0.000004
G03 X9.048676 Y24.263173 Z-1.000000 I0.407190 J0.146956
G03 X9.198558 Y24.166641 Z-1.000000 I0.277764 J0.266648
G03 X9.440039 Y24.125368 Z-1.000000 I0.241481 J0.685798
G03 X9.974070 Y24.260816 Z-1.000000 I-0.000000 J1.120485
G03 X10.649956 Y24.781314 Z-1.000000 I-1.280378 J2.361700
G02 X10.746086 Y24.859752 Z-1.000000 I0.434981 J-0.434971
G02 X10.787760 Y24.872265 Z-1.000000 I0.041674 J-0.063142
G02 X10.844544 Y24.840857 Z-1.000000 I0.000000 J-0.067036
G02 X10.875955 Y24.731706 Z-1.000000 I-0.173970 J-0.109158
(Subpath end)
G00 Z10.000000

(End cutting path id: path10251 at depth: -1.0)

(Start cutting path id: path10251 at depth: -1.0)
(path id: path10251 at depth step: -1.0)
(path len: 3.63859)
G00 Z10.000000
G00 X8.960482 Y25.161653
(Subpath start)
G01 Z-1.000000 F100.0(Penetrate)
G03 X9.984001 Y25.938712 Z-1.000000 I-2.908313 J4.893347 F400.000000
G03 X10.129058 Y26.277864 Z-1.000000 I-0.323957 J0.339155
G03 X10.083198 Y26.397369 Z-1.000000 I-0.178647 J-0.000003
G03 X9.980230 Y26.443228 Z-1.000000 I-0.102972 J-0.092675
G03 X9.757144 Y26.377044 Z-1.000000 I0.000006 J-0.409084
G03 X9.408344 Y26.071158 Z-1.000000 I0.886755 J-1.362975
G03 X9.144751 Y25.671136 Z-1.000000 I1.459057 J-1.248297
G03 X8.960482 Y25.161653 Z-1.000000 I2.203248 J-1.084933
(Subpath end)
G00 Z10.000000

(End cutting path id: path10251 at depth: -1.0)

(Start cutting path id: path10249 at depth: -1.0)
(path id: path10249 at depth step: -1.0)
(path len: 13.97222)
G00 Z10.000000
G00 X5.124023 Y24.574609
(Subpath start)
G01 Z-1.000000 F100.0(Penetrate)
G02 X5.127378 Y24.629506 Z-1.000000 I0.450717 J0.000006 F400.000000
G02 X5.206706 Y25.248469 Z-1.000000 I57.590477 J-7.066330
G03 X5.281919 Y25.868044 Z-1.000000 I-25.692907 J3.433327
G03 X5.363802 Y26.687141 Z-1.000000 I-44.828238 J4.895024
G02 X5.443465 Y27.506272 Z-1.000000 I63.629070 J-5.774695
G02 X5.458887 Y27.603536 Z-1.000000 I0.909871 J-0.094407
G02 X5.492505 Y27.692494 Z-1.000000 I0.310641 J-0.066564
G02 X5.547081 Y27.760633 Z-1.000000 I0.233470 J-0.131071
G02 X5.621944 Y27.802100 Z-1.000000 I0.127684 J-0.142205
G02 X5.757921 Y27.821268 Z-1.000000 I0.136001 J-0.472904
G02 X5.840736 Y27.802611 Z-1.000000 I-0.000015 J-0.193192
G02 X5.920530 Y27.744098 Z-1.000000 I-0.112533 J-0.237123
G02 X5.974992 Y27.660170 Z-1.000000 I-0.213335 J-0.198072
G02 X5.992187 Y27.575977 Z-1.000000 I-0.197539 J-0.084198
G02 X5.984643 Y27.458155 Z-1.000000 I-0.924073 J0.000016
G02 X5.942578 Y27.190125 Z-1.000000 I-4.840020 J0.622286
G03 X5.880904 Y26.821981 Z-1.000000 I6.767162 J-1.322919
G03 X5.734494 Y25.701843 Z-1.000000 I62.540385 J-8.744099
G03 X5.606009 Y24.579640 Z-1.000000 I79.730302 J-9.697066
G03 X5.598069 Y24.431294 Z-1.000000 I1.381409 J-0.148329
G03 X5.608200 Y24.338520 Z-1.000000 I0.429779 J-0.000008
G03 X5.627007 Y24.300381 Z-1.000000 I0.087135 J0.019262
G03 X5.661308 Y24.277450 Z-1.000000 I0.056622 J0.047579
G03 X5.735872 Y24.265929 Z-1.000000 I0.074565 J0.235533
G03 X5.864716 Y24.274309 Z-1.000000 I-0.000000 J0.994715
G03 X6.347721 Y24.345856 Z-1.000000 I-1.842362 J14.103766
G02 X6.646561 Y24.381408 Z-1.000000 I0.620663 J-3.943317
G02 X7.472200 Y24.436806 Z-1.000000 I2.432879 J-30.078973
G03 X7.619546 Y24.452209 Z-1.000000 I-0.041053 J1.105159
G03 X7.838759 Y24.500194 Z-1.000000 I-0.431507 J2.495972
G02 X7.880320 Y24.509504 Z-1.000000 I0.136539 J-0.512099
G02 X7.899392 Y24.511227 Z-1.000000 I0.019072 J-0.104703
G02 X7.995432 Y24.492022 Z-1.000000 I-0.000008 J-0.249772
G02 X8.064757 Y24.442325 Z-1.000000 I-0.072795 J-0.174746
G02 X8.109336 Y24.367366 Z-1.000000 I-0.177896 J-0.156533
G02 X8.125390 Y24.276960 Z-1.000000 I-0.246601 J-0.090421
G02 X8.092925 Y24.135947 Z-1.000000 I-0.322524 J0.000011
G02 X8.004123 Y24.027535 Z-1.000000 I-0.272060 J0.132273
G02 X7.874950 Y23.958628 Z-1.000000 I-0.277177 J0.364066
G02 X7.734028 Y23.935207 Z-1.000000 I-0.140922 J0.412257
G02 X7.676246 Y23.937293 Z-1.000000 I-0.000000 J0.801336
G02 X7.505273 Y23.951733 Z-1.000000 I0.511712 J7.078085
G03 X7.331547 Y23.963243 Z-1.000000 I-0.530503 J-6.690571
G03 X7.246202 Y23.965513 Z-1.000000 I-0.085345 J-1.603205
G03 X6.359420 Y23.894078 Z-1.000000 I0.000000 J-5.539961
G03 X5.512630 Y23.684395 Z-1.000000 I0.852649 J-5.258035
G02 X5.370414 Y23.647743 Z-1.000000 I-0.334321 J1.002977
G02 X5.259071 Y23.637542 Z-1.000000 I-0.111343 J0.602564
G02 X5.150705 Y23.665868 Z-1.000000 I-0.000000 J0.221447
G02 X5.067524 Y23.745027 Z-1.000000 I0.113884 J0.202954
G02 X5.015336 Y23.856933 Z-1.000000 I0.420908 J0.264417
G02 X5.000000 Y23.954489 Z-1.000000 I0.302618 J0.097554
G02 X5.005870 Y24.014382 Z-1.000000 I0.308472 J0.000003
G02 X5.052365 Y24.219074 Z-1.000000 I3.681613 J-0.728652
G03 X5.105631 Y24.459678 Z-1.000000 I-6.310477 J1.523219
G03 X5.124023 Y24.574606 Z-1.000000 I-1.419665 J0.286134
(Subpath end)
G00 Z10.000000

(End cutting path id: path10249 at depth: -1.0)

(Footer)
M5
G00 X0.0000 Y0.0000
M2
(Using default footer. To add your own footer create file "footer" in the output dir.)
(end)
