
(Header)
(Generated by gcodetools from Inkscape.)
(Using default header. To add your own header create file "header" in the output dir.)
M3
(Header end.)
G21 (All units in mm)

(Start cutting path id: path4556 at depth: -1.0)
(path id: path4556 at depth step: -1.0)
(path len: 19.46012)
(Change tool to Default tool)

U
D
G4 P150 (wait 150ms)
G00 Z5.000000
G00 X35.089612 Y9.419917
(Subpath start)
D
G01 Z-1.000000 F100.0(Penetrate)
G01 X35.678308 Y9.512514 Z-1.000000 F400.000000
G03 X35.780532 Y9.187945 Z-1.000000 I1.020729 J0.143102
G03 X35.954468 Y8.970139 Z-1.000000 I0.616260 J0.313779
G03 X36.201380 Y8.837900 Z-1.000000 I0.445620 J0.535414
G03 X36.587814 Y8.781615 Z-1.000000 I0.386434 J1.298408
G03 X36.978694 Y8.834273 Z-1.000000 I0.000000 J1.477076
G03 X37.196355 Y8.948634 Z-1.000000 I-0.151832 J0.553296
G03 X37.346466 Y9.138129 Z-1.000000 I-0.389376 J0.462652
G03 X37.394794 Y9.340556 Z-1.000000 I-0.399811 J0.202435
G03 X37.349137 Y9.517715 Z-1.000000 I-0.366563 J-0.000008
G03 X37.219506 Y9.658056 Z-1.000000 I-0.349945 J-0.193199
G03 X37.089719 Y9.720374 Z-1.000000 I-0.307907 J-0.474955
G03 X36.610965 Y9.859788 Z-1.000000 I-2.135041 J-6.440071
G02 X35.962777 Y10.043589 Z-1.000000 I2.847326 J11.276170
G02 X35.703112 Y10.145877 Z-1.000000 I0.599811 J1.903390
G02 X35.475776 Y10.295059 Z-1.000000 I0.432924 J0.907530
G02 X35.319468 Y10.479915 Z-1.000000 I0.523163 J0.600883
G02 X35.222627 Y10.702753 Z-1.000000 I0.744820 J0.456145
G02 X35.188830 Y10.951198 Z-1.000000 I0.896271 J0.248445
G02 X35.216568 Y11.179028 Z-1.000000 I0.949517 J0.000000
G02 X35.296317 Y11.386102 Z-1.000000 I0.861808 J-0.213008
G02 X35.423410 Y11.568919 Z-1.000000 I0.858394 J-0.461165
G02 X35.589012 Y11.718475 Z-1.000000 I0.734304 J-0.646624
G02 X35.735847 Y11.805084 Z-1.000000 I0.492535 J-0.667260
G02 X35.967695 Y11.892127 Z-1.000000 I0.729532 J-1.590891
G02 X36.210187 Y11.944518 Z-1.000000 I0.468042 J-1.578939
G02 X36.481980 Y11.963219 Z-1.000000 I0.271793 J-1.965789
G02 X36.889282 Y11.930041 Z-1.000000 I-0.000000 J-2.516729
G02 X37.207932 Y11.844149 Z-1.000000 I-0.265536 J-1.619127
G02 X37.495245 Y11.692016 Z-1.000000 I-0.471425 J-1.237691
G02 X37.669298 Y11.521710 Z-1.000000 I-0.425921 J-0.609384
G02 X37.786552 Y11.305040 Z-1.000000 I-0.735349 J-0.538006
G02 X37.874349 Y10.977642 Z-1.000000 I-1.613958 J-0.608282
G01 X37.292266 Y10.898281 Z-1.000000
G03 X37.210100 Y11.145107 Z-1.000000 I-0.734576 J-0.107446
G03 X37.062410 Y11.321615 Z-1.000000 I-0.510849 J-0.277401
G03 X36.856119 Y11.427767 Z-1.000000 I-0.365805 J-0.457363
G03 X36.524974 Y11.473732 Z-1.000000 I-0.331145 J-1.169835
G03 X36.130281 Y11.428627 Z-1.000000 I-0.000000 J-1.749437
G03 X35.939586 Y11.338153 Z-1.000000 I0.111384 J-0.480971
G03 X35.805914 Y11.182137 Z-1.000000 I0.310278 J-0.401114
G03 X35.764298 Y11.020653 Z-1.000000 I0.292499 J-0.161484
G03 X35.782840 Y10.911289 Z-1.000000 I0.331794 J-0.000000
G03 X35.837058 Y10.812288 Z-1.000000 I0.324122 J0.113159
G03 X35.921331 Y10.731411 Z-1.000000 I0.297534 J0.225685
G03 X36.065262 Y10.653538 Z-1.000000 I0.418591 J0.601726
G03 X36.155611 Y10.623802 Z-1.000000 I0.455237 J1.231066
G03 X36.591121 Y10.501392 Z-1.000000 I8.156967 J28.184840
G02 X37.218231 Y10.319519 Z-1.000000 I-3.941430 J-14.762358
G02 X37.472516 Y10.225238 Z-1.000000 I-0.788939 J-2.517896
G02 X37.699084 Y10.089479 Z-1.000000 I-0.392771 J-0.912438
G02 X37.864429 Y9.912705 Z-1.000000 I-0.519971 J-0.652068
G02 X37.966667 Y9.695152 Z-1.000000 I-0.594097 J-0.411993
G02 X38.006641 Y9.403378 Z-1.000000 I-1.044965 J-0.291789
G02 X37.963556 Y9.118673 Z-1.000000 I-0.962306 J0.000014
G02 X37.833009 Y8.842800 Z-1.000000 I-1.032725 J0.319875
G02 X37.628214 Y8.616812 Z-1.000000 I-0.837128 J0.552833
G02 X37.331955 Y8.436005 Z-1.000000 I-0.818725 J1.008394
G02 X36.996339 Y8.331109 Z-1.000000 I-0.637837 J1.451412
G02 X36.591121 Y8.292128 Z-1.000000 I-0.405217 J2.086695
G02 X35.937004 Y8.379677 Z-1.000000 I0.000000 J2.487388
G02 X35.547670 Y8.576552 Z-1.000000 I0.285828 J1.048651
G02 X35.268551 Y8.908572 Z-1.000000 I0.673155 J0.849234
G02 X35.089612 Y9.419917 Z-1.000000 I1.485436 J0.806792
(Subpath end)
U
G00 Z5.000000
M300 S130.00 (pen up)
G4 P150 (wait 150ms)

(End cutting path id: path4556 at depth: -1.0)

(Start cutting path id: path4554 at depth: -1.0)
(path id: path4554 at depth step: -1.0)
(path len: 11.22737)
G00 Z5.000000
G00 X33.058933 Y8.371517
(Subpath start)
D
G01 Z-1.000000 F100.0(Penetrate)
G01 X33.058933 Y11.883858 Z-1.000000 F400.000000
G01 X33.594715 Y11.883858 Z-1.000000
G01 X33.594715 Y11.351389 Z-1.000000
G02 X33.824282 Y11.702909 Z-1.000000 I2.401625 J-1.317711
G02 X33.973400 Y11.844149 Z-1.000000 I0.519841 J-0.399499
G02 X34.156421 Y11.932930 Z-1.000000 I0.386190 J-0.563085
G02 X34.355391 Y11.963219 Z-1.000000 I0.198970 J-0.638393
G02 X34.643827 Y11.919060 Z-1.000000 I0.000000 J-0.964092
G02 X34.967240 Y11.771392 Z-1.000000 I-0.428316 J-1.366063
G01 X34.762189 Y11.219083 Z-1.000000
G03 X34.535601 Y11.317694 Z-1.000000 I-0.511329 J-0.865299
G03 X34.325628 Y11.348059 Z-1.000000 I-0.209973 J-0.710805
G03 X34.140607 Y11.317907 Z-1.000000 I0.000000 J-0.582754
G03 X33.975054 Y11.230654 Z-1.000000 I0.184231 J-0.550244
G03 X33.845740 Y11.094773 Z-1.000000 I0.347582 J-0.460255
G03 X33.753465 Y10.904885 Z-1.000000 I0.604263 J-0.411005
G03 X33.680752 Y10.583340 Z-1.000000 I1.956546 J-0.611434
G03 X33.654246 Y10.210365 Z-1.000000 I2.610879 J-0.372975
G01 X33.654246 Y8.371517 Z-1.000000
G01 X33.058933 Y8.371517 Z-1.000000
(Subpath end)
U
G00 Z5.000000

(End cutting path id: path4554 at depth: -1.0)

(Start cutting path id: path4552 at depth: -1.0)
(path id: path4552 at depth step: -1.0)
(path len: 18.50269)
G00 Z5.000000
G00 X31.597112 Y8.371517
(Subpath start)
D
G01 Z-1.000000 F100.0(Penetrate)
G01 X31.597112 Y8.887448 Z-1.000000 F400.000000
G02 X31.105114 Y8.447970 Z-1.000000 I-1.149781 J0.792051
G02 X30.482554 Y8.292128 Z-1.000000 I-0.622560 J1.165582
G02 X30.178188 Y8.323022 Z-1.000000 I-0.000000 J1.514767
G02 X29.902125 Y8.411198 Z-1.000000 I0.273001 J1.330958
G02 X29.653731 Y8.556408 Z-1.000000 I0.514803 J1.165666
G02 X29.501942 Y8.710495 Z-1.000000 I0.431276 J0.576651
G02 X29.395127 Y8.901203 Z-1.000000 I0.760780 J0.551378
G02 X29.318387 Y9.152031 Z-1.000000 I1.249484 J0.519424
G02 X29.294409 Y9.328572 Z-1.000000 I1.254475 J0.260288
G02 X29.282006 Y9.707642 Z-1.000000 I5.786727 J0.379070
G01 X29.282006 Y11.883858 Z-1.000000
G01 X29.877320 Y11.883858 Z-1.000000
G01 X29.877320 Y9.935847 Z-1.000000
G03 X29.890768 Y9.471024 Z-1.000000 I8.037262 J-0.000073
G03 X29.913699 Y9.307479 Z-1.000000 I1.013291 J0.058691
G03 X30.004369 Y9.095492 Z-1.000000 I0.665907 J0.159436
G03 X30.151824 Y8.938699 Z-1.000000 I0.501205 J0.323622
G03 X30.345959 Y8.842014 Z-1.000000 I0.374293 J0.508300
G03 X30.601615 Y8.804757 Z-1.000000 I0.255656 J0.858517
G03 X30.860121 Y8.839410 Z-1.000000 I-0.000000 J0.981523
G03 X31.104324 Y8.942001 Z-1.000000 I-0.266616 J0.976577
G03 X31.306521 Y9.107688 Z-1.000000 I-0.420830 J0.719785
G03 X31.436708 Y9.315748 Z-1.000000 I-0.549072 J0.488324
G03 X31.502897 Y9.558435 Z-1.000000 I-0.932322 J0.384645
G03 X31.534272 Y10.002000 Z-1.000000 I-3.120158 J0.443595
G01 X31.534272 Y11.883858 Z-1.000000
G01 X32.129586 Y11.883858 Z-1.000000
G01 X32.129586 Y8.371517 Z-1.000000
G01 X31.597112 Y8.371517 Z-1.000000
(Subpath end)
U
G00 Z5.000000

(End cutting path id: path4552 at depth: -1.0)

(Start cutting path id: path4550 at depth: -1.0)
(path id: path4550 at depth step: -1.0)
(path len: 16.85020)
G00 Z5.000000
G00 X27.929324 Y9.502608
(Subpath start)
D
G01 Z-1.000000 F100.0(Penetrate)
G01 X28.544480 Y9.426521 Z-1.000000 F400.000000
G02 X28.326687 Y8.936193 Z-1.000000 I-1.684803 J0.454820
G02 X28.005392 Y8.589788 Z-1.000000 I-1.137545 J0.732885
G02 X27.583448 Y8.376688 Z-1.000000 I-0.797085 J1.053972
G02 X26.999975 Y8.292128 Z-1.000000 I-0.583473 J1.970729
G02 X26.286691 Y8.425776 Z-1.000000 I0.000000 J1.970237
G02 X25.777931 Y8.766713 Z-1.000000 I0.508099 J1.308269
G02 X25.459040 Y9.294293 Z-1.000000 I1.038615 J0.987947
G02 X25.326486 Y10.097899 Z-1.000000 I2.369628 J0.803604
G02 X25.461102 Y10.931249 Z-1.000000 I2.646741 J0.000001
G02 X25.782892 Y11.473732 Z-1.000000 I1.402501 J-0.465253
G02 X26.297129 Y11.830233 Z-1.000000 I1.076589 J-1.003799
G02 X26.966902 Y11.963219 Z-1.000000 I0.669774 J-1.620147
G02 X27.614937 Y11.833613 Z-1.000000 I0.000000 J-1.684906
G02 X28.117840 Y11.483667 Z-1.000000 I-0.556971 J-1.336745
G02 X28.432517 Y10.952243 Z-1.000000 I-1.058957 J-0.985928
G02 X28.564324 Y10.134306 Z-1.000000 I-2.472061 J-0.817950
G02 X28.563764 Y10.081355 Z-1.000000 I-2.526827 J0.000202
G02 X28.561022 Y9.975556 Z-1.000000 I-10.835051 J0.227969
G01 X25.941648 Y9.975556 Z-1.000000
G03 X26.054992 Y9.431686 Z-1.000000 I1.875827 J0.107182
G03 X26.269069 Y9.089180 Z-1.000000 I0.931608 J0.344131
G03 X26.598191 Y8.863038 Z-1.000000 I0.707529 J0.677152
G03 X27.003288 Y8.781615 Z-1.000000 I0.405097 J0.967004
G03 X27.315189 Y8.828513 Z-1.000000 I0.000000 J1.060614
G03 X27.562220 Y8.953601 Z-1.000000 I-0.240319 J0.781065
G03 X27.753964 Y9.155070 Z-1.000000 I-0.486550 J0.655042
G03 X27.929330 Y9.502608 Z-1.000000 I-1.328539 J0.888388
(Subpath end)
U
G00 Z5.000000

(End cutting path id: path4550 at depth: -1.0)

(Start cutting path id: path4550 at depth: -1.0)
(path id: path4550 at depth step: -1.0)
(path len: 5.08968)
G00 Z5.000000
G00 X25.974715 Y10.465014
(Subpath start)
D
G01 Z-1.000000 F100.0(Penetrate)
G01 X27.935939 Y10.465014 Z-1.000000 F400.000000
G03 X27.846826 Y10.887712 Z-1.000000 I-1.820429 J-0.163037
G03 X27.711043 Y11.129788 Z-1.000000 I-0.714841 J-0.241843
G03 X27.383795 Y11.382772 Z-1.000000 I-0.724676 J-0.599259
G03 X26.973517 Y11.473732 Z-1.000000 I-0.410278 J-0.879799
G03 X26.593227 Y11.400825 Z-1.000000 I-0.000000 J-1.028269
G03 X26.283947 Y11.199243 Z-1.000000 I0.345679 J-0.868413
G03 X26.075482 Y10.892212 Z-1.000000 I0.661594 J-0.673489
G03 X25.974715 Y10.465014 Z-1.000000 I1.216799 J-0.512501
(Subpath end)
U
G00 Z5.000000

(End cutting path id: path4550 at depth: -1.0)

(Start cutting path id: path4548 at depth: -1.0)
(path id: path4548 at depth step: -1.0)
(path len: 18.50269)
G00 Z5.000000
G00 X24.056486 Y8.371517
(Subpath start)
D
G01 Z-1.000000 F100.0(Penetrate)
G01 X24.056486 Y8.887448 Z-1.000000 F400.000000
G02 X23.564489 Y8.447971 Z-1.000000 I-1.149780 J0.792050
G02 X22.941929 Y8.292128 Z-1.000000 I-0.622560 J1.165581
G02 X22.637563 Y8.323022 Z-1.000000 I-0.000000 J1.514760
G02 X22.361499 Y8.411198 Z-1.000000 I0.273006 J1.330979
G02 X22.113105 Y8.556408 Z-1.000000 I0.514794 J1.165650
G02 X21.961316 Y8.710495 Z-1.000000 I0.431282 J0.576656
G02 X21.854501 Y8.901203 Z-1.000000 I0.760818 J0.551398
G02 X21.777762 Y9.152031 Z-1.000000 I1.249432 J0.519410
G02 X21.753778 Y9.328573 Z-1.000000 I1.253339 J0.260174
G02 X21.741381 Y9.707642 Z-1.000000 I5.789494 J0.379062
G01 X21.741381 Y11.883858 Z-1.000000
G01 X22.336694 Y11.883858 Z-1.000000
G01 X22.336694 Y9.935847 Z-1.000000
G03 X22.350138 Y9.471025 Z-1.000000 I8.041337 J-0.000022
G03 X22.373074 Y9.307479 Z-1.000000 I1.012591 J0.058627
G03 X22.463744 Y9.095492 Z-1.000000 I0.665900 J0.159432
G03 X22.611199 Y8.938699 Z-1.000000 I0.501203 J0.323621
G03 X22.805335 Y8.842014 Z-1.000000 I0.374295 J0.508306
G03 X23.060991 Y8.804757 Z-1.000000 I0.255656 J0.858514
G03 X23.319494 Y8.839410 Z-1.000000 I0.000000 J0.981515
G03 X23.563699 Y8.942001 Z-1.000000 I-0.266622 J0.976598
G03 X23.765896 Y9.107688 Z-1.000000 I-0.420829 J0.719780
G03 X23.896082 Y9.315748 Z-1.000000 I-0.549072 J0.488321
G03 X23.962271 Y9.558435 Z-1.000000 I-0.932339 J0.384651
G03 X23.993647 Y10.002000 Z-1.000000 I-3.120092 J0.443595
G01 X23.993647 Y11.883858 Z-1.000000
G01 X24.588960 Y11.883858 Z-1.000000
G01 X24.588960 Y8.371517 Z-1.000000
G01 X24.056486 Y8.371517 Z-1.000000
(Subpath end)
U
G00 Z5.000000

(End cutting path id: path4548 at depth: -1.0)

(Start cutting path id: path4546 at depth: -1.0)
(path id: path4546 at depth step: -1.0)
(path len: 15.76975)
G00 Z5.000000
G00 X20.223335 Y7.025430
(Subpath start)
D
G01 Z-1.000000 F100.0(Penetrate)
G01 X20.223335 Y8.745236 Z-1.000000 F400.000000
G02 X20.064190 Y8.573414 Z-1.000000 I-0.744352 J0.529820
G02 X19.834728 Y8.421104 Z-1.000000 I-0.809554 J0.970627
G02 X19.577079 Y8.324846 Z-1.000000 I-0.530884 J1.028044
G02 X19.303908 Y8.292128 Z-1.000000 I-0.273171 J1.124041
G02 X18.734603 Y8.417753 Z-1.000000 I-0.000000 J1.352793
G02 X18.227384 Y8.791521 Z-1.000000 I0.665042 J1.433535
G02 X17.907499 Y9.341576 Z-1.000000 I1.141517 J1.031891
G02 X17.775939 Y10.160750 Z-1.000000 I2.484542 J0.819172
G02 X17.825639 Y10.679531 Z-1.000000 I2.732409 J0.000002
G02 X17.959494 Y11.109948 Z-1.000000 I2.006823 J-0.388077
G02 X18.192814 Y11.486883 Z-1.000000 I1.432350 J-0.625936
G02 X18.491967 Y11.746585 Z-1.000000 I0.957661 J-0.800991
G02 X18.856745 Y11.907596 Z-1.000000 I0.753992 J-1.214484
G02 X19.257605 Y11.963219 Z-1.000000 I0.400861 J-1.416653
G02 X19.832799 Y11.818912 Z-1.000000 I0.000000 J-1.218494
G02 X20.282866 Y11.414212 Z-1.000000 I-0.599145 J-1.118917
G01 X20.282866 Y11.883858 Z-1.000000
G01 X20.818647 Y11.883858 Z-1.000000
G01 X20.818647 Y7.025430 Z-1.000000
G01 X20.223335 Y7.025430 Z-1.000000
(Subpath end)
U
G00 Z5.000000

(End cutting path id: path4546 at depth: -1.0)

(Start cutting path id: path4546 at depth: -1.0)
(path id: path4546 at depth step: -1.0)
(path len: 7.40073)
G00 Z5.000000
G00 X18.387788 Y10.137608
(Subpath start)
D
G01 Z-1.000000 F100.0(Penetrate)
G03 X18.476389 Y9.491837 Z-1.000000 I2.397611 J-0.000004 F400.000000
G03 X18.672215 Y9.120620 Z-1.000000 I0.957272 J0.267722
G03 X18.995845 Y8.865684 Z-1.000000 I0.773325 J0.648820
G03 X19.353517 Y8.781615 Z-1.000000 I0.357672 J0.718816
G03 X19.696904 Y8.861572 Z-1.000000 I-0.000000 J0.777340
G03 X20.008361 Y9.104082 Z-1.000000 I-0.430301 J0.873894
G03 X20.196829 Y9.458195 Z-1.000000 I-0.712115 J0.606217
G03 X20.282866 Y10.084691 Z-1.000000 I-2.238070 J0.626511
G03 X20.192779 Y10.753674 Z-1.000000 I-2.529076 J-0.000015
G03 X19.993478 Y11.139722 Z-1.000000 I-1.010347 J-0.277132
G03 X19.663519 Y11.408001 Z-1.000000 I-0.817871 J-0.668858
G03 X19.313830 Y11.493601 Z-1.000000 I-0.349772 J-0.671809
G03 X18.965865 Y11.411256 Z-1.000000 I0.000085 J-0.776725
G03 X18.657332 Y11.164501 Z-1.000000 I0.424693 J-0.847288
G03 X18.473876 Y10.804680 Z-1.000000 I0.732892 J-0.600346
G03 X18.387788 Y10.137608 Z-1.000000 I2.541390 J-0.667068
(Subpath end)
U
G00 Z5.000000

(End cutting path id: path4546 at depth: -1.0)

(Start cutting path id: path4544 at depth: -1.0)
(path id: path4544 at depth step: -1.0)
(path len: 2.55980)
G00 Z5.000000
G00 X16.479480 Y12.535396
(Subpath start)
D
G01 Z-1.000000 F100.0(Penetrate)
G01 X16.479480 Y13.219982 Z-1.000000 F400.000000
G01 X17.074793 Y13.219982 Z-1.000000
G01 X17.074793 Y12.535396 Z-1.000000
G01 X16.479480 Y12.535396 Z-1.000000
(Subpath end)
U
G00 Z5.000000

(End cutting path id: path4544 at depth: -1.0)

(Start cutting path id: path4544 at depth: -1.0)
(path id: path4544 at depth step: -1.0)
(path len: 8.21531)
G00 Z5.000000
G00 X16.479480 Y8.371517
(Subpath start)
D
G01 Z-1.000000 F100.0(Penetrate)
G01 X16.479480 Y11.883858 Z-1.000000 F400.000000
G01 X17.074793 Y11.883858 Z-1.000000
G01 X17.074793 Y8.371517 Z-1.000000
G01 X16.479480 Y8.371517 Z-1.000000
(Subpath end)
U
G00 Z5.000000

(End cutting path id: path4544 at depth: -1.0)

(Start cutting path id: path4542 at depth: -1.0)
(path id: path4542 at depth step: -1.0)
(path len: 11.22737)
G00 Z5.000000
G00 X14.207371 Y8.371517
(Subpath start)
D
G01 Z-1.000000 F100.0(Penetrate)
G01 X14.207371 Y11.883858 Z-1.000000 F400.000000
G01 X14.743152 Y11.883858 Z-1.000000
G01 X14.743152 Y11.351389 Z-1.000000
G02 X14.972719 Y11.702909 Z-1.000000 I2.401684 J-1.317746
G02 X15.121837 Y11.844149 Z-1.000000 I0.519835 J-0.399492
G02 X15.304859 Y11.932930 Z-1.000000 I0.386190 J-0.563086
G02 X15.503830 Y11.963219 Z-1.000000 I0.198971 J-0.638400
G02 X15.792265 Y11.919060 Z-1.000000 I0.000000 J-0.964087
G02 X16.115679 Y11.771392 Z-1.000000 I-0.428322 J-1.366078
G01 X15.910626 Y11.219083 Z-1.000000
G03 X15.684039 Y11.317694 Z-1.000000 I-0.511331 J-0.865306
G03 X15.474064 Y11.348059 Z-1.000000 I-0.209975 J-0.710809
G03 X15.289045 Y11.317908 Z-1.000000 I0.000000 J-0.582748
G03 X15.123491 Y11.230654 Z-1.000000 I0.184234 J-0.550252
G03 X14.994177 Y11.094772 Z-1.000000 I0.347577 J-0.460251
G03 X14.901902 Y10.904885 Z-1.000000 I0.604250 J-0.410995
G03 X14.829190 Y10.583340 Z-1.000000 I1.956617 J-0.611453
G03 X14.802684 Y10.210365 Z-1.000000 I2.610712 J-0.372963
G01 X14.802684 Y8.371517 Z-1.000000
G01 X14.207371 Y8.371517 Z-1.000000
(Subpath end)
U
G00 Z5.000000

(End cutting path id: path4542 at depth: -1.0)

(Start cutting path id: path4540 at depth: -1.0)
(path id: path4540 at depth step: -1.0)
(path len: 15.74615)
G00 Z5.000000
G00 X10.992684 Y8.371517
(Subpath start)
D
G01 Z-1.000000 F100.0(Penetrate)
G01 X10.440366 Y8.371517 Z-1.000000 F400.000000
G01 X10.440366 Y13.219982 Z-1.000000
G01 X11.035679 Y13.219982 Z-1.000000
G01 X11.035679 Y11.490271 Z-1.000000
G02 X11.471648 Y11.840854 Z-1.000000 I1.000003 J-0.797192
G02 X11.998100 Y11.963219 Z-1.000000 I0.526452 J-1.071299
G02 X12.315028 Y11.929849 Z-1.000000 I-0.000000 J-1.521697
G02 X12.611603 Y11.832578 Z-1.000000 I-0.304012 J-1.427674
G02 X12.878132 Y11.672674 Z-1.000000 I-0.550933 J-1.220379
G02 X13.087853 Y11.465463 Z-1.000000 I-0.735492 J-0.954137
G02 X13.248745 Y11.215213 Z-1.000000 I-1.200934 J-0.948955
G02 X13.380548 Y10.894979 Z-1.000000 I-1.845105 J-0.946658
G02 X13.458676 Y10.556637 Z-1.000000 I-2.074695 J-0.657266
G02 X13.486381 Y10.180590 Z-1.000000 I-2.538648 J-0.376081
G02 X13.353475 Y9.328964 Z-1.000000 I-2.795044 J0.000016
G02 X13.039897 Y8.784917 Z-1.000000 I-1.413003 J0.452032
G02 X12.538103 Y8.416859 Z-1.000000 I-1.150336 J1.042227
G02 X11.968335 Y8.292128 Z-1.000000 I-0.569769 J1.238988
G02 X11.419025 Y8.429203 Z-1.000000 I-0.000000 J1.169185
G02 X10.992684 Y8.811389 Z-1.000000 I0.561825 J1.055625
G01 X10.992684 Y8.371517 Z-1.000000
(Subpath end)
U
G00 Z5.000000

(End cutting path id: path4540 at depth: -1.0)

(Start cutting path id: path4540 at depth: -1.0)
(path id: path4540 at depth step: -1.0)
(path len: 7.37056)
G00 Z5.000000
G00 X10.986068 Y10.154146
(Subpath start)
D
G01 Z-1.000000 F100.0(Penetrate)
G03 X11.043545 Y9.538618 Z-1.000000 I3.324598 J-0.000007 F400.000000
G03 X11.158048 Y9.241326 Z-1.000000 I0.867555 J0.163446
G03 X11.503969 Y8.897210 Z-1.000000 I0.878613 J0.537296
G03 X11.918725 Y8.781615 Z-1.000000 I0.414756 J0.686271
G03 X12.270126 Y8.864934 Z-1.000000 I0.000000 J0.782678
G03 X12.593412 Y9.120620 Z-1.000000 I-0.457728 J0.910969
G03 X12.789576 Y9.491718 Z-1.000000 I-0.764571 J0.641549
G03 X12.877839 Y10.130975 Z-1.000000 I-2.270915 J0.639272
G03 X12.791160 Y10.787505 Z-1.000000 I-2.529821 J-0.000016
G03 X12.604988 Y11.146326 Z-1.000000 I-0.910414 J-0.244655
G03 X12.293845 Y11.391982 Z-1.000000 I-0.738398 J-0.615369
G03 X11.945183 Y11.473732 Z-1.000000 I-0.348661 J-0.702640
G03 X11.593770 Y11.390413 Z-1.000000 I0.000000 J-0.782733
G03 X11.270496 Y11.134755 Z-1.000000 I0.457719 J-0.910991
G03 X11.072755 Y10.764201 Z-1.000000 I0.779493 J-0.654002
G03 X10.986068 Y10.154146 Z-1.000000 I2.103251 J-0.610051
(Subpath end)
U
G00 Z5.000000

(End cutting path id: path4540 at depth: -1.0)

(Start cutting path id: path4538 at depth: -1.0)
(path id: path4538 at depth step: -1.0)
(path len: 17.23937)
G00 Z5.000000
G00 X8.965314 Y8.804757
(Subpath start)
D
G01 Z-1.000000 F100.0(Penetrate)
G02 X8.618300 Y8.551241 Z-1.000000 I-1.895055 J2.229712 F400.000000
G02 X8.328660 Y8.407896 Z-1.000000 I-0.874733 J1.403167
G02 X8.017211 Y8.322315 Z-1.000000 I-0.611367 J1.615402
G02 X7.672163 Y8.292128 Z-1.000000 I-0.345048 J1.956939
G02 X7.126142 Y8.376819 Z-1.000000 I0.000000 J1.802502
G02 X6.782501 Y8.574915 Z-1.000000 I0.281371 J0.885208
G02 X6.554659 Y8.894385 Z-1.000000 I0.623757 J0.685839
G02 X6.471616 Y9.297545 Z-1.000000 I0.937115 J0.403159
G02 X6.502299 Y9.547631 Z-1.000000 I1.034503 J0.000002
G02 X6.589025 Y9.768828 Z-1.000000 I0.892672 J-0.222394
G02 X6.727136 Y9.963281 Z-1.000000 I0.914978 J-0.503595
G02 X6.896603 Y10.111135 Z-1.000000 I0.690737 J-0.620657
G02 X7.094919 Y10.222525 Z-1.000000 I0.758721 J-1.118575
G02 X7.324897 Y10.306264 Z-1.000000 I0.648417 J-1.423130
G02 X7.501739 Y10.344466 Z-1.000000 I0.507409 J-1.920446
G02 X7.854064 Y10.395559 Z-1.000000 I1.277841 J-7.571345
G03 X8.569132 Y10.507114 Z-1.000000 I-1.190760 J9.980337
G03 X8.915705 Y10.600621 Z-1.000000 I-0.468128 J2.424069
G03 X8.918658 Y10.722978 Z-1.000000 I-21.525241 J0.580757
G03 X8.919012 Y10.756069 Z-1.000000 I-1.563466 J0.033291
G03 X8.864634 Y11.095313 Z-1.000000 I-1.085472 J-0.000013
G03 X8.750340 Y11.268698 Z-1.000000 I-0.376668 J-0.123933
G03 X8.498633 Y11.408352 Z-1.000000 I-0.442085 J-0.500136
G03 X8.072345 Y11.470430 Z-1.000000 I-0.426288 J-1.432598
G03 X7.667857 Y11.423091 Z-1.000000 I-0.000000 J-1.751750
G03 X7.452228 Y11.323251 Z-1.000000 I0.137668 J-0.580099
G03 X7.295416 Y11.146862 Z-1.000000 I0.335407 J-0.456081
G03 X7.156226 Y10.802354 Z-1.000000 I1.220294 J-0.693402
G01 X6.574142 Y10.881743 Z-1.000000
G02 X6.688200 Y11.239161 Z-1.000000 I1.845012 J-0.391862
G02 X6.835418 Y11.485332 Z-1.000000 I1.011760 J-0.437962
G02 X7.043858 Y11.678279 Z-1.000000 I0.723826 J-0.572881
G02 X7.361278 Y11.839210 Z-1.000000 I0.808902 J-1.201972
G02 X7.711274 Y11.928645 Z-1.000000 I0.640274 J-1.776099
G02 X8.158335 Y11.963219 Z-1.000000 I0.447061 J-2.873138
G02 X8.602303 Y11.931243 Z-1.000000 I-0.000000 J-3.098131
G02 X8.889246 Y11.857385 Z-1.000000 I-0.196722 J-1.358612
G02 X9.151651 Y11.725384 Z-1.000000 I-0.489023 J-1.298947
G02 X9.302658 Y11.591165 Z-1.000000 I-0.355359 J-0.551862
G02 X9.410473 Y11.418869 Z-1.000000 I-0.603166 J-0.497314
G02 X9.487866 Y11.186007 Z-1.000000 I-1.036131 J-0.473658
G02 X9.506907 Y11.032826 Z-1.000000 I-1.090733 J-0.213351
G02 X9.517632 Y10.637000 Z-1.000000 I-7.302091 J-0.395912
G01 X9.517632 Y9.843250 Z-1.000000
G03 X9.532635 Y9.014402 Z-1.000000 I22.895661 J-0.000128
G03 X9.555666 Y8.793186 Z-1.000000 I1.646833 J0.059647
G03 X9.611785 Y8.579647 Z-1.000000 I1.269826 J0.219574
G03 X9.706147 Y8.371517 Z-1.000000 I1.299613 J0.463768
G01 X9.084377 Y8.371517 Z-1.000000
G02 X9.011223 Y8.562425 Z-1.000000 I0.936980 J0.468511
G02 X8.965314 Y8.804757 Z-1.000000 I1.470174 J0.404032
(Subpath end)
U
G00 Z5.000000

(End cutting path id: path4538 at depth: -1.0)

(Start cutting path id: path4538 at depth: -1.0)
(path id: path4538 at depth step: -1.0)
(path len: 5.19494)
G00 Z5.000000
G00 X8.915705 Y10.134306
(Subpath start)
D
G01 Z-1.000000 F100.0(Penetrate)
G02 X8.584244 Y10.029057 Z-1.000000 I-0.820719 J2.010143 F400.000000
G02 X7.943361 Y9.909403 Z-1.000000 I-1.720316 J7.438061
G03 X7.580429 Y9.841742 Z-1.000000 I0.640095 J-4.440680
G03 X7.424116 Y9.790333 Z-1.000000 I0.199619 J-0.870302
G03 X7.287054 Y9.706359 Z-1.000000 I0.230610 J-0.530240
G03 X7.189298 Y9.596870 Z-1.000000 I0.306574 J-0.372107
G03 X7.127969 Y9.463207 Z-1.000000 I0.424715 J-0.275775
G03 X7.106616 Y9.314083 Z-1.000000 I0.510005 J-0.149118
G03 X7.153566 Y9.097179 Z-1.000000 I0.524497 J-0.000004
G03 X7.286863 Y8.917222 Z-1.000000 I0.486336 J0.220893
G03 X7.485395 Y8.806901 Z-1.000000 I0.352010 J0.399674
G03 X7.814376 Y8.758472 Z-1.000000 I0.328981 J1.093178
G03 X8.147761 Y8.798864 Z-1.000000 I0.000000 J1.396042
G03 X8.426225 Y8.908953 Z-1.000000 I-0.264967 J1.077443
G03 X8.660647 Y9.090838 Z-1.000000 I-0.492196 J0.876375
G03 X8.819793 Y9.320687 Z-1.000000 I-0.645504 J0.616962
G03 X8.884760 Y9.529422 Z-1.000000 I-0.697564 J0.331589
G03 X8.915705 Y9.916007 Z-1.000000 I-2.399625 J0.386610
G01 X8.915705 Y10.134306 Z-1.000000
(Subpath end)
U
G00 Z5.000000

(End cutting path id: path4538 at depth: -1.0)

(Start cutting path id: path4536 at depth: -1.0)
(path id: path4536 at depth step: -1.0)
(path len: 20.78959)
G00 Z5.000000
G00 X2.641772 Y8.371517
(Subpath start)
D
G01 Z-1.000000 F100.0(Penetrate)
G01 X2.641772 Y13.219982 Z-1.000000 F400.000000
G01 X5.912684 Y13.219982 Z-1.000000
G01 X5.912684 Y12.647833 Z-1.000000
G01 X3.283387 Y12.647833 Z-1.000000
G01 X3.283387 Y11.146326 Z-1.000000
G01 X5.558804 Y11.146326 Z-1.000000
G01 X5.558804 Y10.574149 Z-1.000000
G01 X3.283387 Y10.574149 Z-1.000000
G01 X3.283387 Y8.371517 Z-1.000000
G01 X2.641772 Y8.371517 Z-1.000000
(Subpath end)
U
G00 Z5.000000

(End cutting path id: path4536 at depth: -1.0)

(Start cutting path id: path4534 at depth: -1.0)
(path id: path4534 at depth step: -1.0)
(path len: 19.46014)
G00 Z5.000000
G00 X9.835131 Y17.886583
(Subpath start)
D
G01 Z-1.000000 F100.0(Penetrate)
G01 X10.423830 Y17.979189 Z-1.000000 F400.000000
G03 X10.526054 Y17.654602 Z-1.000000 I1.020794 J0.143097
G03 X10.699988 Y17.436792 Z-1.000000 I0.616264 J0.313767
G03 X10.946893 Y17.304568 Z-1.000000 I0.445686 J0.535604
G03 X11.333335 Y17.248276 Z-1.000000 I0.386441 J1.298295
G03 X11.724222 Y17.300943 Z-1.000000 I-0.000000 J1.476871
G03 X11.941876 Y17.415295 Z-1.000000 I-0.151894 J0.553428
G03 X12.091990 Y17.604800 Z-1.000000 I-0.389446 J0.462701
G03 X12.140314 Y17.807208 Z-1.000000 I-0.399770 J0.202415
G03 X12.094651 Y17.984388 Z-1.000000 I-0.366604 J-0.000007
G03 X11.965027 Y18.124708 Z-1.000000 I-0.349842 J-0.193142
G03 X11.835231 Y18.187050 Z-1.000000 I-0.307767 J-0.474486
G03 X11.356486 Y18.326455 Z-1.000000 I-2.134322 J-6.437945
G02 X10.708294 Y18.510258 Z-1.000000 I2.848532 J11.280360
G02 X10.448634 Y18.612535 Z-1.000000 I0.599951 J1.903894
G02 X10.221288 Y18.761737 Z-1.000000 I0.433084 J0.907719
G02 X10.064988 Y18.946570 Z-1.000000 I0.523293 J0.601012
G02 X9.968146 Y19.169414 Z-1.000000 I0.744846 J0.456154
G02 X9.934350 Y19.417859 Z-1.000000 I0.896283 J0.248443
G02 X9.962087 Y19.645694 Z-1.000000 I0.949588 J0.000002
G02 X10.041837 Y19.852769 Z-1.000000 I0.861691 J-0.212965
G02 X10.168933 Y20.035594 Z-1.000000 I0.858340 J-0.461105
G02 X10.334533 Y20.185151 Z-1.000000 I0.734334 J-0.646651
G02 X10.481367 Y20.271751 Z-1.000000 I0.492501 J-0.667275
G02 X10.713217 Y20.358785 Z-1.000000 I0.729504 J-1.590997
G02 X10.955708 Y20.411188 Z-1.000000 I0.467933 J-1.578077
G02 X11.227501 Y20.429891 Z-1.000000 I0.271824 J-1.965929
G02 X11.634805 Y20.396709 Z-1.000000 I-0.000026 J-2.516730
G02 X11.953452 Y20.310830 Z-1.000000 I-0.265672 J-1.619842
G02 X12.240762 Y20.158686 Z-1.000000 I-0.471712 J-1.238140
G02 X12.414819 Y19.988368 Z-1.000000 I-0.425842 J-0.609288
G02 X12.532073 Y19.771706 Z-1.000000 I-0.735276 J-0.537980
G02 X12.619871 Y19.444317 Z-1.000000 I-1.613900 J-0.608276
G01 X12.037788 Y19.364942 Z-1.000000
G03 X11.955613 Y19.611775 Z-1.000000 I-0.734857 J-0.107552
G03 X11.807931 Y19.788276 Z-1.000000 I-0.510751 J-0.277321
G03 X11.601636 Y19.894445 Z-1.000000 I-0.365789 J-0.457250
G03 X11.270496 Y19.940413 Z-1.000000 I-0.331154 J-1.169821
G03 X10.875803 Y19.895295 Z-1.000000 I0.000018 J-1.749096
G03 X10.685105 Y19.804814 Z-1.000000 I0.111430 J-0.481047
G03 X10.551433 Y19.648791 Z-1.000000 I0.310326 J-0.401147
G03 X10.509819 Y19.487314 Z-1.000000 I0.292483 J-0.161475
G03 X10.528361 Y19.377968 Z-1.000000 I0.331663 J-0.000004
G03 X10.582580 Y19.278955 Z-1.000000 I0.324375 J0.113272
G03 X10.666847 Y19.198086 Z-1.000000 I0.297536 J0.225704
G03 X10.810783 Y19.120205 Z-1.000000 I0.418737 J0.601935
G03 X10.901139 Y19.090449 Z-1.000000 I0.452813 J1.222960
G03 X11.336642 Y18.968067 Z-1.000000 I8.167323 J28.227763
G02 X11.963753 Y18.786189 Z-1.000000 I-3.945240 J-14.775145
G02 X12.218035 Y18.691910 Z-1.000000 I-0.788773 J-2.517474
G02 X12.444608 Y18.556143 Z-1.000000 I-0.392768 J-0.912401
G02 X12.609949 Y18.379371 Z-1.000000 I-0.520079 J-0.652164
G02 X12.712192 Y18.161813 Z-1.000000 I-0.594031 J-0.411971
G02 X12.752163 Y17.870048 Z-1.000000 I-1.044993 J-0.291782
G02 X12.709077 Y17.585331 Z-1.000000 I-0.962364 J0.000015
G02 X12.578530 Y17.309461 Z-1.000000 I-1.032649 J0.319847
G02 X12.373737 Y17.083480 Z-1.000000 I-0.837075 J0.552802
G02 X12.077475 Y16.902663 Z-1.000000 I-0.818940 J1.008690
G02 X11.741864 Y16.797780 Z-1.000000 I-0.637921 J1.451852
G02 X11.336642 Y16.758798 Z-1.000000 I-0.405222 J2.086681
G02 X10.682521 Y16.846352 Z-1.000000 I-0.000000 J2.487258
G02 X10.293191 Y17.043224 Z-1.000000 I0.285864 J1.048718
G02 X10.014072 Y17.375238 Z-1.000000 I0.673104 J0.849202
G02 X9.835131 Y17.886583 Z-1.000000 I1.485434 J0.806796
(Subpath end)
U
G00 Z5.000000

(End cutting path id: path4534 at depth: -1.0)

(Start cutting path id: path4532 at depth: -1.0)
(path id: path4532 at depth step: -1.0)
(path len: 16.85021)
G00 Z5.000000
G00 X8.707345 Y17.969266
(Subpath start)
D
G01 Z-1.000000 F100.0(Penetrate)
G01 X9.322501 Y17.893198 Z-1.000000 F400.000000
G02 X9.104706 Y17.402861 Z-1.000000 I-1.684798 J0.454807
G02 X8.783413 Y17.056455 Z-1.000000 I-1.137590 J0.732914
G02 X8.361467 Y16.843353 Z-1.000000 I-0.797031 J1.053856
G02 X7.777996 Y16.758798 Z-1.000000 I-0.583471 J1.970838
G02 X7.064719 Y16.892441 Z-1.000000 I0.000000 J1.970265
G02 X6.555952 Y17.233394 Z-1.000000 I0.508042 J1.308161
G02 X6.237063 Y17.760966 Z-1.000000 I1.038592 J0.987934
G02 X6.104506 Y18.564580 Z-1.000000 I2.369631 J0.803613
G02 X6.239120 Y19.397908 Z-1.000000 I2.646671 J0.000001
G02 X6.560913 Y19.940413 Z-1.000000 I1.402631 J-0.465296
G02 X7.075144 Y20.296901 Z-1.000000 I1.076625 J-1.003894
G02 X7.744923 Y20.429891 Z-1.000000 I0.669789 J-1.620162
G02 X8.392958 Y20.300281 Z-1.000000 I-0.000010 J-1.684912
G02 X8.895861 Y19.950333 Z-1.000000 I-0.556986 J-1.336760
G02 X9.210533 Y19.418913 Z-1.000000 I-1.058993 J-0.985941
G02 X9.342345 Y18.600958 Z-1.000000 I-2.472093 J-0.817971
G02 X9.341793 Y18.548050 Z-1.000000 I-2.559080 J0.000266
G02 X9.339038 Y18.442208 Z-1.000000 I-10.091390 J0.209731
G01 X6.719663 Y18.442208 Z-1.000000
G03 X6.833008 Y17.898346 Z-1.000000 I1.875752 J0.107179
G03 X7.047084 Y17.555855 Z-1.000000 I0.931531 J0.344112
G03 X7.376211 Y17.329698 Z-1.000000 I0.707503 J0.677061
G03 X7.781303 Y17.248276 Z-1.000000 I0.405092 J0.966992
G03 X8.093208 Y17.295177 Z-1.000000 I0.000000 J1.060574
G03 X8.340235 Y17.420256 Z-1.000000 I-0.240376 J0.781210
G03 X8.531985 Y17.621746 Z-1.000000 I-0.486689 J0.655147
G03 X8.707345 Y17.969266 Z-1.000000 I-1.328684 J0.888463
(Subpath end)
U
G00 Z5.000000

(End cutting path id: path4532 at depth: -1.0)

(Start cutting path id: path4532 at depth: -1.0)
(path id: path4532 at depth step: -1.0)
(path len: 5.08968)
G00 Z5.000000
G00 X6.752736 Y18.931689
(Subpath start)
D
G01 Z-1.000000 F100.0(Penetrate)
G01 X8.713960 Y18.931689 Z-1.000000 F400.000000
G03 X8.624848 Y19.354387 Z-1.000000 I-1.820524 J-0.163052
G03 X8.489064 Y19.596455 Z-1.000000 I-0.714719 J-0.241795
G03 X8.161817 Y19.849444 Z-1.000000 I-0.724734 J-0.599315
G03 X7.751538 Y19.940413 Z-1.000000 I-0.410288 J-0.879752
G03 X7.371250 Y19.867500 Z-1.000000 I0.000011 J-1.028237
G03 X7.061967 Y19.665907 Z-1.000000 I0.345703 J-0.868420
G03 X6.853499 Y19.358879 Z-1.000000 I0.661484 J-0.673428
G03 X6.752736 Y18.931689 Z-1.000000 I1.216841 J-0.512500
(Subpath end)
U
G00 Z5.000000

(End cutting path id: path4532 at depth: -1.0)

(Start cutting path id: path4530 at depth: -1.0)
(path id: path4530 at depth step: -1.0)
(path len: 15.75594)
G00 Z5.000000
G00 X2.582241 Y16.838173
(Subpath start)
D
G01 Z-1.000000 F100.0(Penetrate)
G01 X2.582241 Y21.686663 Z-1.000000 F400.000000
G01 X3.223855 Y21.686663 Z-1.000000
G01 X3.223855 Y17.410333 Z-1.000000
G01 X5.611720 Y17.410333 Z-1.000000
G01 X5.611720 Y16.838173 Z-1.000000
G01 X2.582241 Y16.838173 Z-1.000000
(Subpath end)
U
G00 Z5.000000

(End cutting path id: path4530 at depth: -1.0)

(Footer)
M5
G00 X0.0000 Y0.0000
M2
(Using default footer. To add your own footer create file "footer" in the output dir.)
(end)
