
(Header)
(Generated by gcodetools from Inkscape.)
(Using default header. To add your own header create file "header" in the output dir.)
M3
(Header end.)
G21 (All units in mm)

(Start cutting path id: path3382 at depth: -1.0)
(path id: path3382 at depth step: -1.0)
(path len: 177.87212)
(Change tool to Default tool)

G00 Z5.000000
G00 X12.014238 Y57.495945
(Subpath start)
G01 Z-1.000000 F100.0(Penetrate)
G03 X8.186887 Y56.734712 Z-1.000000 I-0.000250 J-10.001000 F400.000000
G03 X4.942213 Y54.566720 Z-1.000000 I3.827101 J-9.239767
G03 X2.774221 Y51.322047 Z-1.000000 I7.071775 J-7.071775
G03 X2.012988 Y47.494695 Z-1.000000 I9.239767 J-3.827101
G01 X2.012988 Y10.567681 Z-1.000000
G03 X2.774221 Y6.740330 Z-1.000000 I10.001000 J-0.000250
G03 X4.942213 Y3.495656 Z-1.000000 I9.239767 J3.827101
G03 X8.186887 Y1.327664 Z-1.000000 I7.071775 J7.071775
G03 X12.014238 Y0.566431 Z-1.000000 I3.827101 J9.239767
G01 X16.926669 Y0.566431 Z-1.000000
G03 X23.992993 Y3.498773 Z-1.000000 I-0.008569 J10.000996
G03 X26.919099 Y10.567681 Z-1.000000 I-7.074894 J7.068655
G01 X26.919099 Y18.346431 Z-1.000000
G01 X32.969238 Y18.346431 Z-1.000000
G03 X36.796590 Y19.107664 Z-1.000000 I0.000250 J10.001000
G03 X40.041263 Y21.275656 Z-1.000000 I-3.827101 J9.239767
G03 X42.209255 Y24.520330 Z-1.000000 I-7.071775 J7.071775
G03 X42.970488 Y28.347681 Z-1.000000 I-9.239767 J3.827101
G01 X42.970488 Y32.713306 Z-1.000000
G03 X42.836709 Y34.308466 Z-1.000000 I-10.000937 J-0.035547
G03 X42.450141 Y35.861848 Z-1.000000 I-9.867157 J-1.630707
G03 X44.774442 Y39.170507 Z-1.000000 I-6.852443 J7.284505
G03 X45.598683 Y43.129070 Z-1.000000 I-9.176745 J3.975847
G01 X45.598683 Y47.494695 Z-1.000000
G03 X44.837450 Y51.322047 Z-1.000000 I-10.001000 J0.000250
G03 X42.669458 Y54.566720 Z-1.000000 I-9.239767 J-3.827101
G03 X39.424784 Y56.734712 Z-1.000000 I-7.071775 J-7.071775
G03 X35.597433 Y57.495945 Z-1.000000 I-3.827101 J-9.239767
G01 X12.014238 Y57.495945 Z-1.000000
(Subpath end)
G00 Z5.000000

(End cutting path id: path3382 at depth: -1.0)

(Start cutting path id: path3380 at depth: -1.0)
(path id: path3380 at depth step: -1.0)
(path len: 178.10461)
G00 Z5.000000
G00 X12.014238 Y52.495320
(Subpath start)
G01 Z-1.000000 F100.0(Penetrate)
G03 X10.100563 Y52.114704 Z-1.000000 I-0.000125 J-5.000500 F400.000000
G03 X8.478226 Y51.030708 Z-1.000000 I1.913551 J-4.619884
G03 X7.394230 Y49.408371 Z-1.000000 I3.535887 J-3.535887
G03 X7.013613 Y47.494695 Z-1.000000 I4.619884 J-1.913551
G01 X7.013613 Y10.567681 Z-1.000000
G03 X7.394226 Y8.654001 Z-1.000000 I5.000500 J-0.000139
G03 X8.478221 Y7.031660 Z-1.000000 I4.619888 J1.913541
G03 X10.100559 Y5.947660 Z-1.000000 I3.535892 J3.535882
G03 X12.014238 Y5.567042 Z-1.000000 I1.913554 J4.619882
G01 X16.926669 Y5.567042 Z-1.000000
G03 X20.456986 Y7.034774 Z-1.000000 I-0.008694 J5.000492
G03 X21.918474 Y10.567681 Z-1.000000 I-3.539012 J3.532760
G01 X21.918474 Y23.347042 Z-1.000000
G01 X32.969238 Y23.347042 Z-1.000000
G03 X34.882917 Y23.727660 Z-1.000000 I0.000125 J5.000500
G03 X36.505256 Y24.811660 Z-1.000000 I-1.913554 J4.619882
G03 X37.589251 Y26.434001 Z-1.000000 I-3.535892 J3.535882
G03 X37.969863 Y28.347681 Z-1.000000 I-4.619888 J1.913541
G01 X37.969863 Y32.713306 Z-1.000000
G03 X37.589247 Y34.626982 Z-1.000000 I-5.000500 J0.000125
G03 X36.505251 Y36.249319 Z-1.000000 I-4.619884 J-1.913551
G03 X34.882914 Y37.333315 Z-1.000000 I-3.535887 J-3.535887
G03 X32.969238 Y37.713931 Z-1.000000 I-1.913551 J-4.619884
G01 X21.918474 Y37.713931 Z-1.000000
G01 X21.918474 Y38.137265 Z-1.000000
G01 X35.597433 Y38.137265 Z-1.000000
G03 X39.130331 Y39.598758 Z-1.000000 I0.000133 J5.000500
G03 X40.598058 Y43.129070 Z-1.000000 I-3.532765 J3.539007
G01 X40.598058 Y47.494695 Z-1.000000
G03 X40.217441 Y49.408371 Z-1.000000 I-5.000500 J0.000125
G03 X39.133445 Y51.030708 Z-1.000000 I-4.619884 J-1.913551
G03 X37.511109 Y52.114704 Z-1.000000 I-3.535887 J-3.535887
G03 X35.597433 Y52.495320 Z-1.000000 I-1.913551 J-4.619884
G01 X12.014238 Y52.495320 Z-1.000000
(Subpath end)
G00 Z5.000000

(End cutting path id: path3380 at depth: -1.0)

(Start cutting path id: path3354 at depth: -1.0)
(path id: path3354 at depth step: -1.0)
(path len: 153.14415)
G00 Z5.000000
G00 X35.600433 Y43.133306
(Subpath start)
G01 Z-1.000000 F100.0(Penetrate)
G01 X16.922504 Y43.133306 Z-1.000000 F400.000000
G01 X16.922504 Y32.715338 Z-1.000000
G01 X32.971137 Y32.715338 Z-1.000000
G01 X32.971137 Y28.349713 Z-1.000000
G01 X16.922504 Y28.349713 Z-1.000000
G01 X16.922504 Y10.564746 Z-1.000000
G01 X12.011176 Y10.564746 Z-1.000000
G01 X12.011176 Y47.498931 Z-1.000000
G01 X35.600433 Y47.498931 Z-1.000000
G01 X35.600433 Y43.133306 Z-1.000000
(Subpath end)
G00 Z5.000000

(End cutting path id: path3354 at depth: -1.0)

(Footer)
M5
G00 X0.0000 Y0.0000
M2
(Using default footer. To add your own footer create file "footer" in the output dir.)
(end)
